aqumoz/WireEKF/data_Viktor/ctrl_mads_lauge_anders_20260507_115434/robot_b_q.csv
time_ns,time_s,q0,q1,q2,q3,q4,q5
1778147682656765973,1778147682.6567662,-2.660347286854879,-1.4983005237630387,-1.6045689582824707,-0.8890929383090516,1.2563323974609375,0.395358681678772
1778147682668286324,1778147682.6682863,-2.660302225743429,-1.4982886177352448,-1.6045528650283813,-0.8891740602305909,1.2564746141433716,0.3953344225883484
1778147682692714602,1778147682.6927147,-2.6603263060199183,-1.4982203406146546,-1.6045570373535156,-0.8890608114055176,1.256466269493103,0.3952700197696686
1778147682709768133,1778147682.7097683,-2.6603012720691126,-1.498236396615841,-1.60458505153656,-0.8890496057322999,1.2565069198608398,0.395303338766098
1778147682727989234,1778147682.7279894,-2.6603947321521204,-1.4982803624919434,-1.6046007871627808,-0.8890698713115235,1.2564983367919922,0.39525464177131653
1778147682747829674,1778147682.74783,-2.6604018847094935,-1.498223864739277,-1.6045969724655151,-0.8889929217151185,1.2564858198165894,0.39525094628334045
1778147682767856975,1778147682.767857,-2.660438362752096,-1.4982963886908074,-1.6045327186584473,-0.8890460294536133,1.2565466165542603,0.3952349126338959
1778147682788825622,1778147682.7888258,-2.660450283681051,-1.4982886102846642,-1.6045969724655151,-0.8890216511539002,1.2565382719039917,0.3952349126338959
1778147682807977353,1778147682.8079777,-2.6604178587542933,-1.4983577516726037,-1.6045928001403809,-0.8890417975238343,1.256542444229126,0.3952028155326843
1778147682827862723,1778147682.827863,-2.6604753176318567,-1.4983534601381798,-1.6045931577682495,-0.8890342873385926,1.2565382719039917,0.39518263936042786
1778147682847846232,1778147682.8478463,-2.6604624430285853,-1.4983688977411767,-1.6045290231704712,-0.8890013259700318,1.2565263509750366,0.39524680376052856
1778147682867882907,1778147682.8678832,-2.6604469458209437,-1.4984015759876748,-1.6045368909835815,-0.8890298765948792,1.2564698457717896,0.3952349126338959
1778147682890162845,1778147682.890163,-2.660471026097433,-1.4984009724906464,-1.6045689582824707,-0.8890013259700318,1.2565263509750366,0.3952390253543854
1778147682907866258,1778147682.9078665,-2.660471026097433,-1.498441533451416,-1.604573130607605,-0.8890342873385926,1.2564977407455444,0.3952229917049408
1778147682927910024,1778147682.9279103,-2.660454575215475,-1.4984415260008355,-1.6045488119125366,-0.8890096706203003,1.2565102577209473,0.3952474296092987
1778147682948913816,1778147682.948914,-2.6604588667498987,-1.4983927768519898,-1.6046173572540283,-0.8890054982951661,1.256481647491455,0.3952105939388275
1778147682967870651,1778147682.9678707,-2.660454575215475,-1.4984205526164551,-1.6045570373535156,-0.8889846366694947,1.2565299272537231,0.39519500732421875
1778147682988114768,1778147682.9881148,-2.660487238560812,-1.4984289717725296,-1.6045446395874023,-0.8890664738467713,1.2565340995788574,0.3952147364616394
1778147683008063319,1778147683.0080633,-2.660454575215475,-1.498392717247345,-1.6045290231704712,-0.8890663546374817,1.256542444229126,0.3952028155326843
1778147683028592435,1778147683.0285926,-2.660454575215475,-1.498424844150879,-1.6045492887496948,-0.8890342277339478,1.2565460205078125,0.3952105939388275
1778147683047931928,1778147683.047932,-2.6605032126056116,-1.4984456536224862,-1.6044811010360718,-0.8890781563571473,1.2564698457717896,0.3952390253543854
1778147683067825298,1778147683.0678256,-2.660438601170675,-1.4984170359424134,-1.604485273361206,-0.8889972132495423,1.2565501928329468,0.3952313959598541
1778147683087996500,1778147683.0879965,-2.660454575215475,-1.4984088105014344,-1.604465126991272,-0.8890138429454346,1.2565662860870361,0.3952028155326843
1778147683107868829,1778147683.1078691,-2.660422388707296,-1.4984331291965027,-1.6044811010360718,-0.8890137833407898,1.2565172910690308,0.3952229619026184
1778147683127898720,1778147683.1278987,-2.660454575215475,-1.4984776985696335,-1.604485273361206,-0.889029936199524,1.2565340995788574,0.39517849683761597
1778147683148074601,1778147683.1480746,-2.6604750792132776,-1.4984575521996994,-1.604485273361206,-0.8890216511539002,1.2565382719039917,0.3952105939388275
1778147683167869625,1778147683.1678698,-2.660499159489767,-1.498388559823372,-1.604444980621338,-0.8890215915492554,1.2565299272537231,0.39520692825317383
1778147683187959973,1778147683.1879601,-2.660470787678854,-1.4984372419169922,-1.604473352432251,-0.8890342277339478,1.256542444229126,0.3952188491821289
1778147683207839049,1778147683.207839,-2.660454575215475,-1.4984045338681717,-1.6044893264770508,-0.8890342277339478,1.2565460205078125,0.39526286721229553
1778147683227911129,1778147683.2279112,-2.6604791323291224,-1.4984211486629029,-1.6045175790786743,-0.8889810007861634,1.2565057277679443,0.3952028155326843
1778147683247917273,1778147683.2479174,-2.660454575215475,-1.4984082293561478,-1.6045217514038086,-0.8890342277339478,1.2565584182739258,0.39517006278038025
1778147683267852763,1778147683.267853,-2.660482708607809,-1.4983927768519898,-1.6044847965240479,-0.8890298765948792,1.256509780883789,0.39518675208091736
1778147683287910313,1778147683.2879105,-2.660470787678854,-1.4983963084271927,-1.6045093536376953,-0.8890342277339478,1.2565423250198364,0.39519867300987244
1778147683307808973,1778147683.307809,-2.6604421774493616,-1.4984372419169922,-1.6044812202453613,-0.8890342277339478,1.2565501928329468,0.3952147364616394
1778147683327923219,1778147683.3279233,-2.6604867617236536,-1.4984205675176163,-1.604473352432251,-0.8889768880656739,1.2565542459487915,0.395230770111084
1778147683347777120,1778147683.3477771,-2.6604142824756067,-1.4984491628459473,-1.6045012474060059,-0.8889970940402527,1.2565579414367676,0.3952229619026184
1778147683367925610,1778147683.3679256,-2.660409990941183,-1.498433069591858,-1.604493498802185,-0.8890223068049927,1.2566030025482178,0.3952105939388275
1778147683387984392,1778147683.3879845,-2.66045052209963,-1.4984491628459473,-1.6044893264770508,-0.8890138429454346,1.2565340995788574,0.3952188491821289
1778147683407885498,1778147683.4078858,-2.660466734563009,-1.4984415185502549,-1.6045417785644531,-0.8890503209880372,1.2565423250198364,0.3952147364616394
1778147683427954239,1778147683.4279542,-2.660454575215475,-1.4984004509500046,-1.6044930219650269,-0.889029936199524,1.256518006324768,0.39516180753707886
1778147683447957159,1778147683.4479573,-2.6604586283313196,-1.4984497141889115,-1.6044691801071167,-0.8890181344798584,1.256497859954834,0.3952271044254303
1778147683467969259,1778147683.4679694,-2.660454575215475,-1.4984088105014344,-1.604477047920227,-0.8890460294536133,1.2564901113510132,0.39525505900382996
1778147683487981037,1778147683.487981,-2.6604910532580774,-1.4984415185502549,-1.6045094728469849,-0.8890620631030579,1.2565020322799683,0.3952028155326843
1778147683507862453,1778147683.5078626,-2.660466734563009,-1.4984088030508538,-1.6044691801071167,-0.8890460294536133,1.2565258741378784,0.39525505900382996
1778147683528012907,1778147683.528013,-2.6604750792132776,-1.4984045338681717,-1.6045053005218506,-0.8889895242503663,1.2565340995788574,0.3952474296092987
1778147683547869171,1778147683.5478692,-2.660466734563009,-1.4984450575760384,-1.6044609546661377,-0.888988808994629,1.2565423250198364,0.3952266573905945
1778147683567962888,1778147683.567963,-2.6604183355914515,-1.4984455716660996,-1.6045253276824951,-0.8890257638743897,1.2564823627471924,0.3952229619026184
1778147683588041969,1778147683.588042,-2.660511080418722,-1.4983969193748017,-1.604465126991272,-0.8890013259700318,1.2565500736236572,0.3952270746231079
1778147683608004039,1778147683.608004,-2.660454336796896,-1.4984129306725045,-1.6045217514038086,-0.8890257638743897,1.2565619945526123,0.3952348828315735
1778147683631234354,1778147683.6312344,-2.6604183355914515,-1.498424844150879,-1.6044889688491821,-0.8890257638743897,1.2565099000930786,0.3952348828315735
1778147683647917021,1778147683.6479173,-2.6604302565204065,-1.4984205675176163,-1.6044691801071167,-0.8890747588923951,1.2565419673919678,0.3952188491821289
1778147683667837102,1778147683.6678374,-2.660421911870138,-1.4984164920500298,-1.6045175790786743,-0.8890460294536133,1.2565300464630127,0.3952188491821289
1778147683688032991,1778147683.688033,-2.660426441823141,-1.4983885374716301,-1.604485273361206,-0.8890223664096375,1.2565340995788574,0.3952271044254303
1778147683707915464,1778147683.7079155,-2.66044265428652,-1.4984372568181534,-1.6044930219650269,-0.8890621227077027,1.2565500736236572,0.3952348828315735
1778147683727826893,1778147683.727827,-2.660454575215475,-1.4984456089190026,-1.604453206062317,-0.8890454334071656,1.2565181255340576,0.3952188491821289
1778147683747982075,1778147683.7479823,-2.660466734563009,-1.498416469698288,-1.6044930219650269,-0.8889970940402527,1.2564533948898315,0.39521104097366333
1778147683769428145,1778147683.7694283,-2.660405937825338,-1.4984456089190026,-1.6044490337371826,-0.889029936199524,1.2565062046051025,0.3952188491821289
1778147683787903937,1778147683.787904,-2.660454575215475,-1.4984205675176163,-1.6045012474060059,-0.8890257638743897,1.2565582990646362,0.39517006278038025
1778147683807894449,1778147683.8078947,-2.660478655491964,-1.49845755965028,-1.6045176982879639,-0.8890503209880372,1.2565579414367676,0.3952028155326843
1778147683827873138,1778147683.8278732,-2.660422388707296,-1.4984372419169922,-1.6045176982879639,-0.8889970940402527,1.2565784454345703,0.3952431380748749
1778147683847968769,1778147683.8479688,-2.660470787678854,-1.498441533451416,-1.6044691801071167,-0.889041857128479,1.2565340995788574,0.3952348828315735
1778147683867889513,1778147683.8678894,-2.660471026097433,-1.4984330472401162,-1.604485273361206,-0.8889768880656739,1.2565419673919678,0.3952390253543854
1778147683887926332,1778147683.8879263,-2.6605313459979456,-1.4984164771488686,-1.6044774055480957,-0.8889810007861634,1.256546139717102,0.3952028155326843
1778147683907854289,1778147683.9078546,-2.660499397908346,-1.4984164175442238,-1.604465126991272,-0.8890096706203003,1.2565460205078125,0.3952028155326843
1778147683927917242,1778147683.9279175,-2.660454575215475,-1.498461627667286,-1.6045336723327637,-0.8890335124782105,1.256518006324768,0.395230770111084
1778147683948002644,1778147683.9480026,-2.6604421774493616,-1.4984088626554986,-1.6045253276824951,-0.8889970940402527,1.2565988302230835,0.3952390253543854
1778147683967948230,1778147683.9679484,-2.660466734563009,-1.4984004584005852,-1.604453206062317,-0.8890621227077027,1.2565821409225464,0.3952390253543854
1778147683987905612,1778147683.9879057,-2.6604586283313196,-1.4984129232219239,-1.6045054197311401,-0.8890054982951661,1.2564901113510132,0.3952431380748749
1778147684007882744,1778147684.0078828,-2.6604462305652063,-1.4984330472401162,-1.6044652462005615,-0.8890537780574341,1.2565139532089233,0.3952028155326843
1778147684028171261,1778147684.0281713,-2.660438124333517,-1.4984004285982628,-1.6044368743896484,-0.8890257638743897,1.256525993347168,0.39519089460372925
1778147684048130046,1778147684.0481303,-2.660478655491964,-1.4984497067383309,-1.6044971942901611,-0.8890781563571473,1.2565665245056152,0.39519500732421875
1778147684068230386,1778147684.0682306,-2.660438601170675,-1.498424844150879,-1.604493498802185,-0.8890257638743897,1.2565780878067017,0.3952474296092987
1778147684087946688,1778147684.087947,-2.660438601170675,-1.4984206047705193,-1.6044930219650269,-0.8890257638743897,1.2565139532089233,0.39520692825317383
1778147684107844347,1778147684.1078444,-2.660470787678854,-1.4984164473465462,-1.6045217514038086,-0.8890215915492554,1.2565500736236572,0.39519500732421875
1778147684127938324,1778147684.1279385,-2.660482708607809,-1.4984415036490937,-1.6044811010360718,-0.8890257638743897,1.2565381526947021,0.395230770111084
1778147684147903931,1778147684.1479042,-2.660499159489767,-1.4984205824187775,-1.6044812202453613,-0.8889887493899842,1.2565139532089233,0.39519500732421875
1778147684168698066,1778147684.1686983,-2.660494867955343,-1.4984045562199135,-1.6044971942901611,-0.8890138429454346,1.2565624713897705,0.39516595005989075
1778147684189547801,1778147684.1895478,-2.660482708607809,-1.4984045189670105,-1.6045377254486084,-0.8890257638743897,1.2566148042678833,0.39521947503089905
1778147684207936779,1778147684.2079368,-2.660450283681051,-1.4983844322017212,-1.604473352432251,-0.8889887493899842,1.2565181255340576,0.39519089460372925
1778147684229255701,1778147684.2292557,-2.660466972981588,-1.4984170210412522,-1.6044893264770508,-0.8889970940402527,1.2565381526947021,0.3952028155326843
1778147684247896685,1778147684.2478967,-2.6605032126056116,-1.498433144097664,-1.604473352432251,-0.8890096706203003,1.2565099000930786,0.3952028155326843
1778147684267908353,1778147684.2679086,-2.660454575215475,-1.4984575372985383,-1.6044971942901611,-0.8889970940402527,1.2565460205078125,0.3952229619026184
1778147684287966460,1778147684.2879665,-2.66045052209963,-1.4984575298479577,-1.6045054197311401,-0.889018253689148,1.2565538883209229,0.3952105939388275
1778147684307955831,1778147684.3079557,-2.6604870001422327,-1.4984456089190026,-1.6045012474060059,-0.8889970940402527,1.2565619945526123,0.3952229619026184
1778147684329576039,1778147684.329576,-2.6605191866504114,-1.4983725112727662,-1.6044652462005615,-0.8890496653369446,1.2565181255340576,0.39520692825317383
1778147684347932315,1778147684.3479326,-2.6605072657214563,-1.4984415036490937,-1.6045054197311401,-0.8890579503825684,1.2565181255340576,0.3952147364616394
1778147684367879575,1778147684.3678799,-2.660454575215475,-1.4984170210412522,-1.6044930219650269,-0.8890460294536133,1.2565340995788574,0.3952147364616394
1778147684387957643,1778147684.3879578,-2.6604750792132776,-1.4984205824187775,-1.6044812202453613,-0.8890055578998108,1.2565381526947021,0.3952229619026184
1778147684407901594,1778147684.4079018,-2.6604586283313196,-1.4984164473465462,-1.6044691801071167,-0.8890621227077027,1.2565221786499023,0.39518675208091736
1778147684427876321,1778147684.4278765,-2.6604672114001673,-1.498449684386589,-1.604477047920227,-0.8890014451793213,1.2565460205078125,0.3952188491821289
1778147684448368235,1778147684.4483683,-2.6604307333575647,-1.4984170210412522,-1.6045377254486084,-0.8890014451793213,1.2565258741378784,0.39523550868034363
1778147684467803953,1778147684.467804,-2.660471026097433,-1.4984129232219239,-1.6044656038284302,-0.889034168129303,1.2565584182739258,0.39520692825317383
1778147684487936729,1778147684.487937,-2.6604870001422327,-1.4984170210412522,-1.6045175790786743,-0.889029399757721,1.2565340995788574,0.3952147364616394
1778147684507867383,1778147684.5078676,-2.6604259649859827,-1.4984004584005852,-1.6045176982879639,-0.8889767688563843,1.2565501928329468,0.39519867300987244
1778147684527881503,1778147684.5278816,-2.660422388707296,-1.4984170210412522,-1.6045053005218506,-0.8890258234790345,1.2565579414367676,0.39521104097366333
1778147684547982212,1778147684.5479825,-2.660450283681051,-1.4984205824187775,-1.604477047920227,-0.8889929813197632,1.2565377950668335,0.3952028155326843
1778147684567871637,1778147684.5678718,-2.6604626814471644,-1.4984372419169922,-1.6045175790786743,-0.8890138429454346,1.2565464973449707,0.3952348828315735
1778147684588023125,1778147684.5880232,-2.660454575215475,-1.4984289419702073,-1.6044609546661377,-0.8890181940845032,1.2565139532089233,0.39525920152664185
1778147684610400946,1778147684.6104012,-2.660450283681051,-1.4983885374716301,-1.6044652462005615,-0.889029936199524,1.256509780883789,0.39519086480140686
1778147684627882043,1778147684.627882,-2.66044265428652,-1.498424844150879,-1.604493498802185,-0.8890223664096375,1.2565340995788574,0.3952349126338959
1778147684647820843,1778147684.647821,-2.6604624430285853,-1.4984415036490937,-1.6044573783874512,-0.8890342873385926,1.256469964981079,0.39519497752189636
1778147684667903837,1778147684.667904,-2.660450283681051,-1.4983885374716301,-1.6044691801071167,-0.8890460294536133,1.2565221786499023,0.39525097608566284
1778147684687828744,1778147684.6878288,-2.6604300181018274,-1.498424844150879,-1.6044243574142456,-0.8890257638743897,1.2565299272537231,0.3952349126338959
1778147684707887122,1778147684.7078872,-2.6604624430285853,-1.4984129232219239,-1.6045300960540771,-0.8890621823123475,1.2565702199935913,0.3952271044254303
1778147684727914192,1778147684.7279143,-2.6604343096362513,-1.4984372568181534,-1.6044893264770508,-0.889041857128479,1.2565340995788574,0.39518675208091736
1778147684747905469,1778147684.7479057,-2.660482947026388,-1.498417006140091,-1.6044894456863403,-0.8890503209880372,1.2565821409225464,0.3952390253543854
1778147684767928544,1778147684.7679286,-2.6604257265674036,-1.4984045562199135,-1.6045013666152954,-0.8890215915492554,1.2565463781356812,0.3952229917049408
1778147684787784293,1778147684.7877843,-2.6604631582843226,-1.4984581631473084,-1.6045013666152954,-0.8889929217151185,1.256526231765747,0.39517006278038025
1778147684807876202,1778147684.807876,-2.660466734563009,-1.4984456089190026,-1.604485273361206,-0.8890181344798584,1.2565020322799683,0.3952348828315735
1778147684827843029,1778147684.8278432,-2.6604588667498987,-1.4983969193748017,-1.6044490337371826,-0.889078215961792,1.2565423250198364,0.39518672227859497
1778147684847875772,1778147684.8478758,-2.660450283681051,-1.4984616872719307,-1.6044691801071167,-0.8890342277339478,1.2565340995788574,0.3952188491821289
1778147684867918348,1778147684.8679185,-2.6604300181018274,-1.4984205824187775,-1.6044692993164062,-0.8890376848033448,1.2565460205078125,0.3952349126338959
1778147684889180428,1778147684.8891804,-2.6604624430285853,-1.4984088105014344,-1.6044692993164062,-0.8890384596637269,1.256518006324768,0.39525920152664185
1778147684907861065,1778147684.907861,-2.660478655491964,-1.498424844150879,-1.604485273361206,-0.8890014451793213,1.2565419673919678,0.3952348828315735
1778147684927898445,1778147684.9278984,-2.660434071217672,-1.4984169986895104,-1.6044816970825195,-0.889029936199524,1.2565133571624756,0.39520692825317383
1778147684947872969,1778147684.947873,-2.660499397908346,-1.4984331366470833,-1.604485273361206,-0.8889928621104737,1.2565377950668335,0.3952147364616394
1778147684967823174,1778147684.9678233,-2.660422150288717,-1.498400979941227,-1.6044775247573853,-0.8890376848033448,1.2565619945526123,0.3952349126338959
1778147684987889807,1778147684.98789,-2.6604915300952356,-1.4984538716128846,-1.6044692993164062,-0.8890503209880372,1.2565702199935913,0.39523079991340637
1778147685008045668,1778147685.0080457,-2.6604910532580774,-1.4983642187765618,-1.6044692993164062,-0.8890096706203003,1.2565381526947021,0.3952105939388275
1778147685027781558,1778147685.0277817,-2.6604183355914515,-1.4984088105014344,-1.6044816970825195,-0.8890376848033448,1.2565181255340576,0.39525508880615234
1778147685048545369,1778147685.0485454,-2.660482708607809,-1.4984088328531762,-1.6045259237289429,-0.8890174192241211,1.2565419673919678,0.3952271342277527
1778147685067985006,1778147685.067985,-2.660478655491964,-1.4984330472401162,-1.6044769287109375,-0.8890376848033448,1.2565661668777466,0.395230770111084
1778147685087905220,1778147685.0879054,-2.66044265428652,-1.4984289419702073,-1.6044692993164062,-0.8890096706203003,1.25652277469635,0.3952348828315735
1778147685108004621,1778147685.1080048,-2.660466734563009,-1.4984415036490937,-1.604485273361206,-0.8889887493899842,1.2565460205078125,0.3952229619026184
1778147685127914691,1778147685.127915,-2.6604703108416956,-1.4984205824187775,-1.6044692993164062,-0.8889929813197632,1.2565299272537231,0.3952028155326843
1778147685147924989,1778147685.1479251,-2.6604421774493616,-1.4984575298479577,-1.6044692993164062,-0.8890496057322999,1.2564979791641235,0.39519867300987244
1778147685167860934,1778147685.167861,-2.660454575215475,-1.4983927992037316,-1.604453206062317,-0.8890376848033448,1.2565300464630127,0.39525094628334045
1778147685188253059,1778147685.1882534,-2.660495106373922,-1.4984289419702073,-1.6044930219650269,-0.8890215915492554,1.2565139532089233,0.3952147364616394
1778147685207910790,1778147685.207911,-2.6604586283313196,-1.4984045562199135,-1.6044971942901611,-0.8890181940845032,1.2565062046051025,0.39524269104003906
1778147685227979368,1778147685.2279794,-2.6604910532580774,-1.4984289419702073,-1.604473352432251,-0.8890096706203003,1.2565821409225464,0.39516180753707886
1778147685247893755,1778147685.2478938,-2.66045052209963,-1.4984045562199135,-1.6045012474060059,-0.8890384000590821,1.2565381526947021,0.3952028155326843
1778147685267914834,1778147685.2679148,-2.660478655491964,-1.4984289419702073,-1.604485273361206,-0.8890215915492554,1.2565139532089233,0.3952188491821289
1778147685287886969,1778147685.2878869,-2.6604586283313196,-1.4984497067383309,-1.6044769287109375,-0.8890335124782105,1.2565821409225464,0.3952110707759857
1778147685307846792,1778147685.307847,-2.6604750792132776,-1.4984129232219239,-1.6044816970825195,-0.8889768880656739,1.2565863132476807,0.39525148272514343
1778147685328025323,1778147685.3280253,-2.6604626814471644,-1.4984371450594445,-1.6044774055480957,-0.8890425723842164,1.2565661668777466,0.39521104097366333
1778147685349123113,1778147685.3491232,-2.6604953447925013,-1.4984170210412522,-1.6044692993164062,-0.8891146343997498,1.2565062046051025,0.3952028453350067
1778147685367934470,1778147685.3679345,-2.6604343096362513,-1.4984205824187775,-1.604485273361206,-0.8890096706203003,1.2565423250198364,0.39525505900382996
1778147685387942655,1778147685.3879428,-2.6604626814471644,-1.498380334382393,-1.6045336723327637,-0.889073984032013,1.2565099000930786,0.39517849683761597
1778147685407907230,1778147685.4079075,-2.660454575215475,-1.4984164771488686,-1.6044368743896484,-0.8890460294536133,1.2565542459487915,0.3952069580554962
1778147685427916939,1778147685.4279172,-2.660422388707296,-1.4984497067383309,-1.6045093536376953,-0.8890579503825684,1.2565423250198364,0.3952229619026184
1778147685447844205,1778147685.4478443,-2.6605032126056116,-1.4984289419702073,-1.6044692993164062,-0.8890013855746766,1.2565500736236572,0.3952188491821289
1778147685467973234,1778147685.4679732,-2.660482708607809,-1.498424844150879,-1.604485273361206,-0.8890138429454346,1.2565258741378784,0.39519456028938293
1778147685488617251,1778147685.4886174,-2.6604302565204065,-1.4984372419169922,-1.6045336723327637,-0.8890014451793213,1.2565463781356812,0.39518263936042786
1778147685507955473,1778147685.5079556,-2.660438601170675,-1.498453253214695,-1.604485273361206,-0.8889929813197632,1.2565099000930786,0.39518675208091736
1778147685527986776,1778147685.5279868,-2.660422388707296,-1.4984205675176163,-1.6044769287109375,-0.8889810603908082,1.2565584182739258,0.39525091648101807
1778147685547938485,1778147685.5479386,-2.660454575215475,-1.498424844150879,-1.6044609546661377,-0.8890014451793213,1.2565340995788574,0.3952189087867737
1778147685567953760,1778147685.5679538,-2.660438601170675,-1.4984205824187775,-1.604485273361206,-0.8890014451793213,1.2565423250198364,0.3952188491821289
1778147685587822743,1778147685.587823,-2.660454575215475,-1.4983927768519898,-1.604453206062317,-0.8889929217151185,1.2565221786499023,0.395222932100296
1778147685608192675,1778147685.608193,-2.660483423863546,-1.4984045711210747,-1.6045176982879639,-0.8890013259700318,1.256526231765747,0.39519500732421875
1778147685627819997,1778147685.6278203,-2.6604583899127405,-1.4984088105014344,-1.6045137643814087,-0.8890342277339478,1.2565500736236572,0.3952229619026184
1778147685647842494,1778147685.6478426,-2.660470787678854,-1.498465710585453,-1.6044769287109375,-0.889029936199524,1.2565422058105469,0.395238995552063
1778147685668024888,1778147685.668025,-2.660422388707296,-1.4984415185502549,-1.604485273361206,-0.889029936199524,1.2565864324569702,0.3952147364616394
1778147685687837385,1778147685.6878376,-2.6604343096362513,-1.498445638721325,-1.6044888496398926,-0.8890138429454346,1.2565501928329468,0.39519867300987244
1778147685707887001,1778147685.7078872,-2.66045052209963,-1.498424844150879,-1.6044448614120483,-0.8890384000590821,1.2564659118652344,0.3952229619026184
1778147685727851267,1778147685.7278514,-2.660426441823141,-1.498421126311161,-1.6045176982879639,-0.8890096706203003,1.256466031074524,0.39515775442123413
1778147685747860152,1778147685.7478604,-2.660482708607809,-1.4984088105014344,-1.604485273361206,-0.8890257638743897,1.2565423250198364,0.3952188491821289
1778147685769368348,1778147685.7693684,-2.6604870001422327,-1.4984129232219239,-1.6044971942901611,-0.8890216511539002,1.2565340995788574,0.3952229619026184
1778147685787912465,1778147685.7879126,-2.660426441823141,-1.4984129232219239,-1.604537844657898,-0.8889970940402527,1.2565020322799683,0.3952474296092987
1778147685808030503,1778147685.8080306,-2.6604421774493616,-1.498421126311161,-1.604473352432251,-0.8890663546374817,1.2565542459487915,0.3952188789844513
1778147685827851215,1778147685.8278513,-2.6604870001422327,-1.4984289419702073,-1.6045300960540771,-0.8890054982951661,1.2564492225646973,0.3951987028121948
1778147685847865260,1778147685.8478653,-2.6604870001422327,-1.498424844150879,-1.6045093536376953,-0.888988808994629,1.2565181255340576,0.39519500732421875
1778147685868002071,1778147685.8680022,-2.660499159489767,-1.4984415185502549,-1.6044894456863403,-0.8890866798213501,1.2565300464630127,0.39525094628334045
1778147685888181570,1778147685.8881817,-2.66045052209963,-1.4983885002187272,-1.6045012474060059,-0.8890096706203003,1.2565304040908813,0.3952188491821289
1778147685910448994,1778147685.910449,-2.6604870001422327,-1.4984004584005852,-1.6045253276824951,-0.8890342873385926,1.2564574480056763,0.3952188491821289
1778147685927915998,1778147685.927916,-2.660466734563009,-1.4984129232219239,-1.604473352432251,-0.8890013855746766,1.2565381526947021,0.39519041776657104
1778147685947897826,1778147685.947898,-2.6604586283313196,-1.4983885002187272,-1.604485273361206,-0.8890537780574341,1.2565381526947021,0.3951660096645355
1778147685967895374,1778147685.9678955,-2.660466734563009,-1.4984009501389046,-1.6044692993164062,-0.8890537780574341,1.2565702199935913,0.395230770111084
1778147685987839064,1778147685.987839,-2.6604629198657435,-1.4984497663429757,-1.604453206062317,-0.8890096706203003,1.2565381526947021,0.395230770111084
1778147686007890899,1778147686.007891,-2.660482708607809,-1.4984575521996994,-1.6045176982879639,-0.8890257638743897,1.2565062046051025,0.3952188491821289
1778147686028090441,1778147686.0280905,-2.6604302565204065,-1.498416506951191,-1.6044769287109375,-0.8890215915492554,1.2565020322799683,0.3952147364616394
1778147686047721080,1778147686.0477211,-2.66051155725588,-1.4984129157713433,-1.6044728755950928,-0.8890096706203003,1.2565062046051025,0.39525094628334045
1778147686067892174,1778147686.0678923,-2.660410467778341,-1.4984045562199135,-1.6045011281967163,-0.8890138429454346,1.256506085395813,0.39524680376052856
1778147686087945780,1778147686.087946,-2.660478655491964,-1.498424844150879,-1.604420781135559,-0.8890181344798584,1.256514310836792,0.39520278573036194
1778147686107931983,1778147686.107932,-2.6604750792132776,-1.4984211188605805,-1.6044812202453613,-0.889073984032013,1.2565304040908813,0.3952390253543854
1778147686127881981,1778147686.127882,-2.6604870001422327,-1.498424844150879,-1.6045012474060059,-0.8889970940402527,1.2565181255340576,0.3952229619026184
1778147686147888081,1778147686.1478882,-2.6604302565204065,-1.4984497067383309,-1.6044691801071167,-0.8889768284610291,1.2564783096313477,0.39517828822135925
1778147686167940419,1778147686.1679404,-2.660438601170675,-1.4984575671008606,-1.604465126991272,-0.8889970940402527,1.2565062046051025,0.39519456028938293
1778147686187792809,1778147686.187793,-2.660466734563009,-1.4983927619508286,-1.6044769287109375,-0.8890181344798584,1.2565340995788574,0.39521530270576477
1778147686208046874,1778147686.208047,-2.6604343096362513,-1.498453290467598,-1.6044285297393799,-0.889041857128479,1.2565020322799683,0.39518675208091736
1778147686227889210,1778147686.2278893,-2.6604183355914515,-1.4984164622477074,-1.6044490337371826,-0.8890460890582581,1.2565181255340576,0.39519086480140686
1778147686247958641,1778147686.2479587,-2.6604462305652063,-1.4984456461719056,-1.6044448614120483,-0.8890215915492554,1.2564979791641235,0.395230770111084
1778147686267872781,1778147686.2678728,-2.660438601170675,-1.498453290467598,-1.6045093536376953,-0.8889768880656739,1.2565139532089233,0.39518260955810547
1778147686287845263,1778147686.2878454,-2.6604626814471644,-1.4984456163695832,-1.6045093536376953,-0.8890376848033448,1.2565263509750366,0.3952188491821289
1778147686307966996,1778147686.3079672,-2.660470787678854,-1.498405100112297,-1.6044930219650269,-0.888988808994629,1.2565743923187256,0.3952188491821289
1778147686328181542,1778147686.3281815,-2.66045052209963,-1.4984045338681717,-1.6044656038284302,-0.8890503209880372,1.2565542459487915,0.39525920152664185
1778147686347903480,1778147686.3479035,-2.6604626814471644,-1.4984289419702073,-1.6044812202453613,-0.8890293401530762,1.2564979791641235,0.3952390253543854
1778147686368898839,1778147686.3688989,-2.6604462305652063,-1.4984045189670105,-1.6044971942901611,-0.889041857128479,1.2565020322799683,0.39520278573036194
1778147686387913874,1778147686.3879142,-2.6604750792132776,-1.4984372419169922,-1.6045176982879639,-0.8890621227077027,1.2565021514892578,0.39524316787719727
1778147686407954430,1778147686.4079545,-2.6604586283313196,-1.4984415409019967,-1.6045176982879639,-0.8890096110156556,1.2565181255340576,0.39520692825317383
1778147686427878624,1778147686.4278789,-2.6604140440570276,-1.4984088254025956,-1.604485273361206,-0.8890257638743897,1.256514310836792,0.3952229619026184
1778147686447874766,1778147686.447875,-2.660482708607809,-1.498405100112297,-1.6044930219650269,-0.8890503805926819,1.2565300464630127,0.39520278573036194
1778147686468420064,1778147686.4684203,-2.6604750792132776,-1.4984205824187775,-1.6044609546661377,-0.8890137833407898,1.2565020322799683,0.39518678188323975
1778147686488055980,1778147686.4880562,-2.660483423863546,-1.498416469698288,-1.6045093536376953,-0.8889929813197632,1.2565062046051025,0.3952188491821289
1778147686510467150,1778147686.5104673,-2.660471026097433,-1.4984289419702073,-1.6044692993164062,-0.889029936199524,1.2565304040908813,0.39527106285095215
1778147686527907843,1778147686.5279078,-2.660471026097433,-1.498433144097664,-1.6045054197311401,-0.8890376251987,1.2565139532089233,0.39518678188323975
1778147686547849603,1778147686.54785,-2.660438362752096,-1.4984657329371949,-1.6045094728469849,-0.8890215915492554,1.2565582990646362,0.395230770111084
1778147686567869773,1778147686.56787,-2.6604629198657435,-1.4983601135066529,-1.6044573783874512,-0.8890377444079895,1.2565221786499023,0.3952188491821289
1778147686587972038,1778147686.5879722,-2.6604300181018274,-1.4984205824187775,-1.6045012474060059,-0.889041857128479,1.2564860582351685,0.39523905515670776
1778147686608882087,1778147686.6088822,-2.660410229359762,-1.4984088254025956,-1.604529619216919,-0.8890258234790345,1.2565139532089233,0.39518678188323975
1778147686627918533,1778147686.6279187,-2.6604138056384485,-1.4984164771488686,-1.6044728755950928,-0.8890503805926819,1.2564778327941895,0.39523136615753174
1778147686647848098,1778147686.6478484,-2.6604750792132776,-1.4984010022929688,-1.6044691801071167,-0.8890054982951661,1.2565300464630127,0.39519500732421875
1778147686667885609,1778147686.6678858,-2.6604419390307825,-1.4984456089190026,-1.6045053005218506,-0.8890013259700318,1.2565181255340576,0.39523130655288696
1778147686687910869,1778147686.687911,-2.660409752522604,-1.4984289568713685,-1.6044492721557617,-0.8890014451793213,1.2565181255340576,0.3952147364616394
1778147686707950985,1778147686.7079513,-2.6604750792132776,-1.4983885374716301,-1.6044812202453613,-0.8890181344798584,1.256469964981079,0.39517006278038025
1778147686727894465,1778147686.7278945,-2.660454575215475,-1.4983969342759629,-1.604473352432251,-0.8890503805926819,1.2565381526947021,0.39521104097366333
1778147686747851907,1778147686.747852,-2.6604300181018274,-1.4984330472401162,-1.6045217514038086,-0.8890781563571473,1.2565062046051025,0.39519089460372925
1778147686767899451,1778147686.7678995,-2.660478655491964,-1.4984456089190026,-1.6044976711273193,-0.8890664738467713,1.256514072418213,0.3951987028121948
1778147686787919111,1778147686.7879193,-2.6604753176318567,-1.498461627667286,-1.6044656038284302,-0.8890342873385926,1.2565139532089233,0.3952634036540985
1778147686807926048,1778147686.8079262,-2.6604588667498987,-1.4984415036490937,-1.6044692993164062,-0.889029936199524,1.256526231765747,0.3952147364616394
1778147686827860823,1778147686.8278608,-2.660450283681051,-1.4984045562199135,-1.6045259237289429,-0.8890014451793213,1.2565377950668335,0.39519089460372925
1778147686847900168,1778147686.8479002,-2.6604624430285853,-1.498433144097664,-1.6045093536376953,-0.889041857128479,1.2565340995788574,0.39520692825317383
1778147686867904764,1778147686.867905,-2.66044265428652,-1.4984415036490937,-1.604473352432251,-0.8890138429454346,1.2565624713897705,0.3951987028121948
1778147686887813771,1778147686.887814,-2.660487238560812,-1.4984088254025956,-1.6045418977737427,-0.8890174192241211,1.2565503120422363,0.3952188491821289
1778147686908179468,1778147686.9081795,-2.660487238560812,-1.4984045562199135,-1.604420781135559,-0.8890181940845032,1.2564975023269653,0.39525505900382996
1778147686927850582,1778147686.9278507,-2.6604459921466272,-1.4984045562199135,-1.604501724243164,-0.8889523905566712,1.256506085395813,0.395238995552063
1778147686947854539,1778147686.9478548,-2.6604459921466272,-1.4984372419169922,-1.6045336723327637,-0.8890223664096375,1.2565094232559204,0.3952188193798065
1778147686967909988,1778147686.96791,-2.6604297796832483,-1.498429038827755,-1.6044573783874512,-0.8890013259700318,1.2565546035766602,0.3952390253543854
1778147686987848949,1778147686.987849,-2.6604791323291224,-1.4984289419702073,-1.604473352432251,-0.8889971536448975,1.2565826177597046,0.3952348828315735
1778147687007958275,1778147687.0079584,-2.66044265428652,-1.498372533624508,-1.6044971942901611,-0.8890460294536133,1.2564736604690552,0.3952147364616394
1778147687027848748,1778147687.0278487,-2.66045052209963,-1.4984532606652756,-1.6045135259628296,-0.889041857128479,1.2565468549728394,0.39520692825317383
1778147687048206655,1778147687.0482068,-2.660454575215475,-1.4984205824187775,-1.6045176982879639,-0.8890335124782105,1.2565178871154785,0.3952348232269287
1778147687069006998,1778147687.0690072,-2.660454575215475,-1.4984045562199135,-1.6044728755950928,-0.8890460294536133,1.2565340995788574,0.3952147364616394
1778147687087893034,1778147687.087893,-2.6605032126056116,-1.4984129232219239,-1.604485273361206,-0.889029936199524,1.2565501928329468,0.39525502920150757
1778147687107844304,1778147687.1078444,-2.6605032126056116,-1.4984045562199135,-1.604485273361206,-0.8889565032771607,1.2565503120422363,0.39518266916275024
1778147687127972171,1778147687.1279721,-2.660466972981588,-1.4984330472401162,-1.6044328212738037,-0.8890137833407898,1.256489872932434,0.3952431380748749
1778147687147883577,1778147687.1478837,-2.660470787678854,-1.498424844150879,-1.604485273361206,-0.8890096706203003,1.2565425634384155,0.3951908349990845
1778147687167862977,1778147687.1678631,-2.66044265428652,-1.4984088254025956,-1.604477047920227,-0.8890628975680848,1.2565417289733887,0.3952549993991852
1778147687187994743,1778147687.1879947,-2.66045052209963,-1.4984415036490937,-1.6044691801071167,-0.8890621227077027,1.2565102577209473,0.3952152729034424
1778147687207868241,1778147687.2078683,-2.660478655491964,-1.498461627667286,-1.6045012474060059,-0.8890223664096375,1.2565059661865234,0.3952266573905945
1778147687227889241,1778147687.2278893,-2.660478655491964,-1.4983808782747765,-1.604473352432251,-0.8890181940845032,1.2565256357192993,0.3952106535434723
1778147687247882596,1778147687.2478826,-2.6604746023761194,-1.4984497067383309,-1.6045053005218506,-0.8890342873385926,1.2565586566925049,0.3952147364616394
1778147687267871706,1778147687.2678719,-2.6604626814471644,-1.4984575298479577,-1.6044812202453613,-0.8890384000590821,1.256518006324768,0.3952188789844513
1778147687287833048,1778147687.2878332,-2.660454575215475,-1.4983969044736405,-1.604477047920227,-0.8889970940402527,1.2565586566925049,0.39523079991340637
1778147687307974033,1778147687.3079743,-2.660426203404562,-1.4984289419702073,-1.6044769287109375,-0.8890537780574341,1.2565340995788574,0.3951987028121948
1778147687328289205,1778147687.3282895,-2.660454575215475,-1.4984415036490937,-1.6044811010360718,-0.8890503209880372,1.2565221786499023,0.3952188491821289
1778147687347861167,1778147687.3478613,-2.6604462305652063,-1.4983927992037316,-1.6045176982879639,-0.8890215915492554,1.256518006324768,0.395222932100296
1778147687367895217,1778147687.3678954,-2.660422388707296,-1.4984045562199135,-1.6045013666152954,-0.8890257042697449,1.2565340995788574,0.39520278573036194
1778147687388012413,1778147687.3880124,-2.6604183355914515,-1.4983927992037316,-1.6044533252716064,-0.889029936199524,1.2565340995788574,0.3952188789844513
1778147687407918033,1778147687.4079182,-2.660482708607809,-1.4984129232219239,-1.6044893264770508,-0.8889929217151185,1.2564976215362549,0.3952430486679077
1778147687427922323,1778147687.4279225,-2.660454575215475,-1.4984289419702073,-1.604485273361206,-0.889029936199524,1.2565621137619019,0.3952229619026184
1778147687447928578,1778147687.4479287,-2.6604462305652063,-1.4984129232219239,-1.6044609546661377,-0.8890132468989869,1.256518006324768,0.3952348828315735
1778147687467837078,1778147687.4678373,-2.660454575215475,-1.4984004584005852,-1.604485273361206,-0.8889929217151185,1.256574034690857,0.3952188491821289
1778147687487942674,1778147687.4879427,-2.660438601170675,-1.4983969044736405,-1.6044692993164062,-0.8890257638743897,1.2565579414367676,0.3952147364616394
1778147687507956943,1778147687.5079572,-2.6604910532580774,-1.4984456089190026,-1.6045093536376953,-0.8890503805926819,1.2565664052963257,0.39523860812187195
1778147687528419074,1778147687.5284193,-2.660470787678854,-1.4984456089190026,-1.604477047920227,-0.889029936199524,1.2565340995788574,0.3952188491821289
1778147687547846620,1778147687.5478468,-2.6604183355914515,-1.4984456089190026,-1.6044894456863403,-0.8890825671008606,1.2565299272537231,0.3952389657497406
1778147687567929474,1778147687.5679297,-2.66051155725588,-1.4984129232219239,-1.6044893264770508,-0.8889970940402527,1.2565382719039917,0.395194947719574
1778147687587885191,1778147687.5878854,-2.6604586283313196,-1.498445065026619,-1.6044728755950928,-0.8890377444079895,1.2565460205078125,0.39525094628334045
1778147687607980819,1778147687.607981,-2.6604626814471644,-1.4983725112727662,-1.604501724243164,-0.8890257638743897,1.2565020322799683,0.39518269896507263
1778147687628249624,1778147687.6282496,-2.6604462305652063,-1.4984205824187775,-1.604485273361206,-0.8890257638743897,1.2565263509750366,0.3952229917049408
1778147687647934300,1778147687.6479344,-2.660410467778341,-1.4984575298479577,-1.604444980621338,-0.8890223664096375,1.2565221786499023,0.3952147364616394
1778147687667891358,1778147687.6678915,-2.6604910532580774,-1.498424844150879,-1.6045295000076294,-0.8890257042697449,1.2565340995788574,0.3952028155326843
1778147687687984882,1778147687.687985,-2.660482708607809,-1.4983767804554482,-1.6044774055480957,-0.8890342873385926,1.2565340995788574,0.39518269896507263
1778147687707892791,1778147687.707893,-2.6604307333575647,-1.4984289419702073,-1.604485273361206,-0.8890138429454346,1.2565054893493652,0.3952389657497406
1778147687727790692,1778147687.7277906,-2.6604583899127405,-1.4983969044736405,-1.604477047920227,-0.8889767688563843,1.2565382719039917,0.3952229619026184
1778147687747987172,1778147687.7479873,-2.6604626814471644,-1.4984497067383309,-1.6044893264770508,-0.8890579503825684,1.256518006324768,0.39525091648101807
1778147687768785190,1778147687.7687852,-2.6604586283313196,-1.4984164771488686,-1.6044812202453613,-0.8890138429454346,1.2565299272537231,0.3952431082725525
1778147687787879698,1778147687.7878797,-2.6604870001422327,-1.4984289419702073,-1.604485273361206,-0.8890181344798584,1.2565908432006836,0.3952147364616394
1778147687807902275,1778147687.8079023,-2.66044265428652,-1.4984045562199135,-1.6044609546661377,-0.8890460294536133,1.2565621137619019,0.3952188491821289
1778147687827924058,1778147687.827924,-2.660478655491964,-1.4983725112727662,-1.604477047920227,-0.8890054982951661,1.256542444229126,0.3952751159667969
1778147687847846322,1778147687.8478465,-2.6604464689837855,-1.4984123793295403,-1.6045054197311401,-0.8890096110156556,1.2565019130706787,0.3952430784702301
1778147687867856383,1778147687.8678565,-2.660470787678854,-1.4984289419702073,-1.604473352432251,-0.8890013259700318,1.2565144300460815,0.3952229619026184
1778147687887894696,1778147687.8878949,-2.6604791323291224,-1.4983844322017212,-1.6044812202453613,-0.8889804047397156,1.2565299272537231,0.3951946198940277
1778147687908925595,1778147687.9089258,-2.6604462305652063,-1.4984289419702073,-1.6044893264770508,-0.8889970940402527,1.2564858198165894,0.3951987326145172
1778147687927863640,1778147687.9278636,-2.6604750792132776,-1.4984858495048066,-1.6044609546661377,-0.8890503805926819,1.2565340995788574,0.39525094628334045
1778147687947834834,1778147687.947835,-2.660422388707296,-1.4984289419702073,-1.6045053005218506,-0.8889929217151185,1.2565019130706787,0.3951946198940277
1778147687967950186,1778147687.96795,-2.6604469458209437,-1.4984248516014596,-1.6044609546661377,-0.8890384596637269,1.2565299272537231,0.39522701501846313
1778147687988004620,1778147687.9880047,-2.6604629198657435,-1.49847765386615,-1.6045175790786743,-0.8890096706203003,1.2565340995788574,0.3952348828315735
1778147688008014599,1778147688.0080147,-2.660482708607809,-1.4984088254025956,-1.6044609546661377,-0.8890215915492554,1.256542444229126,0.3952188491821289
1778147688028032514,1778147688.0280325,-2.6604462305652063,-1.4984497067383309,-1.6045012474060059,-0.8890258234790345,1.2565501928329468,0.3952188491821289
1778147688047936568,1778147688.0479367,-2.6604462305652063,-1.4984456089190026,-1.6044930219650269,-0.8890014451793213,1.256550669670105,0.3951905071735382
1778147688067941642,1778147688.0679417,-2.660483185444967,-1.4984289419702073,-1.6044976711273193,-0.8890181940845032,1.2564858198165894,0.3952348828315735
1778147688087862405,1778147688.0878627,-2.660398308430807,-1.4983927992037316,-1.6045093536376953,-0.8890825671008606,1.2565382719039917,0.3952028155326843
1778147688107917601,1778147688.1079178,-2.660470787678854,-1.4984415036490937,-1.6045336723327637,-0.8890537780574341,1.2564775943756104,0.3952590823173523
1778147688127866255,1778147688.1278665,-2.660466734563009,-1.4984088254025956,-1.6044893264770508,-0.8890579503825684,1.256530523300171,0.3952147364616394
1778147688147827979,1778147688.147828,-2.6604626814471644,-1.4983927992037316,-1.6044286489486694,-0.889041857128479,1.256550669670105,0.39521533250808716
1778147688167945920,1778147688.167946,-2.66044265428652,-1.4984538120082398,-1.6045135259628296,-0.8889929217151185,1.2565501928329468,0.3952106237411499
1778147688187892131,1778147688.1878924,-2.6604750792132776,-1.4984205824187775,-1.6044692993164062,-0.889029936199524,1.2565221786499023,0.3952430486679077
1778147688208235206,1778147688.2082353,-2.6604462305652063,-1.4984456089190026,-1.604493498802185,-0.8890376848033448,1.2565423250198364,0.3952028155326843
1778147688227852249,1778147688.2278523,-2.660466734563009,-1.4983885374716301,-1.604485273361206,-0.8890096706203003,1.256554365158081,0.3952426612377167
1778147688247852442,1778147688.2478526,-2.6604183355914515,-1.4984289419702073,-1.6044893264770508,-0.8890096706203003,1.2565221786499023,0.3951987028121948
1778147688267954893,1778147688.267955,-2.6604421774493616,-1.4983927992037316,-1.6044573783874512,-0.8890503805926819,1.2565102577209473,0.39519086480140686
1778147688287904156,1778147688.2879043,-2.660438601170675,-1.4984289419702073,-1.604453206062317,-0.8890342873385926,1.2565780878067017,0.3951946198940277
1778147688307960148,1778147688.3079603,-2.6604910532580774,-1.4983808782747765,-1.6044971942901611,-0.8889929217151185,1.2565501928329468,0.3952549993991852
1778147688327801306,1778147688.3278015,-2.6604629198657435,-1.4984289419702073,-1.604465126991272,-0.8890257638743897,1.2565703392028809,0.3952229619026184
1778147688348103798,1778147688.3481038,-2.6604469458209437,-1.4984372419169922,-1.6044609546661377,-0.8890013259700318,1.256485939025879,0.3952426314353943
1778147688367847714,1778147688.3678477,-2.6604629198657435,-1.4984415036490937,-1.6045135259628296,-0.8889970940402527,1.2565501928329468,0.39517855644226074
1778147688388029192,1778147688.3880293,-2.6604302565204065,-1.4984415036490937,-1.6044971942901611,-0.8890579503825684,1.2565340995788574,0.3952431082725525
1778147688407925220,1778147688.4079254,-2.6604180971728724,-1.4984045562199135,-1.6045013666152954,-0.8889607352069397,1.2565703392028809,0.3952348530292511
1778147688427825883,1778147688.427826,-2.660466734563009,-1.4984088254025956,-1.6045217514038086,-0.8890138429454346,1.2565258741378784,0.39521533250808716
1778147688448024508,1778147688.4480247,-2.6604870001422327,-1.4984129232219239,-1.604461431503296,-0.8890335124782105,1.2565703392028809,0.3952389657497406
1778147688470728458,1778147688.4707286,-2.660454575215475,-1.4984497067383309,-1.6044692993164062,-0.8890342873385926,1.2565299272537231,0.3951987326145172
1778147688487969088,1778147688.4879692,-2.6604586283313196,-1.498461627667286,-1.604473352432251,-0.8890181940845032,1.2565501928329468,0.3952229917049408
1778147688507813733,1778147688.5078137,-2.660466734563009,-1.4984858495048066,-1.6044692993164062,-0.8890460294536133,1.2565221786499023,0.3952106237411499
1778147688527923302,1778147688.5279233,-2.660454575215475,-1.4984205824187775,-1.6044692993164062,-0.8890181940845032,1.2565460205078125,0.3952389657497406
1778147688548043044,1778147688.548043,-2.6604912916766565,-1.4984205824187775,-1.604485273361206,-0.8890740436366578,1.2565062046051025,0.39519500732421875
1778147688567844531,1778147688.5678446,-2.660471026097433,-1.498424844150879,-1.6045054197311401,-0.8890096706203003,1.2565340995788574,0.3952028155326843
1778147688587863135,1778147688.5878632,-2.660482947026388,-1.4983969044736405,-1.6044609546661377,-0.8889887493899842,1.2565423250198364,0.39519500732421875
1778147688607931237,1778147688.6079311,-2.6604870001422327,-1.4984330472401162,-1.6044976711273193,-0.8890376848033448,1.2565460205078125,0.3951987326145172
1778147688627980114,1778147688.6279802,-2.6604624430285853,-1.4984456089190026,-1.6044812202453613,-0.8890181940845032,1.2565181255340576,0.39520278573036194
1778147688648403879,1778147688.6484041,-2.660422150288717,-1.4984129232219239,-1.6045094728469849,-0.8890503805926819,1.2565181255340576,0.3952307403087616
1778147688667956976,1778147688.667957,-2.6604307333575647,-1.4984045562199135,-1.6045135259628296,-0.8890257638743897,1.256469964981079,0.3951987028121948
1778147688687894974,1778147688.687895,-2.6604631582843226,-1.4984164771488686,-1.604485273361206,-0.8890138429454346,1.2565584182739258,0.3952307403087616
1778147688707899371,1778147688.7078996,-2.6604257265674036,-1.498461627667286,-1.604485273361206,-0.8890503805926819,1.2565300464630127,0.39525502920150757
1778147688727905040,1778147688.727905,-2.6604750792132776,-1.4984205824187775,-1.6044769287109375,-0.8890740436366578,1.2565221786499023,0.3952106535434723
1778147688747939698,1778147688.7479396,-2.660438362752096,-1.4984456089190026,-1.6044971942901611,-0.8889929217151185,1.2565381526947021,0.3951987326145172
1778147688768072368,1778147688.7680726,-2.660450283681051,-1.498424844150879,-1.6044893264770508,-0.8889929217151185,1.2564700841903687,0.3952028155326843
1778147688790161500,1778147688.7901616,-2.6604912916766565,-1.498412938123085,-1.6045011281967163,-0.8889928621104737,1.2565423250198364,0.39526280760765076
1778147688807935649,1778147688.807936,-2.660471026097433,-1.4984330472401162,-1.604485273361206,-0.8890215915492554,1.2565702199935913,0.3951987028121948
1778147688829154145,1778147688.8291543,-2.6604796091662806,-1.4984129232219239,-1.6045135259628296,-0.8889971536448975,1.2565463781356812,0.39526280760765076
1778147688847901880,1778147688.847902,-2.6604588667498987,-1.4984289419702073,-1.6045336723327637,-0.8890460294536133,1.2564860582351685,0.3952473998069763
1778147688867976538,1778147688.8679767,-2.660434071217672,-1.4984330472401162,-1.6044971942901611,-0.8889970940402527,1.2565340995788574,0.3952028155326843
1778147688887934633,1778147688.887935,-2.6604624430285853,-1.4984456089190026,-1.604477047920227,-0.8890215915492554,1.2565020322799683,0.3952590823173523
1778147688908081431,1778147688.9080815,-2.660454575215475,-1.4984456089190026,-1.6045135259628296,-0.8890579503825684,1.2565340995788574,0.39525094628334045
1778147688928777673,1778147688.928778,-2.660478655491964,-1.4984164622477074,-1.6045217514038086,-0.8890257638743897,1.2565423250198364,0.3952389657497406
1778147688947904771,1778147688.9479048,-2.660495106373922,-1.4984045562199135,-1.6045172214508057,-0.889029936199524,1.2565582990646362,0.3952106535434723
1778147688967833150,1778147688.9678333,-2.660454575215475,-1.4983885374716301,-1.6045135259628296,-0.8889929217151185,1.2565139532089233,0.3951987028121948
1778147688987856083,1778147688.9878561,-2.6604746023761194,-1.4984205824187775,-1.6044573783874512,-0.8890096706203003,1.2565300464630127,0.3952147364616394
1778147689007903980,1778147689.007904,-2.660470787678854,-1.498424844150879,-1.604465126991272,-0.8890096706203003,1.2565221786499023,0.3952348828315735
1778147689027940113,1778147689.0279403,-2.6604629198657435,-1.4984456238201638,-1.6045175790786743,-0.8889970940402527,1.2564451694488525,0.3952266573905945
1778147689048052291,1778147689.0480523,-2.660478655491964,-1.4984088328531762,-1.604485273361206,-0.8890579503825684,1.2565784454345703,0.3952348828315735
1778147689067826437,1778147689.0678265,-2.660466734563009,-1.4983885002187272,-1.604473352432251,-0.8889929217151185,1.2565619945526123,0.395230770111084
1778147689087884535,1778147689.0878847,-2.6604462305652063,-1.4984164845994492,-1.6045135259628296,-0.8890056175044556,1.2565099000930786,0.39524680376052856
1778147689107995609,1778147689.1079957,-2.6604910532580774,-1.498437227015831,-1.6045217514038086,-0.8890138429454346,1.2565181255340576,0.3952229619026184
1778147689127886336,1778147689.1278865,-2.6604750792132776,-1.4984372568181534,-1.6044609546661377,-0.8890825671008606,1.256478190422058,0.39518269896507263
1778147689147870291,1778147689.1478703,-2.660470787678854,-1.4984289345196267,-1.6044971942901611,-0.8890257638743897,1.2565139532089233,0.3952028155326843
1778147689167785869,1778147689.1677861,-2.6605072657214563,-1.4984456461719056,-1.6044812202453613,-0.8890656989863892,1.2564657926559448,0.3951987326145172
1778147689188177684,1778147689.1881778,-2.6604586283313196,-1.4984129232219239,-1.604485273361206,-0.8890181940845032,1.2564860582351685,0.3952188491821289
1778147689208378233,1778147689.2083783,-2.6605234781848353,-1.4984289345196267,-1.6044812202453613,-0.8889607352069397,1.2565340995788574,0.3952229619026184
1778147689227903316,1778147689.2279034,-2.660438601170675,-1.4984289419702073,-1.6045012474060059,-0.8890537780574341,1.2564778327941895,0.3952188491821289
1778147689247850980,1778147689.2478511,-2.660454336796896,-1.498428927069046,-1.6044812202453613,-0.8889810007861634,1.2565500736236572,0.3952028155326843
1778147689267993591,1778147689.2679937,-2.660438124333517,-1.498400480752327,-1.6044893264770508,-0.8889887493899842,1.2565020322799683,0.3952430784702301
1778147689287927910,1778147689.2879279,-2.6604910532580774,-1.4984372419169922,-1.6044889688491821,-0.8889970940402527,1.2565184831619263,0.3952348828315735
1778147689307894831,1778147689.307895,-2.660438601170675,-1.4983642187765618,-1.6045295000076294,-0.8890014451793213,1.2565377950668335,0.39521104097366333
1778147689328036244,1778147689.3280365,-2.66044265428652,-1.4984045413187523,-1.6045135259628296,-0.8890335124782105,1.2565221786499023,0.3952266573905945
1778147689347940929,1778147689.347941,-2.660422388707296,-1.4984248367002984,-1.6045175790786743,-0.8890537780574341,1.2565300464630127,0.395238995552063
1778147689368021027,1778147689.368021,-2.660466972981588,-1.498392754500248,-1.6044930219650269,-0.8890537780574341,1.2565579414367676,0.39520692825317383
1778147689387947158,1778147689.3879473,-2.6604343096362513,-1.4984371748617669,-1.6044728755950928,-0.8890054982951661,1.2565340995788574,0.39521533250808716
1778147689408004590,1778147689.4080048,-2.6604421774493616,-1.4983884927681466,-1.6044812202453613,-0.8889804047397156,1.256518006324768,0.3952266573905945
1778147689427893623,1778147689.4278936,-2.6604870001422327,-1.4984538120082398,-1.6045093536376953,-0.889029936199524,1.2565661668777466,0.3952188491821289
1778147689447978063,1778147689.447978,-2.6604421774493616,-1.498424844150879,-1.604485273361206,-0.8889971536448975,1.2565020322799683,0.39518263936042786
1778147689467926440,1778147689.4679267,-2.660450283681051,-1.4983927992037316,-1.6044893264770508,-0.8890293401530762,1.2564939260482788,0.3952270746231079
1778147689487960241,1778147689.4879603,-2.66044265428652,-1.4984248367002984,-1.6045012474060059,-0.8890621227077027,1.2565863132476807,0.3952426612377167
1778147689508004369,1778147689.5080044,-2.660466734563009,-1.4984088105014344,-1.6045217514038086,-0.8890181940845032,1.2565340995788574,0.39520692825317383
1778147689527808629,1778147689.5278087,-2.6604586283313196,-1.498424844150879,-1.604473352432251,-0.8890054982951661,1.256582260131836,0.3952147364616394
