aqumoz/WireEKF/data_Viktor/ctrl_mads_lauge_anders_20260507_112904/robot_b_q.csv
time_ns,time_s,q0,q1,q2,q3,q4,q5
1778146153825477869,1778146153.825478,-2.5986395517932337,-1.0434635442546387,-1.7513782978057861,-1.753434797326559,1.4922202825546265,0.5781159400939941
1778146153845857860,1778146153.8458579,-2.5986838976489466,-1.0434635442546387,-1.7514148950576782,-1.7534829578795375,1.4921640157699585,0.5781474113464355
1778146153867479098,1778146153.867479,-2.5986760298358362,-1.043471710090973,-1.7513946294784546,-1.7534223995604457,1.4922162294387817,0.5781683325767517
1778146153886802023,1778146153.886802,-2.5986760298358362,-1.0434591931155701,-1.7514512538909912,-1.7534705601134242,1.4921834468841553,0.5781356692314148
1778146153906742042,1778146153.906742,-2.598651711140768,-1.0434228342822571,-1.7513988018035889,-1.7534548244872035,1.4921722412109375,0.5781517028808594
1778146153925520307,1778146153.9255204,-2.59872013727297,-1.0434802931598206,-1.7514065504074097,-1.7534705601134242,1.4922001361846924,0.578172504901886
1778146153945406338,1778146153.9454067,-2.5987282435046595,-1.0434389871409913,-1.7513904571533203,-1.7534786663451136,1.4921681880950928,0.5781683325767517
1778146153965381117,1778146153.9653811,-2.5986719767199915,-1.0434920352748414,-1.7513946294784546,-1.7534061870970667,1.4921834468841553,0.5781925320625305
1778146153985434562,1778146153.9854348,-2.598684374486105,-1.0434550803950806,-1.7513823509216309,-1.7534386120238246,1.4922244548797607,0.5781238079071045
1778146154005373855,1778146154.005374,-2.598647658024923,-1.0434956711581727,-1.7513705492019653,-1.7534505329527796,1.4922369718551636,0.5781360268592834
1778146154025432512,1778146154.0254326,-2.5986557642566126,-1.0434635442546387,-1.7513866424560547,-1.7534743748106898,1.4921640157699585,0.5781196355819702
1778146154045826718,1778146154.045827,-2.598680082951681,-1.0434717696956177,-1.7514268159866333,-1.7534548244872035,1.4921603202819824,0.5781397819519043
1778146154065372230,1778146154.0653722,-2.59872013727297,-1.0434920352748414,-1.7513580322265625,-1.7534786663451136,1.4921841621398926,0.5781598687171936
1778146154085234995,1778146154.085235,-2.5986838976489466,-1.0434963268092652,-1.7513781785964966,-1.753462930718893,1.4922043085098267,0.5781397819519043
1778146154105422593,1778146154.1054227,-2.5986879507647913,-1.0434760016253968,-1.751410722732544,-1.7534142933287562,1.4922083616256714,0.5781438946723938
1778146154125389306,1778146154.1253893,-2.5986552874194544,-1.043487862949707,-1.7514030933380127,-1.7534381351866664,1.492220401763916,0.5781639814376831
1778146154145408545,1778146154.1454086,-2.5986557642566126,-1.0434676569751282,-1.7513988018035889,-1.7534142933287562,1.4922001361846924,0.5781438946723938
1778146154165510495,1778146154.1655104,-2.5986719767199915,-1.0434474510005494,-1.751407265663147,-1.7534953556456507,1.4922043085098267,0.5781238079071045
1778146154185260525,1778146154.1852608,-2.5986879507647913,-1.043467716579773,-1.7514148950576782,-1.7534223995604457,1.4922162294387817,0.5781314373016357
1778146154205729202,1778146154.2057295,-2.598692003880636,-1.0435004395297547,-1.7513705492019653,-1.753446718255514,1.4921722412109375,0.5781319737434387
1778146154225362779,1778146154.2253628,-2.5987241903888147,-1.0435284537127991,-1.7513866424560547,-1.7534424267210902,1.4921520948410034,0.578127920627594
1778146154245487052,1778146154.2454872,-2.5986600557910364,-1.0434635442546387,-1.7513946294784546,-1.75341858486318,1.4922162294387817,0.5781639814376831
1778146154265428417,1778146154.2654285,-2.598708216344015,-1.0434718293002625,-1.7513904571533203,-1.7534786663451136,1.4921841621398926,0.578119695186615
1778146154285409241,1778146154.2854095,-2.5986676851855677,-1.0434920352748414,-1.751419186592102,-1.7534948788084925,1.4921681880950928,0.5781438946723938
1778146154305379705,1778146154.3053796,-2.5986478964435022,-1.0434997838786622,-1.751455545425415,-1.7534381351866664,1.4922001361846924,0.5781598687171936
1778146154325431151,1778146154.325431,-2.5986838976489466,-1.0434635442546387,-1.7514114379882812,-1.753446718255514,1.4921722412109375,0.5781438946723938
1778146154345430060,1778146154.3454301,-2.598703924809591,-1.0435123604587098,-1.7513823509216309,-1.7534591160216273,1.4922007322311401,0.5781641006469727
1778146154365387335,1778146154.3653874,-2.598692003880636,-1.043475942020752,-1.7514030933380127,-1.7534424267210902,1.4922083616256714,0.5781237483024597
1778146154385371976,1778146154.385372,-2.5986796061145228,-1.043446735744812,-1.7514387369155884,-1.7535106144347132,1.49215567111969,0.5781278610229492
1778146154405544448,1778146154.4055445,-2.5986557642566126,-1.0434920352748414,-1.7514394521713257,-1.7534705601134242,1.4921361207962036,0.5781356692314148
1778146154425306018,1778146154.4253063,-2.5986958185779017,-1.043467716579773,-1.7514309883117676,-1.7534223995604457,1.4921964406967163,0.5781433582305908
1778146154445449307,1778146154.4454494,-2.5986879507647913,-1.0434795182994385,-1.7513946294784546,-1.7534181080260218,1.4921882152557373,0.5781278610229492
1778146154465433185,1778146154.4654331,-2.598680082951681,-1.043459252720215,-1.7514148950576782,-1.7534672222533167,1.4921599626541138,0.5781397223472595
1778146154485581847,1778146154.4855819,-2.5986557642566126,-1.0434550207904358,-1.751369833946228,-1.7534381351866664,1.4922001361846924,0.5781806111335754
1778146154505331624,1778146154.5053318,-2.5986760298358362,-1.0435241025737305,-1.751410722732544,-1.7534948788084925,1.4921960830688477,0.5781641006469727
1778146154525457334,1778146154.5254576,-2.5986676851855677,-1.0434635442546387,-1.7513946294784546,-1.7534829578795375,1.492220163345337,0.5781278610229492
1778146154545382998,1778146154.545383,-2.598703924809591,-1.0434389871409913,-1.7514065504074097,-1.7534705601134242,1.4922202825546265,0.5781356692314148
1778146154565401314,1778146154.5654016,-2.5987163225757044,-1.0434963268092652,-1.7514513731002808,-1.753446718255514,1.4922001361846924,0.5781356692314148
1778146154585353598,1778146154.5853536,-2.5987163225757044,-1.043467716579773,-1.7513946294784546,-1.753462930718893,1.4921599626541138,0.5781237483024597
1778146154605484177,1778146154.6054845,-2.59869629541506,-1.0434963268092652,-1.7514268159866333,-1.7534948788084925,1.4922162294387817,0.5781438946723938
1778146154625511725,1778146154.625512,-2.598692003880636,-1.043487862949707,-1.7513740062713623,-1.7534743748106898,1.4921722412109375,0.5781474113464355
1778146154647377492,1778146154.6473775,-2.598680082951681,-1.0434508484653016,-1.7514268159866333,-1.7534786663451136,1.4921722412109375,0.5781397819519043
1778146154665385214,1778146154.6653852,-2.5986557642566126,-1.0435165923884888,-1.7514513731002808,-1.7534705601134242,1.4921480417251587,0.5781479477882385
1778146154685446633,1778146154.6854467,-2.598647658024923,-1.043487862949707,-1.7513988018035889,-1.7534262142577113,1.4921480417251587,0.5781558156013489
1778146154705311032,1778146154.705311,-2.5986796061145228,-1.0434509080699463,-1.7514551877975464,-1.753430028954977,1.4921640157699585,0.5781278610229492
1778146154725366352,1778146154.7253664,-2.5986714998828333,-1.0435200494578858,-1.7514065504074097,-1.7534824810423792,1.4921520948410034,0.5781558156013489
1778146154745433683,1778146154.7454338,-2.5986600557910364,-1.043435589676239,-1.751390814781189,-1.7534786663451136,1.4921841621398926,0.5781237483024597
1778146154765399459,1778146154.7653997,-2.5986958185779017,-1.0434717696956177,-1.7513988018035889,-1.7534743748106898,1.4921557903289795,0.5781397819519043
1778146154785372669,1778146154.7853727,-2.5986760298358362,-1.043508068924286,-1.751407265663147,-1.7534591160216273,1.4921801090240479,0.5781397819519043
1778146154805474748,1778146154.805475,-2.5986838976489466,-1.0434230130961915,-1.7514148950576782,-1.7534381351866664,1.4921681880950928,0.5781273245811462
1778146154825482120,1778146154.8254824,-2.5986879507647913,-1.0434802335551758,-1.7514030933380127,-1.7534386120238246,1.4921717643737793,0.5781314373016357
1778146154845408021,1778146154.8454082,-2.59872013727297,-1.0434270662120362,-1.7513823509216309,-1.753486772576803,1.4921640157699585,0.5780993700027466
1778146154865392356,1778146154.8653924,-2.5986719767199915,-1.0435158175281067,-1.7513823509216309,-1.7534100017943324,1.4922162294387817,0.578119695186615
1778146154885377678,1778146154.885378,-2.5987206141101282,-1.0434717696956177,-1.7513577938079834,-1.753491064111227,1.4921799898147583,0.5781397819519043
1778146154905481266,1778146154.9054813,-2.5986998716937464,-1.0434591931155701,-1.7514148950576782,-1.7534223995604457,1.4922202825546265,0.5781517028808594
1778146154925652736,1778146154.9256527,-2.598680082951681,-1.0434836906245728,-1.7513788938522339,-1.7534786663451136,1.4921923875808716,0.578127920627594
1778146154945370229,1778146154.9453702,-2.5986760298358362,-1.0434475106051941,-1.7514065504074097,-1.7534381351866664,1.4922003746032715,0.5781843662261963
1778146154966451080,1778146154.9664514,-2.5987003485309046,-1.0434389871409913,-1.751447081565857,-1.753446718255514,1.4921722412109375,0.5781238079071045
1778146154985397265,1778146154.9853973,-2.598651711140768,-1.0434635442546387,-1.7513866424560547,-1.753430028954977,1.4921873807907104,0.5781474113464355
1778146155005506675,1778146155.0055068,-2.5986676851855677,-1.0434802931598206,-1.751419186592102,-1.7534181080260218,1.4922088384628296,0.5781474709510803
1778146155025333586,1778146155.0253336,-2.5986879507647913,-1.0434591931155701,-1.751410722732544,-1.7534548244872035,1.4921799898147583,0.5781036615371704
1778146155045445519,1778146155.0454457,-2.59873611131777,-1.0434431594661255,-1.7513988018035889,-1.7534381351866664,1.4922502040863037,0.5781237483024597
1778146155066256274,1778146155.0662565,-2.5986436049090784,-1.04348440588031,-1.7513823509216309,-1.7534991703429164,1.4922332763671875,0.578119695186615
1778146155085362529,1778146155.0853624,-2.598703924809591,-1.0435046714595337,-1.7514513731002808,-1.7534223995604457,1.4922206401824951,0.578127920627594
1778146155105334014,1778146155.105334,-2.598635975514547,-1.0434425634196778,-1.7513988018035889,-1.7533818684019984,1.4921883344650269,0.5781077742576599
1778146155125417075,1778146155.125417,-2.5986760298358362,-1.0434591931155701,-1.7513946294784546,-1.7534548244872035,1.4922045469284058,0.578127920627594
1778146155145386778,1778146155.145387,-2.5987044016467493,-1.0434550803950806,-1.751410722732544,-1.7534662685790003,1.4921960830688477,0.5781765580177307
1778146155165440208,1778146155.1654403,-2.5986676851855677,-1.043439046745636,-1.7513904571533203,-1.7534424267210902,1.4922130107879639,0.5781479477882385
1778146155185396777,1778146155.185397,-2.5986557642566126,-1.0435081285289307,-1.7513781785964966,-1.753401895562643,1.4921722412109375,0.5781319737434387
1778146155207573190,1778146155.2075734,-2.598664108906881,-1.0434675973704834,-1.751419186592102,-1.753446718255514,1.4921841621398926,0.5781599283218384
1778146155225571852,1778146155.2255719,-2.5986760298358362,-1.0434836906245728,-1.7513988018035889,-1.7534505329527796,1.4921926259994507,0.5781036615371704
1778146155245438819,1778146155.2454388,-2.5986760298358362,-1.0434550803950806,-1.7514268159866333,-1.753446718255514,1.4921680688858032,0.578131377696991
1778146155265395549,1778146155.2653956,-2.5986838976489466,-1.043475942020752,-1.7514030933380127,-1.7534591160216273,1.4921561479568481,0.5781036019325256
1778146155285480136,1778146155.2854803,-2.59872013727297,-1.0434844654849549,-1.7513904571533203,-1.753462930718893,1.4921722412109375,0.5781683325767517
1778146155305426882,1778146155.305427,-2.598623339329855,-1.043528513317444,-1.7514030933380127,-1.7534223995604457,1.4921799898147583,0.5781314373016357
1778146155325383153,1778146155.3253832,-2.5986838976489466,-1.0434963268092652,-1.7514311075210571,-1.753502985040182,1.492196798324585,0.5781517028808594
1778146155345263375,1778146155.3452635,-2.598680082951681,-1.0434717696956177,-1.7513904571533203,-1.753430028954977,1.4921799898147583,0.5781558156013489
1778146155365478328,1778146155.3654785,-2.5986676851855677,-1.0434920352748414,-1.751419186592102,-1.7534381351866664,1.4921722412109375,0.578127920627594
1778146155385349794,1778146155.38535,-2.598703924809591,-1.0434270066073914,-1.7514352798461914,-1.753430505792135,1.4921883344650269,0.5781356692314148
1778146155405459091,1778146155.4054594,-2.5986760298358362,-1.0434550803950806,-1.7514309883117676,-1.753486772576803,1.4921637773513794,0.5781118273735046
1778146155425411052,1778146155.4254112,-2.59869629541506,-1.04348440588031,-1.7513823509216309,-1.7533937893309535,1.4921925067901611,0.5781278610229492
1778146155445554327,1778146155.4455545,-2.5986879507647913,-1.0434963268092652,-1.7513866424560547,-1.7534343204894007,1.4921603202819824,0.578152060508728
1778146155466580153,1778146155.4665804,-2.5986676851855677,-1.0434802335551758,-1.7514148950576782,-1.7534381351866664,1.4921722412109375,0.5781319737434387
1778146155485492135,1778146155.4854922,-2.5986717383014124,-1.0434306424907227,-1.751434564590454,-1.753462930718893,1.4921722412109375,0.578131377696991
1778146155506694559,1778146155.5066948,-2.5986836592303675,-1.0435360831073304,-1.7514030933380127,-1.7534223995604457,1.492175817489624,0.5781154036521912
1778146155525373292,1778146155.5253732,-2.5986436049090784,-1.0435039562037964,-1.7514309883117676,-1.7534948788084925,1.4921799898147583,0.5781118273735046
1778146155545346168,1778146155.5453463,-2.59870416322817,-1.043467716579773,-1.7514030933380127,-1.7534386120238246,1.4921644926071167,0.5781598687171936
1778146155565319535,1778146155.5653195,-2.598708216344015,-1.043475942020752,-1.7513866424560547,-1.753486772576803,1.4922128915786743,0.5781843662261963
1778146155585313494,1778146155.5853136,-2.5986514727221888,-1.04348440588031,-1.751410722732544,-1.753462930718893,1.492163896560669,0.5781314373016357
1778146155605532756,1778146155.605533,-2.5986879507647913,-1.043475942020752,-1.7513903379440308,-1.753446718255514,1.4922128915786743,0.5781397819519043
1778146155625297486,1778146155.6252975,-2.5986557642566126,-1.0434920352748414,-1.7513662576675415,-1.7534548244872035,1.492180585861206,0.5781397819519043
1778146155645502714,1778146155.6455028,-2.598708216344015,-1.0434920352748414,-1.7513781785964966,-1.753486772576803,1.4921722412109375,0.5781397819519043
1778146155665434799,1778146155.665435,-2.59869629541506,-1.043475942020752,-1.7513946294784546,-1.7534548244872035,1.4921722412109375,0.5781557559967041
1778146155685420973,1778146155.6854212,-2.5986793676959437,-1.0434676569751282,-1.7514065504074097,-1.753446718255514,1.492103099822998,0.5781397819519043
1778146155705395944,1778146155.7053962,-2.598692242299215,-1.043487862949707,-1.7513738870620728,-1.753458162347311,1.4921232461929321,0.5781077146530151
1778146155725335569,1778146155.7253356,-2.598675314580099,-1.043446735744812,-1.751410722732544,-1.7534548244872035,1.4921841621398926,0.5781397819519043
1778146155745367930,1778146155.745368,-2.5986879507647913,-1.0434920352748414,-1.7514234781265259,-1.753491064111227,1.4921764135360718,0.5781480073928833
1778146155765569414,1778146155.7655697,-2.5986674467669886,-1.0435038965991517,-1.7513740062713623,-1.7534548244872035,1.4921883344650269,0.5781237483024597
1778146155785464341,1778146155.7854645,-2.598696533833639,-1.0434474510005494,-1.751407265663147,-1.7534672222533167,1.4921680688858032,0.5781438946723938
1778146155805382481,1778146155.8053825,-2.5986717383014124,-1.0435158771327515,-1.7514429092407227,-1.753446718255514,1.4921799898147583,0.5781077146530151
1778146155825302020,1778146155.8253021,-2.598692242299215,-1.0434508484653016,-1.7514268159866333,-1.753491064111227,1.4921884536743164,0.5781237483024597
1778146155845318300,1778146155.8453186,-2.5986555258380335,-1.0434920352748414,-1.7514268159866333,-1.7534948788084925,1.49216890335083,0.5781558156013489
1778146155865399835,1778146155.8653998,-2.5986717383014124,-1.0434795182994385,-1.7513904571533203,-1.7534786663451136,1.4921561479568481,0.5781438946723938
1778146155885392130,1778146155.8853922,-2.5986347834216517,-1.0435124200633545,-1.7513705492019653,-1.7534424267210902,1.492175817489624,0.5781077146530151
1778146155905348369,1778146155.9053485,-2.59870416322817,-1.0435124796679993,-1.7513823509216309,-1.7535067997374476,1.4922086000442505,0.5781356692314148
1778146155925506566,1778146155.9255066,-2.5987163225757044,-1.0434920352748414,-1.7513740062713623,-1.7534743748106898,1.492163896560669,0.5781599283218384
1778146155945296555,1778146155.9452968,-2.598703924809591,-1.043516532783844,-1.7513823509216309,-1.7533899746336878,1.4922455549240112,0.5781438946723938
1778146155965439383,1778146155.9654396,-2.5986879507647913,-1.0434717696956177,-1.7513988018035889,-1.7534262142577113,1.4921680688858032,0.5781397819519043
1778146155985392916,1778146155.985393,-2.598692003880636,-1.0434591931155701,-1.751407265663147,-1.753446718255514,1.4921883344650269,0.5781357288360596
1778146156005272030,1778146156.0052722,-2.5986719767199915,-1.0434802931598206,-1.7514030933380127,-1.753434797326559,1.4921722412109375,0.5781397819519043
1778146156025346016,1778146156.025346,-2.598703924809591,-1.0434550207904358,-1.7514268159866333,-1.753446718255514,1.4921680688858032,0.5781200528144836
1778146156045543529,1778146156.0455434,-2.59872013727297,-1.0434635442546387,-1.7513500452041626,-1.7534662685790003,1.4921598434448242,0.5782007575035095
1778146156065548194,1778146156.0655484,-2.598692003880636,-1.0434717696956177,-1.7513738870620728,-1.7534505329527796,1.4921350479125977,0.578119695186615
1778146156089547035,1778146156.0895472,-2.59873611131777,-1.043463484649994,-1.7514148950576782,-1.753413816491598,1.4921554327011108,0.5781356692314148
1778146156105498314,1778146156.1054986,-2.598708216344015,-1.0434837502292176,-1.7514065504074097,-1.7534381351866664,1.4921883344650269,0.5781557559967041
1778146156125428196,1778146156.1254284,-2.598675552998678,-1.0434430998614808,-1.7513946294784546,-1.753486772576803,1.4921804666519165,0.5781764984130859
1778146156145327763,1778146156.145328,-2.598708216344015,-1.043487862949707,-1.7513866424560547,-1.753434797326559,1.4921561479568481,0.5781077742576599
1778146156165384578,1778146156.1653848,-2.598663632069723,-1.0434635442546387,-1.7513781785964966,-1.753401895562643,1.4921680688858032,0.5781438946723938
1778146156185278343,1778146156.1852787,-2.5986760298358362,-1.0435081285289307,-1.751410722732544,-1.753462930718893,1.4921799898147583,0.5781557559967041
1778146156205521225,1778146156.2055213,-2.5986395517932337,-1.0435039562037964,-1.7513866424560547,-1.7534424267210902,1.4921841621398926,0.5781474709510803
1778146156225328857,1778146156.225329,-2.598708216344015,-1.043467716579773,-1.7513988018035889,-1.7534343204894007,1.4922162294387817,0.5781237483024597
1778146156245444620,1778146156.2454448,-2.598692003880636,-1.0434591931155701,-1.751410722732544,-1.7534343204894007,1.4921598434448242,0.578119695186615
1778146156265403820,1778146156.265404,-2.598664108906881,-1.0434550803950806,-1.7514030933380127,-1.753413816491598,1.4921483993530273,0.5781683325767517
1778146156285418062,1778146156.285418,-2.5986719767199915,-1.043487862949707,-1.7514430284500122,-1.7534505329527796,1.4921883344650269,0.5781557559967041
1778146156305320292,1778146156.3053203,-2.5986796061145228,-1.0434802931598206,-1.7514679431915283,-1.7534343204894007,1.4922043085098267,0.5781724452972412
1778146156325436893,1778146156.325437,-2.59872013727297,-1.0434920352748414,-1.751422643661499,-1.7534223995604457,1.4921680688858032,0.5781765580177307
1778146156345628949,1778146156.345629,-2.598703924809591,-1.0434635442546387,-1.7513946294784546,-1.7534424267210902,1.4921883344650269,0.5781397819519043
1778146156368697246,1778146156.3686974,-2.598667923604147,-1.04348440588031,-1.7514430284500122,-1.7534343204894007,1.4921883344650269,0.5781397819519043
1778146156385363666,1778146156.3853638,-2.5986879507647913,-1.0434802931598206,-1.7514395713806152,-1.7534548244872035,1.4921960830688477,0.5781397819519043
1778146156406859900,1778146156.4068599,-2.5986879507647913,-1.043475942020752,-1.7514395713806152,-1.7534381351866664,1.49215567111969,0.5781397819519043
1778146156425402935,1778146156.4254029,-2.598680082951681,-1.0434591931155701,-1.751435399055481,-1.7534743748106898,1.492228627204895,0.5781480073928833
1778146156445418837,1778146156.4454188,-2.598651949559347,-1.0434675973704834,-1.7514311075210571,-1.753446718255514,1.4921882152557373,0.5781397819519043
1778146156465298489,1778146156.4652987,-2.598692003880636,-1.0434717696956177,-1.7514556646347046,-1.7534619770445765,1.4921401739120483,0.5781319737434387
1778146156485418903,1778146156.485419,-2.598684374486105,-1.0434885782054444,-1.751410722732544,-1.75341858486318,1.492212176322937,0.5781077146530151
1778146156505739179,1778146156.5057395,-2.59869629541506,-1.0434635442546387,-1.7514030933380127,-1.7534705601134242,1.492200255393982,0.5781397819519043
1778146156525411399,1778146156.5254114,-2.59873611131777,-1.0434794586947937,-1.7513697147369385,-1.7534705601134242,1.4921759366989136,0.5781159400939941
1778146156545724777,1778146156.5457249,-2.5986879507647913,-1.0434919756701966,-1.7513946294784546,-1.7535072765746058,1.4922162294387817,0.5781356692314148
1778146156565398390,1778146156.5653985,-2.59869629541506,-1.0434550803950806,-1.7514030933380127,-1.7534505329527796,1.4921960830688477,0.5781683921813965
1778146156585387577,1778146156.5853877,-2.59869629541506,-1.0434920352748414,-1.7513946294784546,-1.7534424267210902,1.492192029953003,0.5781397819519043
1778146156605397144,1778146156.6053975,-2.5986600557910364,-1.0434591931155701,-1.751435399055481,-1.7534948788084925,1.492192029953003,0.5781517028808594
1778146156625354033,1778146156.625354,-2.5986600557910364,-1.0434717696956177,-1.7513988018035889,-1.753470083276266,1.4921722412109375,0.578152060508728
1778146156645442554,1778146156.6454427,-2.5986719767199915,-1.0435200494578858,-1.7513662576675415,-1.7534705601134242,1.492192029953003,0.5781273245811462
1778146156665447907,1778146156.665448,-2.5986676851855677,-1.043475942020752,-1.751435399055481,-1.7534786663451136,1.4921562671661377,0.5780917406082153
1778146156685400444,1778146156.6854005,-2.5986760298358362,-1.04352422178302,-1.7514065504074097,-1.7534591160216273,1.4922080039978027,0.5781558156013489
1778146156705324690,1778146156.705325,-2.5987325350390833,-1.043487862949707,-1.7514148950576782,-1.7534343204894007,1.4921886920928955,0.5781397819519043
1778146156725462171,1778146156.7254624,-2.598703924809591,-1.0434591931155701,-1.7514148950576782,-1.7534743748106898,1.4921882152557373,0.5781683921813965
1778146156745303554,1778146156.7453036,-2.598692242299215,-1.0434550207904358,-1.7514065504074097,-1.7534662685790003,1.4922536611557007,0.5781765580177307
1778146156765666178,1778146156.7656665,-2.5986600557910364,-1.0435004991343995,-1.751407265663147,-1.753401895562643,1.4921834468841553,0.5781314373016357
1778146156787754121,1778146156.7877543,-2.5986760298358362,-1.0434431594661255,-1.7514430284500122,-1.7534424267210902,1.4921841621398926,0.5781314373016357
1778146156805507924,1778146156.805508,-2.598703924809591,-1.0434591931155701,-1.7514148950576782,-1.7534743748106898,1.4921960830688477,0.5781599283218384
1778146156825348956,1778146156.825349,-2.598692003880636,-1.043475942020752,-1.7513946294784546,-1.7534705601134242,1.4921681880950928,0.5781639814376831
1778146156845398697,1778146156.845399,-2.5986436049090784,-1.0434634250453492,-1.7513458728790283,-1.7533980808653773,1.4921640157699585,0.5781474113464355
1778146156865360776,1778146156.865361,-2.59869629541506,-1.0434675973704834,-1.7513988018035889,-1.753491064111227,1.4922001361846924,0.5781278610229492
1778146156885409655,1778146156.8854096,-2.598708216344015,-1.0434675973704834,-1.7513861656188965,-1.7534142933287562,1.4921960830688477,0.5781765580177307
1778146156905429787,1778146156.9054298,-2.5986717383014124,-1.043475942020752,-1.7514234781265259,-1.753425737420553,1.4921960830688477,0.5781319737434387
1778146156925332599,1778146156.9253325,-2.5986838976489466,-1.0434550207904358,-1.751435399055481,-1.7534786663451136,1.4922038316726685,0.5781639814376831
1778146156945586234,1778146156.9455862,-2.5986717383014124,-1.0434474510005494,-1.751366138458252,-1.7534505329527796,1.4921801090240479,0.5781356692314148
1778146156965672026,1778146156.965672,-2.598692003880636,-1.0434430998614808,-1.751394510269165,-1.7534343204894007,1.4921841621398926,0.5781314373016357
1778146156985395003,1778146156.985395,-2.5987165609942835,-1.0435040158084412,-1.751390814781189,-1.7533980808653773,1.492143988609314,0.5781314373016357
1778146157005350180,1778146157.0053504,-2.5987003485309046,-1.0434963268092652,-1.7514235973358154,-1.753446718255514,1.4922618865966797,0.5781397819519043
1778146157025323679,1778146157.0253239,-2.598684374486105,-1.0434920352748414,-1.7514193058013916,-1.7534672222533167,1.4921319484710693,0.5781397819519043
1778146157045464795,1778146157.045465,-2.5986796061145228,-1.0434591931155701,-1.751410722732544,-1.7534424267210902,1.4921846389770508,0.5781558156013489
1778146157066548904,1778146157.066549,-2.5986719767199915,-1.0434516829303284,-1.7513738870620728,-1.7534505329527796,1.4921722412109375,0.5781397819519043
1778146157085787884,1778146157.085788,-2.5986276308642786,-1.043487862949707,-1.7513946294784546,-1.7534381351866664,1.4921923875808716,0.5781319737434387
1778146157105278046,1778146157.105278,-2.5987117926227015,-1.0434675973704834,-1.7513988018035889,-1.7534104786314906,1.4921847581863403,0.5781238079071045
1778146157125368507,1778146157.1253686,-2.5986676851855677,-1.043475942020752,-1.7514311075210571,-1.753446718255514,1.4921401739120483,0.578119695186615
1778146157145392673,1778146157.1453927,-2.598663632069723,-1.0434836906245728,-1.7514030933380127,-1.7534786663451136,1.4921480417251587,0.5781118273735046
1778146157165356340,1778146157.1653564,-2.598631207142965,-1.0434474510005494,-1.7513619661331177,-1.7534829578795375,1.4921882152557373,0.5781319737434387
1778146157185525123,1778146157.1855254,-2.5986760298358362,-1.0435005587390442,-1.7514679431915283,-1.753430505792135,1.4921722412109375,0.5781153440475464
1778146157205278399,1778146157.2052786,-2.5986600557910364,-1.04349638641391,-1.7514150142669678,-1.7534672222533167,1.4922001361846924,0.5781641006469727
1778146157225383770,1778146157.2253838,-2.5986760298358362,-1.0434717696956177,-1.751410722732544,-1.7534591160216273,1.492136001586914,0.5781314373016357
1778146157245298795,1778146157.2452989,-2.5986719767199915,-1.0434591931155701,-1.751378059387207,-1.753462930718893,1.492187738418579,0.5781356692314148
1778146157265367106,1778146157.2653673,-2.5986760298358362,-1.0434963268092652,-1.7513903379440308,-1.753458162347311,1.4921801090240479,0.5781397819519043
1778146157285388370,1778146157.2853885,-2.5986271540271204,-1.0434550207904358,-1.7513903379440308,-1.7534505329527796,1.4921804666519165,0.5781118869781494
1778146157305403054,1778146157.3054032,-2.5986838976489466,-1.0434591931155701,-1.7513866424560547,-1.7534424267210902,1.492203712463379,0.5781036615371704
1778146157325390897,1778146157.325391,-2.5986719767199915,-1.043487862949707,-1.7513662576675415,-1.753462930718893,1.4921762943267822,0.5781196355819702
1778146157345301050,1778146157.3453012,-2.598680082951681,-1.0435124200633545,-1.7513457536697388,-1.7534662685790003,1.4922083616256714,0.5781724452972412
1778146157365432351,1778146157.3654325,-2.5986557642566126,-1.0434836906245728,-1.751410722732544,-1.7534548244872035,1.4921882152557373,0.5781558156013489
1778146157385457771,1778146157.3854578,-2.5986600557910364,-1.0434591931155701,-1.7514148950576782,-1.7534786663451136,1.4922043085098267,0.5781764984130859
1778146157405541989,1778146157.405542,-2.5986879507647913,-1.0435124200633545,-1.7513823509216309,-1.753434797326559,1.4922162294387817,0.5781356692314148
1778146157425438553,1778146157.4254386,-2.5987122694598597,-1.0434676569751282,-1.7513946294784546,-1.7534591160216273,1.4921841621398926,0.5781724452972412
1778146157445350985,1778146157.4453511,-2.5987401644336146,-1.0434430998614808,-1.751366138458252,-1.7534505329527796,1.4921681880950928,0.5781319737434387
1778146157465392193,1778146157.4653924,-2.59863526025881,-1.0434635442546387,-1.7513988018035889,-1.7534786663451136,1.4921759366989136,0.5781599283218384
1778146157485336087,1778146157.485336,-2.5986760298358362,-1.0435158771327515,-1.7514030933380127,-1.753458162347311,1.4921882152557373,0.5781558156013489
1778146157506699544,1778146157.5066996,-2.5986276308642786,-1.0434675973704834,-1.7513823509216309,-1.753491064111227,1.4921722412109375,0.5781118273735046
1778146157529670270,1778146157.5296702,-2.5986560026751917,-1.0434635442546387,-1.7514472007751465,-1.7534824810423792,1.4921882152557373,0.5781036615371704
1778146157545412832,1778146157.545413,-2.59869629541506,-1.0434389871409913,-1.7513988018035889,-1.7534548244872035,1.4921882152557373,0.5781237483024597
1778146157565362219,1778146157.5653622,-2.598708216344015,-1.0434717696956177,-1.7513543367385864,-1.753430505792135,1.4921681880950928,0.5781036019325256
1778146157585361900,1778146157.585362,-2.5986760298358362,-1.04349638641391,-1.7514311075210571,-1.7534505329527796,1.4922083616256714,0.5781356692314148
1778146157605372747,1778146157.6053727,-2.598692242299215,-1.0435081285289307,-1.7514115571975708,-1.7534548244872035,1.4922001361846924,0.5781356692314148
1778146157626562441,1778146157.6265626,-2.5986676851855677,-1.0434675973704834,-1.7513823509216309,-1.7534262142577113,1.4921801090240479,0.5781639814376831
1778146157645565607,1778146157.6455657,-2.5986598173724573,-1.0434717696956177,-1.7513988018035889,-1.753502985040182,1.492241382598877,0.5781558156013489
1778146157665275311,1778146157.6652756,-2.5986717383014124,-1.0434675973704834,-1.7513903379440308,-1.753446718255514,1.4921680688858032,0.5781438946723938
1778146157685554554,1778146157.6855545,-2.59872013727297,-1.0434431594661255,-1.7513747215270996,-1.7534705601134242,1.4921236038208008,0.5781159400939941
1778146157705420549,1778146157.7054207,-2.5986436049090784,-1.0434591931155701,-1.7514073848724365,-1.7534381351866664,1.4921681880950928,0.5781806707382202
1778146157725441577,1778146157.7254417,-2.5987327734576624,-1.043475942020752,-1.7514311075210571,-1.7534743748106898,1.49208664894104,0.5781599283218384
1778146157745365040,1778146157.7453651,-2.598684374486105,-1.0434550803950806,-1.7514148950576782,-1.7534381351866664,1.4921599626541138,0.5781278610229492
1778146157765340095,1778146157.7653403,-2.5986717383014124,-1.0434591931155701,-1.751438856124878,-1.7534142933287562,1.4921759366989136,0.5781474113464355
1778146157785441504,1778146157.7854416,-2.5986760298358362,-1.0434928101352234,-1.7513988018035889,-1.7534142933287562,1.4921762943267822,0.5781806707382202
1778146157805365266,1778146157.8053653,-2.5986998716937464,-1.0435005587390442,-1.751410722732544,-1.7534786663451136,1.4922043085098267,0.5781397819519043
1778146157825393253,1778146157.8253932,-2.5986598173724573,-1.0434802931598206,-1.7514193058013916,-1.7534381351866664,1.4921400547027588,0.5781438946723938
1778146157845451134,1778146157.845451,-2.598724428807394,-1.043508843784668,-1.7513866424560547,-1.7534381351866664,1.4921804666519165,0.5781360864639282
1778146157865331606,1778146157.865332,-2.5986760298358362,-1.0434802931598206,-1.7513988018035889,-1.753446718255514,1.4922080039978027,0.5781397819519043
1778146157885553285,1778146157.8855536,-2.59868032137026,-1.043475942020752,-1.7514073848724365,-1.7534262142577113,1.4921722412109375,0.5781521201133728
1778146157905283376,1778146157.9052835,-2.5986674467669886,-1.04352422178302,-1.7513577938079834,-1.7534786663451136,1.4921680688858032,0.5781200528144836
1778146157925431969,1778146157.9254322,-2.5986598173724573,-1.0434920352748414,-1.751394510269165,-1.7534662685790003,1.4921722412109375,0.5781557559967041
1778146157946129087,1778146157.9461293,-2.5986231009112757,-1.0434550207904358,-1.7514032125473022,-1.7534548244872035,1.4921401739120483,0.5781397819519043
1778146157965340221,1778146157.9653404,-2.598647658024923,-1.0434802931598206,-1.751394510269165,-1.7533980808653773,1.4921847581863403,0.5781517028808594
1778146157985442998,1778146157.985443,-2.5986555258380335,-1.0434802931598206,-1.7513543367385864,-1.7534505329527796,1.4921278953552246,0.5781438946723938
1778146158005421318,1778146158.0054214,-2.598642889653341,-1.04349638641391,-1.7514064311981201,-1.7534705601134242,1.4921841621398926,0.5781438946723938
1778146158025342654,1778146158.025343,-2.59868032137026,-1.0435285729220887,-1.7513823509216309,-1.7534591160216273,1.4921562671661377,0.5781278014183044
1778146158045368268,1778146158.0453684,-2.5986879507647913,-1.0434675973704834,-1.7514073848724365,-1.7534181080260218,1.4921234846115112,0.5781517028808594
1778146158065387752,1778146158.065388,-2.5987170378314417,-1.0434355300715943,-1.7513618469238281,-1.7534705601134242,1.4922244548797607,0.5781557559967041
1778146158087451079,1778146158.0874512,-2.598708454762594,-1.0434550803950806,-1.7514234781265259,-1.753446718255514,1.4921276569366455,0.5781237483024597
1778146158105455775,1778146158.1054559,-2.598692003880636,-1.0434509080699463,-1.7513988018035889,-1.7534829578795375,1.4921722412109375,0.5781517028808594
1778146158126472509,1778146158.1264725,-2.5986395517932337,-1.04349638641391,-1.7513903379440308,-1.7534705601134242,1.4921722412109375,0.5781397819519043
1778146158145319607,1778146158.1453197,-2.5986273924456995,-1.043475942020752,-1.7514065504074097,-1.753446718255514,1.4921401739120483,0.5781278610229492
1778146158165396481,1778146158.1653967,-2.598703924809591,-1.0434635442546387,-1.7513988018035889,-1.753446718255514,1.4921562671661377,0.5781118273735046
1778146158185360537,1778146158.1853607,-2.598692003880636,-1.043467716579773,-1.7513747215270996,-1.7534381351866664,1.4921603202819824,0.5781154036521912
1778146158205520777,1778146158.205521,-2.5986719767199915,-1.0434474510005494,-1.7514030933380127,-1.7534591160216273,1.4921562671661377,0.5781765580177307
1778146158226403062,1778146158.2264032,-2.5986879507647913,-1.0434550207904358,-1.7513988018035889,-1.7534223995604457,1.4921361207962036,0.5781154632568359
1778146158245401949,1778146158.2454019,-2.5987122694598597,-1.043459252720215,-1.7513903379440308,-1.7534705601134242,1.4921603202819824,0.5781967043876648
1778146158265315175,1778146158.2653153,-2.5986600557910364,-1.0434844654849549,-1.7514193058013916,-1.753519197503561,1.49215567111969,0.5781077146530151
1778146158285475753,1778146158.285476,-2.5986719767199915,-1.0434997838786622,-1.7513866424560547,-1.7534424267210902,1.4922244548797607,0.5781200528144836
1778146158305312760,1778146158.3053129,-2.5987401644336146,-1.043467716579773,-1.7514115571975708,-1.7534223995604457,1.492136001586914,0.5781036615371704
1778146158325372512,1778146158.3253725,-2.5987122694598597,-1.0434591931155701,-1.7514073848724365,-1.753486772576803,1.492192029953003,0.5781558156013489
1778146158345400039,1778146158.3454,-2.598715845738546,-1.043455795650818,-1.7514065504074097,-1.7534223995604457,1.4921923875808716,0.5781196355819702
1778146158365268129,1778146158.3652682,-2.598692003880636,-1.043467716579773,-1.7513988018035889,-1.753401895562643,1.4921681880950928,0.5781077146530151
1778146158385545319,1778146158.3855453,-2.598703924809591,-1.0434718889049073,-1.7514311075210571,-1.753430505792135,1.4921882152557373,0.5781433582305908
1778146158405340948,1778146158.4053411,-2.5986884276019495,-1.0434885782054444,-1.7514073848724365,-1.753446718255514,1.4921681880950928,0.5781036615371704
1778146158425402132,1778146158.4254022,-2.59869629541506,-1.0434802931598206,-1.7514064311981201,-1.7534743748106898,1.4921401739120483,0.5781154036521912
1778146158445402347,1778146158.4454024,-2.5987122694598597,-1.0434152644923707,-1.751394510269165,-1.753413816491598,1.4921722412109375,0.5781237483024597
1778146158465376405,1778146158.4653766,-2.5986879507647913,-1.0434675973704834,-1.7513823509216309,-1.75341858486318,1.4921964406967163,0.5781196355819702
1778146158485573419,1778146158.4855735,-2.5986879507647913,-1.0434802931598206,-1.7513988018035889,-1.7534829578795375,1.4921716451644897,0.5781397819519043
1778146158505343448,1778146158.5053437,-2.5986879507647913,-1.0434635442546387,-1.7514311075210571,-1.753491064111227,1.4921801090240479,0.5781843662261963
1778146158525394242,1778146158.5253942,-2.5986395517932337,-1.0434474510005494,-1.7514277696609497,-1.7534223995604457,1.4921480417251587,0.5781356692314148
1778146158545830989,1778146158.545831,-2.598691527043478,-1.043487862949707,-1.751394510269165,-1.753446718255514,1.4921681880950928,0.5781480073928833
1778146158565353531,1778146158.5653536,-2.5987523237811487,-1.0434474510005494,-1.7513704299926758,-1.7534829578795375,1.4922043085098267,0.5781077742576599
1778146158585393559,1778146158.5853937,-2.5986879507647913,-1.0434802931598206,-1.7513903379440308,-1.7534548244872035,1.4921681880950928,0.5781599283218384
1778146158605410663,1778146158.6054106,-2.598680082951681,-1.043475942020752,-1.7513988018035889,-1.7534953556456507,1.4921483993530273,0.5781356692314148
1778146158625441502,1778146158.6254416,-2.598692003880636,-1.0434591931155701,-1.751378059387207,-1.7534986935057582,1.4921923875808716,0.5781356692314148
1778146158645300620,1778146158.6453009,-2.598651711140768,-1.0434844654849549,-1.7513903379440308,-1.7534705601134242,1.4921923875808716,0.5781397819519043
1778146158665572820,1778146158.665573,-2.598692003880636,-1.0434635442546387,-1.7513866424560547,-1.7534619770445765,1.4921562671661377,0.5781159400939941
1778146158685492008,1778146158.685492,-2.5986998716937464,-1.0435039562037964,-1.7514073848724365,-1.753486772576803,1.4921762943267822,0.5781357288360596
1778146158705470158,1778146158.7054703,-2.59869629541506,-1.0435081285289307,-1.7514193058013916,-1.753458162347311,1.4921681880950928,0.5781237483024597
1778146158725377641,1778146158.7253776,-2.5987241903888147,-1.0434635442546387,-1.751369595527649,-1.7534548244872035,1.4921562671661377,0.5781765580177307
1778146158745323650,1778146158.745324,-2.598635498677389,-1.0434516233256836,-1.7513823509216309,-1.7534424267210902,1.49215567111969,0.5781438946723938
1778146158765356153,1778146158.765356,-2.598680082951681,-1.0434634250453492,-1.7514269351959229,-1.7534591160216273,1.4922202825546265,0.578119695186615
1778146158785427099,1778146158.7854273,-2.598680082951681,-1.0434635442546387,-1.7513823509216309,-1.75341858486318,1.4921480417251587,0.5780918002128601
1778146158805461105,1778146158.8054612,-2.5987325350390833,-1.0434675377658387,-1.7513823509216309,-1.753430028954977,1.4922043085098267,0.5781077742576599
1778146158825835561,1778146158.8258357,-2.598664108906881,-1.0434844654849549,-1.7514073848724365,-1.7534223995604457,1.4921520948410034,0.578119695186615
1778146158845420493,1778146158.8454206,-2.5986600557910364,-1.0434388679317017,-1.7513823509216309,-1.7534262142577113,1.4921759366989136,0.5781196355819702
1778146158865387028,1778146158.8653872,-2.5986557642566126,-1.0434802931598206,-1.7514064311981201,-1.7534548244872035,1.4921401739120483,0.5781319737434387
1778146158885336798,1778146158.8853369,-2.598692003880636,-1.043508068924286,-1.7514064311981201,-1.753491064111227,1.4921443462371826,0.5781480073928833
1778146158905447486,1778146158.9054475,-2.5986600557910364,-1.0434550207904358,-1.7514150142669678,-1.7534743748106898,1.492168664932251,0.5781438946723938
1778146158925361819,1778146158.925362,-2.598708216344015,-1.0434591931155701,-1.7513618469238281,-1.7535110912718714,1.4921640157699585,0.5781036615371704
1778146158945581316,1778146158.9455814,-2.5986719767199915,-1.0434550207904358,-1.7513988018035889,-1.7534223995604457,1.4921153783798218,0.5781273245811462
1778146158965446440,1778146158.9654465,-2.5986760298358362,-1.0434717696956177,-1.7513903379440308,-1.7534591160216273,1.4921882152557373,0.5781356692314148
1778146158985343978,1778146158.9853442,-2.5986879507647913,-1.0434920352748414,-1.7514030933380127,-1.7534672222533167,1.4922001361846924,0.5781967043876648
1778146159005524363,1778146159.0055246,-2.5986879507647913,-1.04349638641391,-1.7513946294784546,-1.7534548244872035,1.4921320676803589,0.5781599283218384
1778146159025335598,1778146159.0253356,-2.5986879507647913,-1.043467716579773,-1.751378059387207,-1.7534786663451136,1.4921483993530273,0.5781438946723938
1778146159045352113,1778146159.0453522,-2.5986600557910364,-1.043454961185791,-1.7513988018035889,-1.7534705601134242,1.4921640157699585,0.5781480073928833
1778146159065436999,1778146159.065437,-2.5986879507647913,-1.0435005587390442,-1.751394510269165,-1.7534829578795375,1.49221670627594,0.5781196355819702
1778146159085499889,1778146159.0855,-2.5986955801593226,-1.043467716579773,-1.7514311075210571,-1.753413816491598,1.4921717643737793,0.5781237483024597
1778146159105406886,1778146159.105407,-2.5986760298358362,-1.0434389275363465,-1.7514022588729858,-1.7534223995604457,1.4922125339508057,0.5781036615371704
1778146159125452797,1778146159.125453,-2.5986998716937464,-1.0434550207904358,-1.7513903379440308,-1.7534705601134242,1.4922007322311401,0.5781397819519043
1778146159145441206,1778146159.1454413,-2.5986760298358362,-1.0434591931155701,-1.7514269351959229,-1.7534591160216273,1.4921674728393555,0.5781558156013489
1778146159165437934,1778146159.1654382,-2.5986436049090784,-1.043487862949707,-1.7513706684112549,-1.753413816491598,1.4921640157699585,0.5781599283218384
1778146159185376655,1778146159.185377,-2.598635498677389,-1.0435081881335755,-1.7513784170150757,-1.7534343204894007,1.4921722412109375,0.5781278610229492
1778146159205437598,1778146159.205438,-2.598692003880636,-1.0434516233256836,-1.7513866424560547,-1.753434797326559,1.4921722412109375,0.5781599283218384
1778146159225512377,1778146159.2255125,-2.598680082951681,-1.0434879225543519,-1.7513947486877441,-1.7534548244872035,1.4921401739120483,0.5781356692314148
1778146159245347852,1778146159.245348,-2.59869629541506,-1.04349638641391,-1.7514030933380127,-1.7534619770445765,1.492203712463379,0.5781640410423279
1778146159265388156,1778146159.2653883,-2.598680082951681,-1.0434591931155701,-1.7514029741287231,-1.7534223995604457,1.4922043085098267,0.5781925916671753
1778146159286957614,1778146159.2869577,-2.5986152330981653,-1.043487862949707,-1.751410722732544,-1.7534662685790003,1.4921923875808716,0.5781237483024597
1778146159305322152,1778146159.3053224,-2.598692003880636,-1.04343135774646,-1.751442790031433,-1.7534991703429164,1.492152214050293,0.5781397819519043
1778146159325432060,1778146159.325432,-2.59869629541506,-1.0434837502292176,-1.7514148950576782,-1.7534505329527796,1.4921599626541138,0.5781598687171936
1778146159345297990,1778146159.345298,-2.59869629541506,-1.0434550207904358,-1.7513947486877441,-1.7534591160216273,1.4921882152557373,0.5781278610229492
1778146159365377762,1778146159.365378,-2.5986760298358362,-1.0434717696956177,-1.7514266967773438,-1.7534223995604457,1.4921722412109375,0.5781438946723938
1778146159388572170,1778146159.3885722,-2.5986879507647913,-1.0434802931598206,-1.7513784170150757,-1.753462930718893,1.4921520948410034,0.5781356692314148
1778146159405395676,1778146159.4053957,-2.5986395517932337,-1.0434473913959046,-1.7513988018035889,-1.7534100017943324,1.4921112060546875,0.5781517028808594
1778146159425498172,1778146159.4254982,-2.5987282435046595,-1.0434508484653016,-1.7513988018035889,-1.7534662685790003,1.4921599626541138,0.5781118869781494
1778146159445399562,1778146159.4453998,-2.598703924809591,-1.0435124796679993,-1.7513905763626099,-1.7534662685790003,1.4922120571136475,0.5781558156013489
1778146159465342828,1778146159.4653428,-2.5986676851855677,-1.0434591931155701,-1.7513905763626099,-1.7534591160216273,1.4921438694000244,0.5780918002128601
1778146159485373190,1778146159.4853733,-2.5986276308642786,-1.0434802931598206,-1.751410722732544,-1.7534223995604457,1.4921965599060059,0.578119695186615
1778146159505383456,1778146159.5053835,-2.598668162022726,-1.0434591931155701,-1.7514468431472778,-1.7534548244872035,1.4921443462371826,0.5781599283218384
1778146159525416159,1778146159.5254164,-2.5986879507647913,-1.0434516233256836,-1.751430869102478,-1.753430028954977,1.4921520948410034,0.5781558156013489
1778146159545344233,1778146159.5453444,-2.5986316839801233,-1.0434928101352234,-1.7513747215270996,-1.7534381351866664,1.4922043085098267,0.5781517028808594
1778146159566789498,1778146159.5667894,-2.598684374486105,-1.0434515637210389,-1.7513824701309204,-1.7534505329527796,1.4922411441802979,0.5781397819519043
1778146159585437767,1778146159.5854378,-2.598708216344015,-1.0434550207904358,-1.7513824701309204,-1.7534786663451136,1.4922244548797607,0.578119695186615
1778146159605338936,1778146159.605339,-2.5986879507647913,-1.0434109729579468,-1.7514148950576782,-1.753430028954977,1.4921801090240479,0.5781278610229492
1778146159625346371,1778146159.6253464,-2.5986838976489466,-1.0434802931598206,-1.7513468265533447,-1.7534662685790003,1.4921964406967163,0.5781557559967041
1778146159645465248,1778146159.6454654,-2.5986719767199915,-1.0434475106051941,-1.751422643661499,-1.753486772576803,1.4921722412109375,0.5781598687171936
1778146159667191246,1778146159.6671915,-2.59872013727297,-1.0434388679317017,-1.751410722732544,-1.7534061870970667,1.4921640157699585,0.578152060508728
1778146159685411545,1778146159.6854117,-2.5986760298358362,-1.0434920352748414,-1.7513988018035889,-1.753462930718893,1.4921640157699585,0.5781517028808594
1778146159705425274,1778146159.7054253,-2.598680082951681,-1.0434920352748414,-1.7513866424560547,-1.7534548244872035,1.4922043085098267,0.5781397819519043
1778146159725385149,1778146159.7253854,-2.5986884276019495,-1.0434919756701966,-1.7514350414276123,-1.7534591160216273,1.4921960830688477,0.5781724452972412
1778146159745322880,1778146159.7453232,-2.5986760298358362,-1.043475942020752,-1.7514066696166992,-1.753462930718893,1.4921361207962036,0.578127920627594
1778146159765376266,1778146159.7653763,-2.598692242299215,-1.0434389275363465,-1.7513866424560547,-1.753446718255514,1.4921923875808716,0.5781278610229492
1778146159785352780,1778146159.7853527,-2.5986557642566126,-1.043475942020752,-1.7513623237609863,-1.7534505329527796,1.4921804666519165,0.5781724452972412
1778146159805558100,1778146159.8055582,-2.5986557642566126,-1.04349638641391,-1.751410722732544,-1.7533818684019984,1.4921882152557373,0.5781764984130859
1778146159825315497,1778146159.8253157,-2.5986557642566126,-1.0434508484653016,-1.7513824701309204,-1.753446718255514,1.4921480417251587,0.5781517028808594
1778146159845766565,1778146159.8457668,-2.598691527043478,-1.0434845250895997,-1.7514190673828125,-1.7534948788084925,1.492187738418579,0.5781517028808594
1778146159865394907,1778146159.865395,-2.5987005869494837,-1.0434795182994385,-1.751410722732544,-1.7534343204894007,1.4921764135360718,0.5781558156013489
1778146159885320120,1778146159.8853202,-2.598663393651144,-1.0434508484653016,-1.7513784170150757,-1.7534591160216273,1.4921480417251587,0.5781397819519043
1778146159908298105,1778146159.908298,-2.5986557642566126,-1.0434920948794861,-1.751422643661499,-1.7534100017943324,1.4921640157699585,0.5781598687171936
1778146159926187863,1778146159.926188,-2.59869629541506,-1.0434920352748414,-1.7513824701309204,-1.753458162347311,1.4921762943267822,0.5781118869781494
1778146159945440628,1778146159.9454405,-2.5987125078784388,-1.0434635442546387,-1.7514147758483887,-1.7534548244872035,1.4921722412109375,0.5781397819519043
1778146159965403748,1778146159.9654038,-2.5986760298358362,-1.0434550207904358,-1.7514070272445679,-1.7534424267210902,1.4922243356704712,0.5780953168869019
1778146159985369737,1778146159.98537,-2.598663393651144,-1.0435005587390442,-1.7513947486877441,-1.7534223995604457,1.4921681880950928,0.5781724452972412
1778146160005367521,1778146160.0053678,-2.5986676851855677,-1.0434878033450623,-1.751430869102478,-1.753413816491598,1.4922162294387817,0.5781159400939941
1778146160025620924,1778146160.0256212,-2.5986555258380335,-1.0434717696956177,-1.7513947486877441,-1.7533780537047328,1.4921919107437134,0.5781683921813965
1778146160047447217,1778146160.0474474,-2.598732296620504,-1.0434920352748414,-1.7513824701309204,-1.7534662685790003,1.4921562671661377,0.5781273245811462
1778146160065385163,1778146160.0653853,-2.5986433664904993,-1.0434802931598206,-1.7513866424560547,-1.7534986935057582,1.4922162294387817,0.5781397819519043
1778146160087211508,1778146160.0872116,-2.598720375691549,-1.04349638641391,-1.751410722732544,-1.753446718255514,1.4921722412109375,0.5781356692314148
1778146160105460398,1778146160.1054606,-2.598692242299215,-1.0434550207904358,-1.7513623237609863,-1.7534662685790003,1.4922038316726685,0.5781438946723938
1778146160125310440,1778146160.1253107,-2.5986793676959437,-1.0434717696956177,-1.7514350414276123,-1.753486772576803,1.4921960830688477,0.5781724452972412
1778146160145445704,1778146160.1454458,-2.5986998716937464,-1.0434591931155701,-1.7513784170150757,-1.7534548244872035,1.4922369718551636,0.5781118273735046
1778146160165392237,1778146160.1653922,-2.5986955801593226,-1.0434717696956177,-1.7514266967773438,-1.753446718255514,1.4921681880950928,0.5781314373016357
1778146160185403985,1778146160.185404,-2.5986433664904993,-1.0434389275363465,-1.7513905763626099,-1.7534662685790003,1.4921716451644897,0.5781683921813965
1778146160205443671,1778146160.2054436,-2.598696533833639,-1.0434508484653016,-1.7514350414276123,-1.7534829578795375,1.4921841621398926,0.5780957937240601
1778146160225289553,1778146160.2252896,-2.5986998716937464,-1.0434802931598206,-1.7513784170150757,-1.7534061870970667,1.4921759366989136,0.5781683921813965
1778146160245544050,1778146160.245544,-2.5986836592303675,-1.0434886378100892,-1.7513988018035889,-1.7534672222533167,1.49221670627594,0.5781765580177307
1778146160265289626,1778146160.2652898,-2.5986676851855677,-1.0434920352748414,-1.7514147758483887,-1.7534548244872035,1.4921722412109375,0.5781397819519043
1778146160285448620,1778146160.2854488,-2.5986879507647913,-1.0434718889049073,-1.7513947486877441,-1.753446718255514,1.4921841621398926,0.578152060508728
1778146160305376572,1778146160.3053765,-2.5986838976489466,-1.0434430998614808,-1.7513905763626099,-1.7534548244872035,1.4921681880950928,0.5781196355819702
1778146160325386671,1778146160.3253868,-2.5986719767199915,-1.0434717696956177,-1.7514148950576782,-1.753430028954977,1.4921361207962036,0.5781237483024597
1778146160345402629,1778146160.3454027,-2.598663632069723,-1.0434550207904358,-1.7514350414276123,-1.7534672222533167,1.4921759366989136,0.5781397819519043
1778146160365331430,1778146160.3653316,-2.598764721547262,-1.0434802931598206,-1.751410722732544,-1.7534662685790003,1.4922369718551636,0.5781517028808594
1778146160385541181,1778146160.3855412,-2.5986676851855677,-1.0435081285289307,-1.7513865232467651,-1.753446718255514,1.4921722412109375,0.5781639814376831
1778146160405350284,1778146160.4053504,-2.5986998716937464,-1.0434591931155701,-1.7513947486877441,-1.7534548244872035,1.4921960830688477,0.5781438946723938
1778146160425405548,1778146160.4254055,-2.598692003880636,-1.0434636038592835,-1.7513866424560547,-1.7534743748106898,1.492164134979248,0.5781641006469727
1778146160445412290,1778146160.4454124,-2.598708216344015,-1.043487862949707,-1.7513988018035889,-1.7534505329527796,1.4922080039978027,0.5781639814376831
1778146160465546439,1778146160.4655466,-2.598663632069723,-1.0434507888606568,-1.7514190673828125,-1.7534548244872035,1.4921562671661377,0.5781036615371704
1778146160485372767,1778146160.4853728,-2.5986719767199915,-1.04349638641391,-1.7513623237609863,-1.7534505329527796,1.4922244548797607,0.5781036615371704
1778146160505394227,1778146160.5053942,-2.598692003880636,-1.0434550207904358,-1.7513824701309204,-1.7534548244872035,1.4922001361846924,0.5781237483024597
1778146160525382245,1778146160.5253823,-2.598732058201925,-1.043488697414734,-1.7513905763626099,-1.753430028954977,1.4922327995300293,0.5781438946723938
1778146160547781003,1778146160.5477812,-2.598663632069723,-1.043487862949707,-1.7513866424560547,-1.7534223995604457,1.4921876192092896,0.5781397819519043
1778146160565473777,1778146160.5654738,-2.5986838976489466,-1.0434802931598206,-1.7513988018035889,-1.7534223995604457,1.4921320676803589,0.5781517028808594
1778146160585454967,1778146160.585455,-2.5986760298358362,-1.0434920352748414,-1.7513706684112549,-1.7534424267210902,1.4922327995300293,0.5781237483024597
1778146160605374119,1778146160.6053743,-2.5986557642566126,-1.04349638641391,-1.7514185905456543,-1.753486772576803,1.4921960830688477,0.5781237483024597
1778146160625421547,1778146160.6254218,-2.5986719767199915,-1.043435589676239,-1.751402497291565,-1.7534986935057582,1.4921759366989136,0.5781278610229492
1778146160647353289,1778146160.6473534,-2.5986838976489466,-1.0435047310641785,-1.7514111995697021,-1.7534424267210902,1.4921276569366455,0.5781397819519043
1778146160665523484,1778146160.6655235,-2.598703924809591,-1.0434474510005494,-1.7513946294784546,-1.753446718255514,1.4922120571136475,0.5781113505363464
1778146160685357405,1778146160.6853573,-2.598651711140768,-1.0435005587390442,-1.7513664960861206,-1.7533980808653773,1.4921960830688477,0.5781036615371704
1778146160705511888,1778146160.705512,-2.5986838976489466,-1.04349638641391,-1.7514029741287231,-1.7534381351866664,1.4921801090240479,0.5781558156013489
1778146160725521879,1778146160.725522,-2.5986879507647913,-1.0434591931155701,-1.7513905763626099,-1.7534381351866664,1.4922410249710083,0.5781237483024597
1778146160745312291,1778146160.7453125,-2.5986760298358362,-1.043475942020752,-1.7513866424560547,-1.7534591160216273,1.4921722412109375,0.5781438946723938
1778146160765371595,1778146160.7653718,-2.5986557642566126,-1.0434844654849549,-1.7513905763626099,-1.7534591160216273,1.4922162294387817,0.5781314373016357
1778146160785328811,1778146160.785329,-2.598703924809591,-1.0434802931598206,-1.7513947486877441,-1.7534381351866664,1.4921960830688477,0.5781480073928833
1778146160805466526,1778146160.8054667,-2.5987122694598597,-1.0434466165355225,-1.751410722732544,-1.753446718255514,1.492203712463379,0.5781683921813965
1778146160825329326,1778146160.8253295,-2.598692003880636,-1.04343135774646,-1.7513784170150757,-1.7534662685790003,1.4921882152557373,0.5781558156013489
1778146160845393660,1778146160.8453937,-2.5986600557910364,-1.0435039562037964,-1.7514147758483887,-1.7535230122008265,1.492175579071045,0.5781558156013489
1778146160865442333,1778146160.8654425,-2.598651711140768,-1.0434920352748414,-1.7514147758483887,-1.7534591160216273,1.4922375679016113,0.5781237483024597
1778146160885462784,1778146160.885463,-2.598692003880636,-1.0434591931155701,-1.7514070272445679,-1.7534619770445765,1.4921594858169556,0.5781479477882385
1778146160905343262,1778146160.9053433,-2.5986436049090784,-1.0434802931598206,-1.7514350414276123,-1.7534181080260218,1.4921884536743164,0.5781480073928833
1778146160925388826,1778146160.9253888,-2.5987325350390833,-1.0434920352748414,-1.7514111995697021,-1.753446718255514,1.4921603202819824,0.5781077742576599
1778146160945420386,1778146160.9454205,-2.5986879507647913,-1.0434718889049073,-1.7513988018035889,-1.7534619770445765,1.4921596050262451,0.5781397819519043
1778146160967049374,1778146160.9670496,-2.598715845738546,-1.0434591931155701,-1.7514029741287231,-1.7534223995604457,1.4921475648880005,0.5781357288360596
1778146160985387402,1778146160.9853876,-2.5986760298358362,-1.0434675377658387,-1.7514268159866333,-1.7534743748106898,1.4921399354934692,0.5781599283218384
1778146161005432059,1778146161.0054321,-2.598668162022726,-1.043487862949707,-1.7514070272445679,-1.7534591160216273,1.4921807050704956,0.5781356692314148
1778146161025353613,1778146161.025354,-2.5986879507647913,-1.043512539272644,-1.7513905763626099,-1.7534548244872035,1.4921926259994507,0.578152060508728
1778146161045412485,1778146161.0454128,-2.5986760298358362,-1.0434717696956177,-1.7513784170150757,-1.7534104786314906,1.49220871925354,0.5781118273735046
1778146161065376171,1778146161.0653763,-2.598708216344015,-1.043487862949707,-1.7513988018035889,-1.7534505329527796,1.4921680688858032,0.5781724452972412
1778146161085552460,1778146161.0855525,-2.598692003880636,-1.043467716579773,-1.7513824701309204,-1.753434797326559,1.4922291040420532,0.5781843662261963
1778146161107667536,1778146161.1076677,-2.598663632069723,-1.0434430998614808,-1.751358151435852,-1.7534381351866664,1.4921884536743164,0.5781397819519043
1778146161125360942,1778146161.125361,-2.598680082951681,-1.0434591931155701,-1.7513422966003418,-1.7534505329527796,1.4922045469284058,0.5781598687171936
1778146161145421345,1778146161.1454215,-2.5987406412707728,-1.0434550207904358,-1.7514550685882568,-1.7534705601134242,1.4921680688858032,0.5781237483024597
1778146161165327490,1778146161.1653278,-2.5986879507647913,-1.0434964460185547,-1.751402497291565,-1.7534548244872035,1.492196798324585,0.5781521201133728
1778146161185505707,1778146161.1855059,-2.598647658024923,-1.0435039562037964,-1.7514148950576782,-1.753462930718893,1.492196798324585,0.5781113505363464
1778146161205413695,1778146161.2054138,-2.59872013727297,-1.0434717696956177,-1.7514426708221436,-1.7534104786314906,1.4921518564224243,0.5781479477882385
1778146161225508323,1778146161.2255085,-2.598663632069723,-1.043487862949707,-1.7513582706451416,-1.753502985040182,1.4921714067459106,0.5781598687171936
1778146161245331148,1778146161.2453313,-2.598651711140768,-1.043475942020752,-1.7513623237609863,-1.7534023723998011,1.4921231269836426,0.5781159400939941
1778146161265461236,1778146161.2654614,-2.5987241903888147,-1.043487862949707,-1.7514468431472778,-1.7534705601134242,1.4921680688858032,0.5781639814376831
1778146161285485186,1778146161.2854855,-2.598752562199728,-1.0435005587390442,-1.7514350414276123,-1.7534548244872035,1.4921807050704956,0.5781077742576599
1778146161305370820,1778146161.305371,-2.5986436049090784,-1.043475942020752,-1.751442790031433,-1.7534548244872035,1.4921680688858032,0.5781765580177307
1778146161325399062,1778146161.3253992,-2.5987077395068567,-1.0434591931155701,-1.7513784170150757,-1.753462930718893,1.4921764135360718,0.5781558156013489
1778146161345371666,1778146161.3453717,-2.598680082951681,-1.0434844654849549,-1.7514190673828125,-1.7534223995604457,1.4921764135360718,0.5781314373016357
1778146161365417459,1778146161.3654175,-2.5986879507647913,-1.0434920352748414,-1.751430869102478,-1.7534705601134242,1.492144227027893,0.5781397819519043
1778146161388554207,1778146161.3885543,-2.5987282435046595,-1.0434508484653016,-1.7513988018035889,-1.7534505329527796,1.492163896560669,0.5781764984130859
1778146161405596093,1778146161.4055963,-2.598647658024923,-1.0434675973704834,-1.7513784170150757,-1.7534829578795375,1.4921722412109375,0.5781397819519043
1778146161425334511,1778146161.4253347,-2.598703924809591,-1.0434844654849549,-1.7514185905456543,-1.7534548244872035,1.492200255393982,0.5781356692314148
1778146161445391632,1778146161.4453917,-2.598680082951681,-1.043475942020752,-1.7513866424560547,-1.753430028954977,1.4921680688858032,0.5781356692314148
1778146161465431534,1778146161.4654317,-2.5986955801593226,-1.0434718889049073,-1.7513623237609863,-1.7534343204894007,1.4921722412109375,0.5780959129333496
1778146161485404112,1778146161.4854043,-2.5986438433276575,-1.04349638641391,-1.751410722732544,-1.7534662685790003,1.4921596050262451,0.5781557559967041
1778146161505459909,1778146161.50546,-2.598692003880636,-1.043467716579773,-1.7514029741287231,-1.7534381351866664,1.4921764135360718,0.578127384185791
1778146161525370946,1778146161.525371,-2.5986838976489466,-1.0434844654849549,-1.751410722732544,-1.7534424267210902,1.4921764135360718,0.5781680941581726
1778146161545437419,1778146161.5454376,-2.5986719767199915,-1.0434635442546387,-1.7513664960861206,-1.7534381351866664,1.492233157157898,0.5781480073928833
1778146161565352817,1778146161.565353,-2.598651711140768,-1.0434717696956177,-1.751422643661499,-1.753462930718893,1.4921722412109375,0.578131377696991
1778146161585390482,1778146161.5853908,-2.5986560026751917,-1.0434675973704834,-1.7514266967773438,-1.7533818684019984,1.492200255393982,0.5780876278877258
1778146161605345606,1778146161.6053457,-2.5986998716937464,-1.0435242813876648,-1.7513421773910522,-1.7534591160216273,1.4921561479568481,0.5781683325767517
1778146161625392163,1778146161.6253922,-2.5986796061145228,-1.0434591931155701,-1.751422643661499,-1.7534381351866664,1.4922163486480713,0.578143835067749
1778146161645412459,1778146161.6454124,-2.5986760298358362,-1.0435005587390442,-1.7513784170150757,-1.7534505329527796,1.4921519756317139,0.5780833959579468
1778146161667476049,1778146161.6674762,-2.5986719767199915,-1.04349638641391,-1.7514148950576782,-1.7534343204894007,1.4922044277191162,0.5781558156013489
1778146161685633967,1778146161.6856341,-2.598684374486105,-1.043467716579773,-1.751418948173523,-1.753430028954977,1.4921841621398926,0.5781480073928833
1778146161705341031,1778146161.705341,-2.598623339329855,-1.04349638641391,-1.7514147758483887,-1.7534705601134242,1.4921680688858032,0.5781558156013489
1778146161725467561,1778146161.7254677,-2.59872013727297,-1.043553189640381,-1.7513866424560547,-1.7534505329527796,1.4921883344650269,0.5781764984130859
1778146161745374012,1778146161.745374,-2.5986557642566126,-1.043443040256836,-1.751418948173523,-1.7534548244872035,1.4921722412109375,0.5781397819519043
1778146161765373928,1778146161.765374,-2.5987046400653284,-1.0434508484653016,-1.7513947486877441,-1.7534343204894007,1.4921722412109375,0.5781680941581726
1778146161785473564,1778146161.7854736,-2.5986879507647913,-1.0434591931155701,-1.751430869102478,-1.7534662685790003,1.4922044277191162,0.5781237483024597
1778146161805985362,1778146161.8059855,-2.598692242299215,-1.0435081285289307,-1.751410722732544,-1.7533861599364222,1.4922163486480713,0.5781238079071045
1778146161825462652,1778146161.8254626,-2.598647658024923,-1.0435124796679993,-1.7513988018035889,-1.7534715137877406,1.4922003746032715,0.5781356692314148
1778146161846943856,1778146161.8469439,-2.5986879507647913,-1.0434635442546387,-1.7513701915740967,-1.7534424267210902,1.4921722412109375,0.5781077146530151
1778146161865384681,1778146161.8653848,-2.598692242299215,-1.0434836906245728,-1.7513947486877441,-1.7534619770445765,1.492180585861206,0.5780993700027466
1778146161885571039,1778146161.8855712,-2.5986600557910364,-1.0434802931598206,-1.7513784170150757,-1.7534505329527796,1.4921597242355347,0.5781356692314148
1778146161905440926,1778146161.905441,-2.5986514727221888,-1.0434635442546387,-1.7513742446899414,-1.7534986935057582,1.4921841621398926,0.5781438946723938
1778146161925347822,1778146161.925348,-2.5986886660205286,-1.0434507888606568,-1.7513706684112549,-1.7534548244872035,1.492103099822998,0.5781356692314148
1778146161946312020,1778146161.946312,-2.598692242299215,-1.0434717696956177,-1.7514147758483887,-1.7534548244872035,1.4921233654022217,0.5781599283218384
1778146161965415269,1778146161.9654152,-2.5986717383014124,-1.0435039562037964,-1.7513905763626099,-1.7534705601134242,1.492200255393982,0.5781398415565491
1778146161985330019,1778146161.98533,-2.5986760298358362,-1.0434802931598206,-1.7513988018035889,-1.7534786663451136,1.4921966791152954,0.5781438946723938
1778146162005460836,1778146162.0054607,-2.5986598173724573,-1.0434591931155701,-1.7514029741287231,-1.7534424267210902,1.4922289848327637,0.5781639814376831
1778146162025345376,1778146162.0253453,-2.598692242299215,-1.0434635442546387,-1.7514147758483887,-1.7534548244872035,1.4922044277191162,0.5781598687171936
1778146162045440970,1778146162.0454412,-2.59869629541506,-1.0435039562037964,-1.7513947486877441,-1.7533818684019984,1.4921883344650269,0.5781278610229492
1778146162065474818,1778146162.065475,-2.598692242299215,-1.043487862949707,-1.7513505220413208,-1.753413816491598,1.4921561479568481,0.5780993700027466
1778146162085299080,1778146162.0852993,-2.5987489859210413,-1.0434635442546387,-1.7513988018035889,-1.753462930718893,1.4921561479568481,0.5781724452972412
1778146162105517413,1778146162.1055174,-2.5987167994128626,-1.0435038965991517,-1.7514029741287231,-1.753413816491598,1.4921680688858032,0.5781884789466858
1778146162125409430,1778146162.1254096,-2.598692242299215,-1.0434474510005494,-1.7513988018035889,-1.753401895562643,1.4921833276748657,0.5781237483024597
1778146162145465199,1778146162.1454651,-2.598708454762594,-1.043443040256836,-1.7513782978057861,-1.7534424267210902,1.492151141166687,0.578127920627594
1778146162165440646,1778146162.1654408,-2.5986836592303675,-1.0434591931155701,-1.751410722732544,-1.7534591160216273,1.4921722412109375,0.5781724452972412
1778146162185341202,1778146162.1853414,-2.5986879507647913,-1.0434635442546387,-1.7513947486877441,-1.753401895562643,1.4921722412109375,0.5781480073928833
1778146162205379315,1778146162.2053795,-2.5986555258380335,-1.0434635442546387,-1.7514190673828125,-1.753446718255514,1.4921722412109375,0.5781314373016357
1778146162225360351,1778146162.2253604,-2.5986514727221888,-1.0434474510005494,-1.7513905763626099,-1.7534223995604457,1.4921151399612427,0.5781118273735046
1778146162245608261,1778146162.2456083,-2.5986879507647913,-1.043487862949707,-1.7514190673828125,-1.7534829578795375,1.4921722412109375,0.578119695186615
1778146162268335855,1778146162.268336,-2.5986760298358362,-1.0434269470027466,-1.7513824701309204,-1.7534591160216273,1.4921561479568481,0.5781438946723938
1778146162285336560,1778146162.2853367,-2.598692242299215,-1.0434388679317017,-1.7513988018035889,-1.7534104786314906,1.4921722412109375,0.5781197547912598
1778146162305479338,1778146162.3054795,-2.598692242299215,-1.0434920352748414,-1.751402497291565,-1.753430505792135,1.4922497272491455,0.5781237483024597
1778146162325382213,1778146162.3253822,-2.598703209553854,-1.043487862949707,-1.7514190673828125,-1.7534705601134242,1.4922370910644531,0.5781397819519043
1778146162345370959,1778146162.345371,-2.5986879507647913,-1.0434717696956177,-1.751390814781189,-1.7534061870970667,1.4921965599060059,0.5781319737434387
1778146162365744355,1778146162.3657446,-2.5986631552325647,-1.0435005587390442,-1.7514147758483887,-1.753453870812887,1.4921722412109375,0.5781765580177307
1778146162385552389,1778146162.3855524,-2.5986719767199915,-1.043454961185791,-1.7513582706451416,-1.7534705601134242,1.4921722412109375,0.5781639814376831
1778146162406404617,1778146162.4064047,-2.59869629541506,-1.0434430998614808,-1.7514266967773438,-1.7534591160216273,1.4921598434448242,0.5781558156013489
1778146162425402889,1778146162.4254029,-2.598635498677389,-1.0434474510005494,-1.751410722732544,-1.7533985577025355,1.4921960830688477,0.5781683921813965
1778146162445409949,1778146162.4454103,-2.5986676851855677,-1.0434507888606568,-1.7513864040374756,-1.7534548244872035,1.4921722412109375,0.578083336353302
1778146162465308903,1778146162.4653091,-2.5986884276019495,-1.0434635442546387,-1.7513824701309204,-1.7534424267210902,1.4921401739120483,0.5781480073928833
1778146162485553599,1778146162.4855537,-2.598703924809591,-1.043471710090973,-1.7513906955718994,-1.7534953556456507,1.4921841621398926,0.5781474113464355
1778146162505399535,1778146162.5053997,-2.598720375691549,-1.0434635442546387,-1.7514029741287231,-1.753446718255514,1.4921520948410034,0.5781599283218384
1778146162525551100,1778146162.5255513,-2.598692003880636,-1.043475942020752,-1.7513906955718994,-1.7534424267210902,1.4922043085098267,0.5781196355819702
1778146162545309228,1778146162.5453093,-2.5986879507647913,-1.043467716579773,-1.751430869102478,-1.7534343204894007,1.492212176322937,0.5781641006469727
1778146162565408265,1778146162.5654085,-2.598692003880636,-1.0434718889049073,-1.7514551877975464,-1.7534743748106898,1.4921883344650269,0.5781036615371704
1778146162585392203,1778146162.5853922,-2.598719898854391,-1.043463484649994,-1.7513824701309204,-1.7534548244872035,1.4921804666519165,0.5781639814376831
1778146162605419294,1778146162.6054194,-2.598692003880636,-1.0434964460185547,-1.751418948173523,-1.753430028954977,1.4922329187393188,0.578119695186615
1778146162625348094,1778146162.625348,-2.598732296620504,-1.043475942020752,-1.7514029741287231,-1.7534948788084925,1.4922202825546265,0.5781438946723938
1778146162645433453,1778146162.6454334,-2.598667923604147,-1.0434964460185547,-1.7514029741287231,-1.7534381351866664,1.4921722412109375,0.5781237483024597
1778146162665420936,1778146162.6654212,-2.59869629541506,-1.0434920948794861,-1.7513623237609863,-1.753401895562643,1.4921841621398926,0.5781356692314148
1778146162689420791,1778146162.689421,-2.598651711140768,-1.0435285729220887,-1.7513988018035889,-1.7534743748106898,1.4921438694000244,0.5781639814376831
1778146162705356575,1778146162.7053566,-2.598680082951681,-1.043500618343689,-1.7513905763626099,-1.753446718255514,1.4922287464141846,0.5781397819519043
1778146162725895214,1778146162.7258952,-2.5986760298358362,-1.04349638641391,-1.7514266967773438,-1.7534505329527796,1.492187738418579,0.5781558156013489
1778146162745392292,1778146162.7453926,-2.598692003880636,-1.0434591931155701,-1.751410722732544,-1.7534991703429164,1.4921841621398926,0.578119695186615
1778146162765333534,1778146162.7653337,-2.598708216344015,-1.0434507888606568,-1.7513905763626099,-1.7534061870970667,1.492203712463379,0.5781036615371704
1778146162785392692,1778146162.7853928,-2.598707977925436,-1.0434675377658387,-1.7514066696166992,-1.753462930718893,1.4921722412109375,0.5781356692314148
1778146162805450512,1778146162.8054507,-2.5986760298358362,-1.0434591931155701,-1.751442790031433,-1.7533861599364222,1.4921438694000244,0.5781847238540649
1778146162828068121,1778146162.8280683,-2.598708216344015,-1.0434508484653016,-1.7514147758483887,-1.7534381351866664,1.4921960830688477,0.5781237483024597
1778146162845446853,1778146162.845447,-2.5986760298358362,-1.0434964460185547,-1.751442790031433,-1.7534223995604457,1.4922162294387817,0.5781517028808594
1778146162866257131,1778146162.8662572,-2.5986879507647913,-1.0434262317470093,-1.7513824701309204,-1.7534262142577113,1.4921319484710693,0.5781558156013489
1778146162885391495,1778146162.8853917,-2.598692003880636,-1.0434591335109253,-1.7513905763626099,-1.7534548244872035,1.4921640157699585,0.5781154632568359
1778146162905486184,1778146162.905486,-2.5986760298358362,-1.0434964460185547,-1.7513988018035889,-1.7534381351866664,1.4921361207962036,0.5781438946723938
1778146162925302729,1778146162.925303,-2.59872013727297,-1.043443040256836,-1.7513664960861206,-1.7534591160216273,1.4921882152557373,0.5781077742576599
1778146162945439218,1778146162.9454393,-2.5986760298358362,-1.0435167115977784,-1.7514070272445679,-1.7534619770445765,1.4921722412109375,0.5781680941581726
1778146162968705920,1778146162.9687061,-2.5986600557910364,-1.0434389275363465,-1.7514266967773438,-1.7534223995604457,1.4922124147415161,0.5781036615371704
1778146162985512025,1778146162.985512,-2.5986998716937464,-1.0434591335109253,-1.7514266967773438,-1.7534061870970667,1.4921882152557373,0.5780918002128601
1778146163005490547,1778146163.0054905,-2.5987003485309046,-1.0434836906245728,-1.7513905763626099,-1.7534104786314906,1.4921882152557373,0.5781397819519043
1778146163025411433,1778146163.0254114,-2.598719898854391,-1.0434920352748414,-1.7513866424560547,-1.7534424267210902,1.492203712463379,0.5781278610229492
1778146163045421464,1778146163.0454216,-2.5986796061145228,-1.0434718889049073,-1.7513784170150757,-1.7534743748106898,1.4921681880950928,0.5781200528144836
1778146163065387659,1778146163.065388,-2.5986600557910364,-1.0434844654849549,-1.7514147758483887,-1.7533899746336878,1.4921801090240479,0.578119695186615
1778146163085481760,1778146163.085482,-2.5986676851855677,-1.0434635442546387,-1.7514231204986572,-1.7534953556456507,1.49221670627594,0.5781561136245728
1778146163105365063,1778146163.105365,-2.5987122694598597,-1.0434227746776124,-1.7513905763626099,-1.753446718255514,1.492220401763916,0.5781319737434387
1778146163125380625,1778146163.1253808,-2.5986557642566126,-1.0435039562037964,-1.751422643661499,-1.7534181080260218,1.49215567111969,0.5781598687171936
1778146163146576689,1778146163.1465766,-2.598651711140768,-1.0434635442546387,-1.751418948173523,-1.7534991703429164,1.4922244548797607,0.5781557559967041
1778146163165345056,1778146163.1653452,-2.5987241903888147,-1.043475942020752,-1.751439094543457,-1.7533980808653773,1.4922287464141846,0.5781558752059937
1778146163185366996,1778146163.185367,-2.598680082951681,-1.043504850273468,-1.751439094543457,-1.7534061870970667,1.49215567111969,0.5781599283218384
1778146163205338160,1778146163.2053382,-2.598715845738546,-1.043475942020752,-1.7513988018035889,-1.7534223995604457,1.4921841621398926,0.5781397819519043
1778146163225412280,1778146163.2254124,-2.5987325350390833,-1.043475942020752,-1.7514070272445679,-1.753462930718893,1.4921841621398926,0.5781639814376831
1778146163245273428,1778146163.2452734,-2.5986719767199915,-1.043487862949707,-1.7513824701309204,-1.7534223995604457,1.4922246932983398,0.5781077742576599
1778146163265544703,1778146163.265545,-2.598732058201925,-1.0434675973704834,-1.7513947486877441,-1.7534953556456507,1.492168664932251,0.5781278610229492
1778146163285377621,1778146163.2853777,-2.598703924809591,-1.043487862949707,-1.7513947486877441,-1.7534104786314906,1.4921841621398926,0.5781077742576599
1778146163305425905,1778146163.3054261,-2.59872013727297,-1.0434675377658387,-1.7513824701309204,-1.753491064111227,1.49215567111969,0.5781397819519043
1778146163325353798,1778146163.3253539,-2.598647658024923,-1.0434717696956177,-1.7513905763626099,-1.7534104786314906,1.4921960830688477,0.5781474709510803
1778146163345379538,1778146163.3453796,-2.5986998716937464,-1.0434635442546387,-1.7514066696166992,-1.7534181080260218,1.4921153783798218,0.5781319737434387
1778146163365454355,1778146163.3654544,-2.5986557642566126,-1.043475942020752,-1.7514029741287231,-1.7534381351866664,1.4921716451644897,0.578119695186615
1778146163385321549,1778146163.3853216,-2.5986879507647913,-1.04349638641391,-1.7514386177062988,-1.7534343204894007,1.4921722412109375,0.5781639814376831
1778146163405519188,1778146163.4055192,-2.5987003485309046,-1.0434677761844178,-1.751422643661499,-1.7534743748106898,1.4922001361846924,0.5781397819519043
1778146163425301957,1778146163.425302,-2.598668162022726,-1.0434761208346863,-1.7514071464538574,-1.753486772576803,1.4921923875808716,0.5781201124191284
1778146163445435805,1778146163.445436,-2.5987003485309046,-1.043467716579773,-1.7513784170150757,-1.7534505329527796,1.4921640157699585,0.5781683325767517
1778146163465358917,1778146163.465359,-2.5986879507647913,-1.0434388679317017,-1.7514065504074097,-1.7534386120238246,1.4922001361846924,0.5781683325767517
1778146163485331716,1778146163.4853318,-2.5986600557910364,-1.043487862949707,-1.751430869102478,-1.7534505329527796,1.4921960830688477,0.5781558156013489
1778146163505359201,1778146163.5053592,-2.5986478964435022,-1.0434185427478333,-1.7514147758483887,-1.753413816491598,1.4921562671661377,0.578143835067749
1778146163527567214,1778146163.5275671,-2.5986717383014124,-1.0434591931155701,-1.751430869102478,-1.7534953556456507,1.4922162294387817,0.5780953168869019
1778146163545583178,1778146163.5455832,-2.5986879507647913,-1.0434802931598206,-1.7514111995697021,-1.7534548244872035,1.4921401739120483,0.578143835067749
1778146163565325097,1778146163.5653253,-2.598664108906881,-1.0435005587390442,-1.7513865232467651,-1.753486772576803,1.4922043085098267,0.5781438946723938
1778146163585353626,1778146163.5853539,-2.5986676851855677,-1.043467716579773,-1.7514190673828125,-1.7534381351866664,1.4921640157699585,0.5781474113464355
1778146163605559715,1778146163.6055598,-2.5986719767199915,-1.0434346956065674,-1.7513784170150757,-1.753446718255514,1.4922007322311401,0.5781800746917725
1778146163625351152,1778146163.6253512,-2.5986557642566126,-1.0434717696956177,-1.7513905763626099,-1.753491064111227,1.4921801090240479,0.578143835067749
1778146163645633614,1778146163.6456337,-2.5986719767199915,-1.0434474510005494,-1.7513706684112549,-1.7534591160216273,1.4921681880950928,0.5781397819519043
1778146163666582067,1778146163.666582,-2.598703924809591,-1.0434845250895997,-1.7514266967773438,-1.7534591160216273,1.4922083616256714,0.5780994296073914
1778146163685423815,1778146163.685424,-2.5986760298358362,-1.0434635442546387,-1.7513824701309204,-1.7533937893309535,1.4922246932983398,0.5781479477882385
1778146163705454615,1778146163.7054546,-2.598703924809591,-1.0434802931598206,-1.7513742446899414,-1.7534505329527796,1.4921722412109375,0.5781077742576599
1778146163725489995,1778146163.72549,-2.5986879507647913,-1.0434635442546387,-1.7514147758483887,-1.753425737420553,1.4921681880950928,0.5781765580177307
1778146163745379630,1778146163.7453797,-2.5986879507647913,-1.0434717696956177,-1.751422643661499,-1.7534223995604457,1.4921526908874512,0.5781639814376831
1778146163765377029,1778146163.765377,-2.5986600557910364,-1.0434474510005494,-1.7514386177062988,-1.753486772576803,1.4921640157699585,0.5781118273735046
1778146163785356624,1778146163.7853568,-2.598703924809591,-1.043487862949707,-1.751430869102478,-1.753430505792135,1.4922369718551636,0.5781598687171936
1778146163805398365,1778146163.8053985,-2.598631207142965,-1.043475942020752,-1.751418948173523,-1.753430505792135,1.4921923875808716,0.5781278610229492
1778146163825560799,1778146163.825561,-2.5986879507647913,-1.0434227150729676,-1.7513623237609863,-1.7534948788084925,1.4921722412109375,0.5781278610229492
1778146163845424204,1778146163.8454242,-2.59861928621401,-1.043463484649994,-1.751410722732544,-1.753430028954977,1.4921841621398926,0.5781438946723938
1778146163865436978,1778146163.865437,-2.598664108906881,-1.04349638641391,-1.7513988018035889,-1.753486772576803,1.4921640157699585,0.5781558156013489
1778146163885480610,1778146163.8854809,-2.5986717383014124,-1.043500618343689,-1.751410722732544,-1.7534223995604457,1.4922043085098267,0.5781806111335754
1778146163905435184,1778146163.9054353,-2.5986676851855677,-1.043443040256836,-1.7513947486877441,-1.7534710369505824,1.4921799898147583,0.5781319737434387
1778146163925342488,1778146163.9253426,-2.598680082951681,-1.0435201686671753,-1.7514147758483887,-1.753446718255514,1.4922370910644531,0.5781314373016357
1778146163945313223,1778146163.9453135,-2.5987117926227015,-1.043475942020752,-1.751430869102478,-1.753446718255514,1.4921722412109375,0.5781724452972412
1778146163965575784,1778146163.9655757,-2.598692242299215,-1.043475942020752,-1.7513988018035889,-1.7534548244872035,1.4922244548797607,0.578143835067749
1778146163988427185,1778146163.9884274,-2.598692003880636,-1.043475942020752,-1.7514029741287231,-1.753434797326559,1.4921801090240479,0.5781683325767517
1778146164005369163,1778146164.0053692,-2.598680082951681,-1.043488697414734,-1.7514071464538574,-1.753434797326559,1.4921801090240479,0.5781723856925964
1778146164025346391,1778146164.0253465,-2.5986717383014124,-1.0434717696956177,-1.7514066696166992,-1.7534591160216273,1.4921640157699585,0.5781356692314148
1778146164045540618,1778146164.0455408,-2.5986884276019495,-1.0434312981418152,-1.751410722732544,-1.7534829578795375,1.4922080039978027,0.5780917406082153
1778146164065369195,1778146164.0653691,-2.5986760298358362,-1.0434675377658387,-1.7513947486877441,-1.7534548244872035,1.4921960830688477,0.5781356692314148
1778146164085403435,1778146164.0854034,-2.598692242299215,-1.043487862949707,-1.751430869102478,-1.7534262142577113,1.4921722412109375,0.5781680941581726
1778146164105662777,1778146164.1056628,-2.5986717383014124,-1.0434802931598206,-1.7513988018035889,-1.7534381351866664,1.4921722412109375,0.5781764984130859
1778146164125377467,1778146164.1253777,-2.598664108906881,-1.0435200494578858,-1.751430869102478,-1.7534381351866664,1.4921401739120483,0.5781238079071045
1778146164145433763,1778146164.145434,-2.5987125078784388,-1.0434591931155701,-1.751439094543457,-1.7534023723998011,1.4921841621398926,0.5781806111335754
1778146164165373857,1778146164.165374,-2.59869629541506,-1.0434717696956177,-1.75141441822052,-1.7534381351866664,1.4922083616256714,0.5781517028808594
1778146164185429748,1778146164.1854298,-2.5986879507647913,-1.0434920352748414,-1.751410722732544,-1.7534142933287562,1.4922043085098267,0.5781356692314148
1778146164205338560,1778146164.2053387,-2.5987330118762415,-1.0434635442546387,-1.7513905763626099,-1.753446718255514,1.4921722412109375,0.5781438946723938
1778146164225471335,1778146164.2254713,-2.5986879507647913,-1.0435201090625306,-1.751451015472412,-1.7533980808653773,1.4921762943267822,0.5781314373016357
1778146164245367929,1778146164.245368,-2.5986796061145228,-1.0434964460185547,-1.7513623237609863,-1.753486772576803,1.4922410249710083,0.5781118869781494
1778146164265409288,1778146164.2654095,-2.598630730305807,-1.0434802931598206,-1.751410722732544,-1.7534705601134242,1.4921681880950928,0.5781278610229492
1778146164285375204,1778146164.2853754,-2.598724428807394,-1.0435047906688233,-1.7513947486877441,-1.753446718255514,1.4921762943267822,0.5781397819519043
1778146164306131252,1778146164.3061314,-2.59870416322817,-1.0434794586947937,-1.7513947486877441,-1.7534223995604457,1.4921882152557373,0.5781397819519043
1778146164325434005,1778146164.3254342,-2.5986598173724573,-1.0434794586947937,-1.751418948173523,-1.7534061870970667,1.4921520948410034,0.5781319737434387
1778146164345387467,1778146164.3453877,-2.5987117926227015,-1.0434802931598206,-1.751439094543457,-1.7534505329527796,1.4921681880950928,0.5780994296073914
1778146164365339071,1778146164.3653393,-2.5986879507647913,-1.0435167712024231,-1.7514231204986572,-1.7533937893309535,1.4921401739120483,0.5781558156013489
1778146164385485003,1778146164.3854852,-2.5986717383014124,-1.0434635442546387,-1.7513624429702759,-1.7534381351866664,1.4921680688858032,0.5781159996986389
1778146164406506156,1778146164.4065063,-2.5986955801593226,-1.0434802931598206,-1.7513866424560547,-1.7534705601134242,1.4921722412109375,0.5781639814376831
1778146164425394057,1778146164.4253943,-2.598696533833639,-1.043487862949707,-1.751430869102478,-1.7534223995604457,1.4921153783798218,0.578152060508728
1778146164445929049,1778146164.445929,-2.598708454762594,-1.0434718889049073,-1.7513824701309204,-1.753462930718893,1.4921727180480957,0.5781238079071045
1778146164465321066,1778146164.465321,-2.5986998716937464,-1.0434802931598206,-1.7514550685882568,-1.753446718255514,1.4921722412109375,0.5781397819519043
1778146164485528792,1778146164.485529,-2.59868032137026,-1.0434802931598206,-1.7513947486877441,-1.7534591160216273,1.4922285079956055,0.5781314373016357
1778146164507498342,1778146164.5074983,-2.5986838976489466,-1.0434920352748414,-1.7513866424560547,-1.7534343204894007,1.4921234846115112,0.5781278610229492
1778146164525449364,1778146164.5254495,-2.5986600557910364,-1.043467716579773,-1.7513664960861206,-1.7534548244872035,1.4921681880950928,0.5781438946723938
1778146164545789073,1778146164.5457892,-2.5986676851855677,-1.0434635442546387,-1.7514266967773438,-1.753462930718893,1.4921923875808716,0.5781764984130859
1778146164568705347,1778146164.5687053,-2.5986395517932337,-1.0434802931598206,-1.7513947486877441,-1.7534953556456507,1.4921640157699585,0.5781077742576599
1778146164585380417,1778146164.5853806,-2.598708216344015,-1.043487862949707,-1.7514147758483887,-1.753401895562643,1.4922162294387817,0.5781273245811462
1778146164605337140,1778146164.6053371,-2.5986719767199915,-1.0435081881335755,-1.7513784170150757,-1.7534223995604457,1.4921841621398926,0.578131377696991
1778146164625382118,1778146164.6253822,-2.59873611131777,-1.043454961185791,-1.7513988018035889,-1.7534548244872035,1.4922007322311401,0.5781724452972412
1778146164645410661,1778146164.6454108,-2.5986760298358362,-1.043475942020752,-1.75141441822052,-1.7535153828062953,1.4921841621398926,0.578119695186615
1778146164665339210,1778146164.6653392,-2.598663632069723,-1.0434591931155701,-1.7513784170150757,-1.7534829578795375,1.4921237230300903,0.5781159996986389
1778146164685466462,1778146164.6854665,-2.598680082951681,-1.0434591931155701,-1.7513582706451416,-1.7534343204894007,1.4921923875808716,0.578119695186615
1778146164705521694,1778146164.7055218,-2.59872013727297,-1.043504850273468,-1.751410722732544,-1.7534223995604457,1.4921603202819824,0.5781397819519043
1778146164725323900,1778146164.725324,-2.5986879507647913,-1.0434635442546387,-1.7513905763626099,-1.7534262142577113,1.492180347442627,0.5781238079071045
1778146164745383595,1778146164.7453837,-2.5987442175494593,-1.0434389275363465,-1.7513542175292969,-1.753446718255514,1.4921804666519165,0.5781037211418152
1778146164765335698,1778146164.765336,-2.5986796061145228,-1.0434803527644654,-1.7513946294784546,-1.753462930718893,1.492208480834961,0.5781517028808594
1778146164785426432,1778146164.7854266,-2.5986760298358362,-1.0435005587390442,-1.7513988018035889,-1.7534424267210902,1.4921599626541138,0.5781397819519043
1778146164805364825,1778146164.8053648,-2.598623577748434,-1.0434964460185547,-1.7513824701309204,-1.753502985040182,1.4921681880950928,0.5781438946723938
1778146164825394797,1778146164.8253949,-2.5986879507647913,-1.0434802931598206,-1.7513823509216309,-1.753470083276266,1.4921236038208008,0.5781278610229492
1778146164845623408,1778146164.8456235,-2.598651711140768,-1.043467716579773,-1.7513784170150757,-1.753430505792135,1.4922080039978027,0.5781397819519043
1778146164865691026,1778146164.8656912,-2.598692003880636,-1.0434802931598206,-1.7513988018035889,-1.7534223995604457,1.4921841621398926,0.5781925320625305
1778146164885362628,1778146164.8853629,-2.5986879507647913,-1.0434675377658387,-1.7513947486877441,-1.7534424267210902,1.4921846389770508,0.5781517028808594
1778146164905388854,1778146164.9053888,-2.5986958185779017,-1.0434802931598206,-1.7513742446899414,-1.753434797326559,1.4921320676803589,0.5781278610229492
1778146164925455848,1778146164.925456,-2.5986838976489466,-1.0434550207904358,-1.7514070272445679,-1.7534424267210902,1.4922244548797607,0.5781356692314148
1778146164945341535,1778146164.9453416,-2.598680082951681,-1.0434591931155701,-1.7514029741287231,-1.753453870812887,1.492220401763916,0.5781517028808594
1778146164967893957,1778146164.967894,-2.59878117242922,-1.043475942020752,-1.7513947486877441,-1.7534505329527796,1.4921841621398926,0.578083336353302
1778146164985502906,1778146164.9855032,-2.5986760298358362,-1.0434761208346863,-1.7513988018035889,-1.7534381351866664,1.4921960830688477,0.5780918002128601
1778146165005315314,1778146165.0053155,-2.5986796061145228,-1.0434920352748414,-1.7514147758483887,-1.753486772576803,1.4921562671661377,0.5781806111335754
1778146165025436321,1778146165.0254366,-2.5986676851855677,-1.0434802931598206,-1.7513784170150757,-1.7534743748106898,1.4921640157699585,0.5781724452972412
1778146165045401630,1778146165.0454018,-2.59869629541506,-1.043475942020752,-1.7514029741287231,-1.7534343204894007,1.4921112060546875,0.5781517028808594
1778146165065348437,1778146165.0653484,-2.5986760298358362,-1.04343135774646,-1.751442790031433,-1.7534343204894007,1.4922243356704712,0.5781517624855042
1778146165085479458,1778146165.0854795,-2.598684374486105,-1.0434802931598206,-1.7513988018035889,-1.7534223995604457,1.4921640157699585,0.5781681537628174
1778146165106299032,1778146165.1062992,-2.598692003880636,-1.0435286921313782,-1.751374363899231,-1.7534591160216273,1.4921520948410034,0.5781641006469727
1778146165125518396,1778146165.1255186,-2.598647658024923,-1.043483631019928,-1.7513988018035889,-1.7534223995604457,1.4921194314956665,0.5781397819519043
1778146165150256540,1778146165.1502566,-2.598703924809591,-1.0434635442546387,-1.751402497291565,-1.7534381351866664,1.492168664932251,0.5781237483024597
1778146165165402418,1778146165.1654024,-2.5986960569964808,-1.0434591931155701,-1.751390814781189,-1.7534104786314906,1.4922162294387817,0.5781724452972412
1778146165185344632,1778146165.1853447,-2.5986395517932337,-1.0434802931598206,-1.751439094543457,-1.7534548244872035,1.4922162294387817,0.578119695186615
1778146165205389519,1778146165.2053897,-2.5986717383014124,-1.04349638641391,-1.751410722732544,-1.7534424267210902,1.4921764135360718,0.5781765580177307
1778146165225448362,1778146165.2254486,-2.598680082951681,-1.0434920352748414,-1.7513988018035889,-1.753430505792135,1.4921762943267822,0.5781319737434387
1778146165245314995,1778146165.245315,-2.5986719767199915,-1.0434635442546387,-1.751418948173523,-1.7534786663451136,1.4921722412109375,0.5780917406082153
1778146165265353568,1778146165.2653537,-2.598703924809591,-1.04352422178302,-1.751410722732544,-1.7534672222533167,1.4921640157699585,0.578172504901886
1778146165285352273,1778146165.2853522,-2.598692003880636,-1.0435328644565125,-1.7514066696166992,-1.7534986935057582,1.4921882152557373,0.5781398415565491
1778146165305541323,1778146165.3055415,-2.5986879507647913,-1.0434717696956177,-1.7513784170150757,-1.7534262142577113,1.4922043085098267,0.5781154036521912
1778146165325455158,1778146165.3254552,-2.5987122694598597,-1.0434474510005494,-1.7513784170150757,-1.753434797326559,1.4921562671661377,0.5780633091926575
1778146165345373607,1778146165.3453739,-2.5986600557910364,-1.043487862949707,-1.7513824701309204,-1.7534181080260218,1.4921681880950928,0.5781119465827942
1778146165365402014,1778146165.3654022,-2.5986998716937464,-1.0434920352748414,-1.751430869102478,-1.7534061870970667,1.4921882152557373,0.5781077742576599
1778146165385411066,1778146165.3854113,-2.59869629541506,-1.0434964460185547,-1.751410722732544,-1.7534548244872035,1.4921841621398926,0.578119695186615
1778146165405496437,1778146165.4054964,-2.598635498677389,-1.043454961185791,-1.751418948173523,-1.7534381351866664,1.4921964406967163,0.5781159996986389
1778146165430838380,1778146165.4308383,-2.5986879507647913,-1.0434270066073914,-1.7513905763626099,-1.753486772576803,1.492140293121338,0.5781598687171936
1778146165445388170,1778146165.4453883,-2.5986879507647913,-1.0434591931155701,-1.7513946294784546,-1.7534948788084925,1.4921882152557373,0.578152060508728
1778146165465407501,1778146165.4654076,-2.5986760298358362,-1.0434635442546387,-1.751439094543457,-1.7534705601134242,1.4922369718551636,0.5781843066215515
1778146165485344023,1778146165.4853442,-2.5987444559680384,-1.043475942020752,-1.751430869102478,-1.7534715137877406,1.4921276569366455,0.5781154036521912
1778146165505316971,1778146165.505317,-2.598692003880636,-1.0434794586947937,-1.7513947486877441,-1.7534591160216273,1.4921443462371826,0.5781314373016357
1778146165525590607,1778146165.5255907,-2.59863526025881,-1.0434591931155701,-1.7514147758483887,-1.7534181080260218,1.4921278953552246,0.5781397819519043
1778146165545496284,1778146165.5454965,-2.5986719767199915,-1.043487862949707,-1.7513988018035889,-1.753462930718893,1.4921438694000244,0.5781438946723938
1778146165567876552,1778146165.5678768,-2.5986600557910364,-1.043487862949707,-1.7513623237609863,-1.7534548244872035,1.4922043085098267,0.5781438946723938
1778146165585398673,1778146165.585399,-2.598684374486105,-1.0434591931155701,-1.7513905763626099,-1.753453870812887,1.4921841621398926,0.5781238079071045
1778146165605342445,1778146165.6053426,-2.5986395517932337,-1.0435039562037964,-1.751410722732544,-1.7534505329527796,1.4921562671661377,0.5780876874923706
1778146165625448574,1778146165.6254485,-2.5986276308642786,-1.0434717696956177,-1.7513988018035889,-1.753446718255514,1.4921643733978271,0.5781319737434387
1778146165645447872,1778146165.645448,-2.598684374486105,-1.0434677761844178,-1.7513988018035889,-1.7534505329527796,1.4921722412109375,0.578119695186615
1778146165665403145,1778146165.6654031,-2.598708216344015,-1.0434964460185547,-1.7513706684112549,-1.753462930718893,1.4921882152557373,0.5781356692314148
1778146165685545287,1778146165.6855454,-2.5986998716937464,-1.043475942020752,-1.7513422966003418,-1.7534424267210902,1.4921804666519165,0.5781077742576599
1778146165705358051,1778146165.7053583,-2.5986879507647913,-1.0434388679317017,-1.751451015472412,-1.753430028954977,1.4921841621398926,0.5781397819519043
1778146165725461947,1778146165.7254622,-2.5986760298358362,-1.043475942020752,-1.7513664960861206,-1.7534591160216273,1.4921841621398926,0.5781398415565491
1778146165746249360,1778146165.7462497,-2.598708216344015,-1.0434591931155701,-1.7513706684112549,-1.753486772576803,1.4922043085098267,0.5781237483024597
1778146165765396009,1778146165.765396,-2.5986395517932337,-1.0434591931155701,-1.7514147758483887,-1.7534424267210902,1.4922083616256714,0.5780876874923706
1778146165785373556,1778146165.7853734,-2.5986760298358362,-1.043487862949707,-1.7514066696166992,-1.7534591160216273,1.4922001361846924,0.5781557559967041
1778146165805333455,1778146165.8053336,-2.5986879507647913,-1.043443040256836,-1.7513988018035889,-1.7534662685790003,1.492236852645874,0.5781397819519043
1778146165825429817,1778146165.82543,-2.5986879507647913,-1.0434920948794861,-1.7513664960861206,-1.7534381351866664,1.4922453165054321,0.5781237483024597
1778146165845345139,1778146165.845345,-2.5987122694598597,-1.043488697414734,-1.7514029741287231,-1.7534548244872035,1.4921681880950928,0.5781077742576599
1778146165865368954,1778146165.8653688,-2.5986760298358362,-1.0434466165355225,-1.751410722732544,-1.7534948788084925,1.492119312286377,0.5781078338623047
1778146165885359007,1778146165.8853593,-2.5987160841571253,-1.043454961185791,-1.751439094543457,-1.7534061870970667,1.4921562671661377,0.5781278610229492
1778146165905345070,1778146165.9053452,-2.5986760298358362,-1.0434635442546387,-1.751402497291565,-1.7534548244872035,1.4922001361846924,0.5781357288360596
1778146165925329039,1778146165.9253292,-2.598715845738546,-1.0434591931155701,-1.7514231204986572,-1.7534343204894007,1.4921841621398926,0.5781159996986389
1778146165945441250,1778146165.9454415,-2.598651711140768,-1.0434964460185547,-1.7513784170150757,-1.7534743748106898,1.4921841621398926,0.5781196355819702
1778146165965379981,1778146165.9653802,-2.5986395517932337,-1.0434802931598206,-1.751418948173523,-1.7534381351866664,1.492204189300537,0.5781077146530151
1778146165987327979,1778146165.987328,-2.5987282435046595,-1.0434997838786622,-1.7513947486877441,-1.7534262142577113,1.4921603202819824,0.5781356692314148
1778146166005592701,1778146166.0055926,-2.598692003880636,-1.0434516233256836,-1.7513988018035889,-1.7534142933287562,1.4921681880950928,0.5781639814376831
1778146166025523995,1778146166.0255241,-2.5987003485309046,-1.043454961185791,-1.7513947486877441,-1.753491064111227,1.4921681880950928,0.5781598687171936
1778146166045476977,1778146166.045477,-2.598692003880636,-1.0434312981418152,-1.7513989210128784,-1.7534548244872035,1.4921759366989136,0.5781278610229492
1778146166065357175,1778146166.0653572,-2.5986719767199915,-1.043467716579773,-1.7513742446899414,-1.7534424267210902,1.4921960830688477,0.5781154036521912
1778146166085322839,1778146166.0853229,-2.5986760298358362,-1.043454961185791,-1.7513824701309204,-1.7534743748106898,1.4921841621398926,0.5781438946723938
1778146166105591244,1778146166.1055913,-2.5986838976489466,-1.0435081881335755,-1.751358151435852,-1.7534705601134242,1.492152214050293,0.5780715942382812
1778146166130174103,1778146166.1301744,-2.598668162022726,-1.0434591931155701,-1.7513784170150757,-1.753430028954977,1.4922001361846924,0.5781599283218384
1778146166145378321,1778146166.1453784,-2.5986719767199915,-1.0434802931598206,-1.7514147758483887,-1.7534505329527796,1.4921717643737793,0.5781639814376831
1778146166165321981,1778146166.165322,-2.59872013727297,-1.0434591931155701,-1.751422643661499,-1.7534343204894007,1.4922202825546265,0.578143835067749
1778146166185332864,1778146166.1853328,-2.5986760298358362,-1.0434550207904358,-1.7513587474822998,-1.7534104786314906,1.4921799898147583,0.5781438946723938
1778146166205375338,1778146166.2053754,-2.5986600557910364,-1.043475942020752,-1.751451015472412,-1.7534223995604457,1.4922243356704712,0.5781036615371704
1778146166225392298,1778146166.2253926,-2.5986600557910364,-1.043512539272644,-1.7513866424560547,-1.7534662685790003,1.4921722412109375,0.5781238079071045
1778146166245428465,1778146166.2454286,-2.5986836592303675,-1.0434802931598206,-1.7513701915740967,-1.7534343204894007,1.4921681880950928,0.5781598687171936
1778146166265487516,1778146166.2654877,-2.5986879507647913,-1.0435039562037964,-1.7513988018035889,-1.7534424267210902,1.4921599626541138,0.5781077742576599
1778146166285435537,1778146166.2854357,-2.59868032137026,-1.0435209435275574,-1.7514268159866333,-1.753462930718893,1.4921278953552246,0.5781356692314148
1778146166305277983,1778146166.305278,-2.59869629541506,-1.0434717696956177,-1.7514266967773438,-1.7534505329527796,1.4921841621398926,0.5781397819519043
1778146166325465474,1778146166.3254657,-2.598680082951681,-1.0435081881335755,-1.7514468431472778,-1.753491064111227,1.4921919107437134,0.5781237483024597
1778146166345475730,1778146166.345476,-2.598708216344015,-1.0434920352748414,-1.7513623237609863,-1.7534343204894007,1.4921561479568481,0.5781241655349731
1778146166365387154,1778146166.3653874,-2.59872013727297,-1.0434635442546387,-1.7513947486877441,-1.7534619770445765,1.4921640157699585,0.5781598687171936
1778146166385460999,1778146166.385461,-2.5986760298358362,-1.0434802931598206,-1.7513824701309204,-1.7534786663451136,1.4921643733978271,0.5781319737434387
1778146166405249916,1778146166.4052498,-2.59869629541506,-1.0434964460185547,-1.7514147758483887,-1.753413816491598,1.4921640157699585,0.578119695186615
1778146166425592227,1778146166.4255924,-2.5986879507647913,-1.0434802931598206,-1.751410722732544,-1.753462930718893,1.4921882152557373,0.5781438946723938
1778146166445318068,1778146166.4453182,-2.598647658024923,-1.0434802931598206,-1.7514070272445679,-1.753491064111227,1.4921882152557373,0.5781356692314148
1778146166465435968,1778146166.465436,-2.5986836592303675,-1.0434507888606568,-1.7514147758483887,-1.7534424267210902,1.492192029953003,0.578131914138794
1778146166485414037,1778146166.4854143,-2.5986514727221888,-1.0434474510005494,-1.751418948173523,-1.7534591160216273,1.4921923875808716,0.5781397819519043
1778146166505337612,1778146166.5053377,-2.598647181187765,-1.043454961185791,-1.751410722732544,-1.7534262142577113,1.4921520948410034,0.5781438946723938
1778146166525349205,1778146166.5253491,-2.5987287203418177,-1.0434920352748414,-1.7514266967773438,-1.7534343204894007,1.492204189300537,0.5781118273735046
1778146166545293436,1778146166.5452933,-2.598664108906881,-1.0434635442546387,-1.751430869102478,-1.753462930718893,1.4921483993530273,0.5781680941581726
1778146166565568868,1778146166.565569,-2.598691527043478,-1.043454961185791,-1.7513947486877441,-1.7534619770445765,1.4921765327453613,0.5781517028808594
1778146166585327025,1778146166.5853271,-2.59872013727297,-1.0435201090625306,-1.7514190673828125,-1.753413816491598,1.4921679496765137,0.5781558156013489
