aqumoz/WireEKF/data_Viktor/ctrl_mads_lauge_anders_20260507_115252/robot_b_q.csv
time_ns,time_s,q0,q1,q2,q3,q4,q5
1778147582657467723,1778147582.6574678,-2.4445999304400843,-1.151562677030899,-1.8502452373504639,-1.0575025242618104,1.1191619634628296,0.5761106610298157
1778147582659479114,1778147582.6594791,-2.444563690816061,-1.1515711110881348,-1.8502414226531982,-1.0574822586825867,1.1191132068634033,0.5760903358459473
1778147582679601593,1778147582.6796017,-2.444599453602926,-1.1515711110881348,-1.8502776622772217,-1.0574544829181214,1.1191495656967163,0.5760618448257446
1778147582699537054,1778147582.6995373,-2.4446240107165735,-1.1515995425036927,-1.850237250328064,-1.0575152200511475,1.1191893815994263,0.5760701894760132
1778147582719634771,1778147582.7196348,-2.4446962515460413,-1.1516359013370057,-1.8502494096755981,-1.0574184221080323,1.1191935539245605,0.5759940147399902
1778147582739533304,1778147582.7395334,-2.4446919600116175,-1.1516073507121583,-1.8502253293991089,-1.0574149054339905,1.1191811561584473,0.5759897232055664
1778147582759536186,1778147582.7595363,-2.4446798006640833,-1.1516275268844147,-1.8501613140106201,-1.0573470753482361,1.1192009449005127,0.5759138464927673
1778147582779534146,1778147582.779534,-2.4446798006640833,-1.1516352754882355,-1.850112795829773,-1.0574271839908143,1.1191610097885132,0.5759903788566589
1778147582799529778,1778147582.7995298,-2.444716278706686,-1.1516555112651368,-1.8500773906707764,-1.0573832553676148,1.1192336082458496,0.5759619474411011
1778147582819606600,1778147582.8196065,-2.444728676472799,-1.1516674619964142,-1.8500699996948242,-1.0573992294124146,1.119197130203247,0.5759422183036804
1778147582839537354,1778147582.8395376,-2.44474441209902,-1.1516388815692444,-1.849989652633667,-1.0573791426471253,1.1192573308944702,0.5759660601615906
1778147582859639127,1778147582.8596392,-2.4446755091296595,-1.1516634088805695,-1.850014090538025,-1.0573755663684388,1.1192336082458496,0.5759783983230591
1778147582879536661,1778147582.8795369,-2.4446597735034388,-1.1517238479903718,-1.8499454259872437,-1.0573511880687256,1.1192009449005127,0.5759784579277039
1778147582899529653,1778147582.89953,-2.4447243849383753,-1.1517275136760254,-1.8500217199325562,-1.0573714536479493,1.1192336082458496,0.5759783983230591
1778147582919534190,1778147582.9195342,-2.444700066243307,-1.1517394346049805,-1.850001573562622,-1.0573672217181702,1.1192090511322021,0.5759701728820801
1778147582939534689,1778147582.9395347,-2.4447200934039515,-1.1517073673060914,-1.849981427192688,-1.0573832553676148,1.1191848516464233,0.5759903192520142
1778147582959600590,1778147582.9596007,-2.4446919600116175,-1.1517114800265809,-1.8499774932861328,-1.057407633667328,1.1192049980163574,0.5759660601615906
1778147582979527215,1778147582.9795272,-2.4447408358203333,-1.1517275136760254,-1.8499733209609985,-1.0573227566531678,1.1191563606262207,0.5759701728820801
1778147582999669972,1778147582.99967,-2.4446798006640833,-1.151731626396515,-1.8499858379364014,-1.0573714536479493,1.1192418336868286,0.5759463906288147
1778147583019595285,1778147583.0195954,-2.4446678797351282,-1.151739851837494,-1.8499650955200195,-1.0573791426471253,1.1192495822906494,0.5759541392326355
1778147583039550467,1778147583.0395505,-2.4447646776782435,-1.1516913336566468,-1.8499572277069092,-1.0573874872973938,1.1192091703414917,0.5759624242782593
1778147583059658962,1778147583.059659,-2.444711987172262,-1.1517357391170044,-1.849989652633667,-1.0573263329318543,1.1192209720611572,0.5759505033493042
1778147583079631641,1778147583.0796318,-2.444696013127462,-1.151691274052002,-1.8499614000320435,-1.0573595327189942,1.1192293167114258,0.575958251953125
1778147583099648825,1778147583.099649,-2.444683615361349,-1.1517192882350464,-1.849981665611267,-1.0573672217181702,1.1192336082458496,0.5759541392326355
1778147583119632055,1778147583.1196322,-2.4447527567492884,-1.151731626396515,-1.8500099182128906,-1.0573554796031495,1.1192293167114258,0.5759422183036804
1778147583139657564,1778147583.1396575,-2.4446635882007044,-1.151763693695404,-1.849953055381775,-1.0573024910739441,1.1192293167114258,0.5759381055831909
1778147583159635843,1778147583.159636,-2.444655243550436,-1.1517275136760254,-1.8499939441680908,-1.0573511880687256,1.119188904762268,0.5759220719337463
1778147583179678108,1778147583.1796782,-2.444696013127462,-1.1516954463771363,-1.8499774932861328,-1.0573672217181702,1.1191644668579102,0.5759742856025696
1778147583199530451,1778147583.1995306,-2.4446433226214808,-1.1517595213702698,-1.8499733209609985,-1.0573470753482361,1.1191805601119995,0.5759820938110352
1778147583219526015,1778147583.219526,-2.4447487036334437,-1.1517721575549622,-1.8500057458877563,-1.0573227566531678,1.1192293167114258,0.5759381055831909
1778147583239527668,1778147583.2395277,-2.444696013127462,-1.1517037016204377,-1.8499531745910645,-1.0573672217181702,1.1192126274108887,0.575950026512146
1778147583259526743,1778147583.2595267,-2.44472843805422,-1.1517394346049805,-1.8499411344528198,-1.0573429030231019,1.1192049980163574,0.5759344100952148
1778147583279558986,1778147583.2795591,-2.4447043577777308,-1.1517073673060914,-1.8499691486358643,-1.0573304456523438,1.1191966533660889,0.5759303569793701
1778147583299535658,1778147583.2995358,-2.444695297871725,-1.151715562944748,-1.849989652633667,-1.0573714536479493,1.1192293167114258,0.5759463906288147
1778147583319539538,1778147583.3195395,-2.4446755091296595,-1.151735709314682,-1.8500134944915771,-1.0573344987681885,1.1192376613616943,0.5759903192520142
1778147583339532981,1778147583.339533,-2.444700304661886,-1.1517115098289032,-1.849989652633667,-1.0573554199985047,1.1192336082458496,0.5759587287902832
1778147583359539999,1778147583.35954,-2.444696013127462,-1.1517073971084137,-1.8500099182128906,-1.05738319576297,1.1192251443862915,0.5759783983230591
1778147583379535120,1778147583.3795352,-2.4447456041919153,-1.1517275136760254,-1.8500056266784668,-1.0573951762965699,1.1192209720611572,0.5759660601615906
1778147583399531043,1778147583.3995311,-2.444712225590841,-1.15174354732547,-1.8499691486358643,-1.0573144120028992,1.1191805601119995,0.5759381055831909
1778147583419539196,1778147583.4195392,-2.444728676472799,-1.151731626396515,-1.850014090538025,-1.0573631089976807,1.1192209720611572,0.5759422183036804
1778147583439534560,1778147583.4395347,-2.4447036425219935,-1.1517518025687714,-1.84996497631073,-1.057351068859436,1.1192126274108887,0.5759221315383911
1778147583459532892,1778147583.459533,-2.444683853779928,-1.1517517429641266,-1.849961519241333,-1.0573344987681885,1.1192210912704468,0.5759261846542358
1778147583479535892,1778147583.479536,-2.4446917215930384,-1.1517677468112488,-1.8499733209609985,-1.0573185247233887,1.1192376613616943,0.5758983492851257
1778147583499529858,1778147583.49953,-2.444700304661886,-1.151731089954712,-1.849989652633667,-1.0573631089976807,1.1192169189453125,0.5759221315383911
1778147583519532851,1778147583.519533,-2.4447243849383753,-1.1517275136760254,-1.8499979972839355,-1.0572942656329651,1.119208574295044,0.5759623646736145
1778147583539528458,1778147583.5395286,-2.444712225590841,-1.1517155927470704,-1.8499979972839355,-1.0573791426471253,1.1192251443862915,0.5759261846542358
1778147583559531140,1778147583.5595315,-2.4446709791766565,-1.1517192882350464,-1.849961519241333,-1.0573589962771912,1.1192495822906494,0.5759623050689697
1778147583579535044,1778147583.5795352,-2.444679562245504,-1.1517476302436371,-1.8499938249588013,-1.0573714536479493,1.1191688776016235,0.5759664177894592
1778147583599522882,1778147583.5995228,-2.4446917215930384,-1.1516913634589692,-1.849989652633667,-1.0573511880687256,1.1191729307174683,0.5759302973747253
1778147583619561850,1778147583.619562,-2.4446993509875696,-1.151707337503769,-1.8499733209609985,-1.0573957127383729,1.119208574295044,0.5759902596473694
1778147583639528544,1778147583.6395285,-2.444728676472799,-1.1517476600459595,-1.8500341176986694,-1.0573957127383729,1.1192336082458496,0.575958251953125
1778147583659535849,1778147583.659536,-2.444712225590841,-1.1516954761794587,-1.8499938249588013,-1.0573304456523438,1.1191527843475342,0.5759862065315247
1778147583679555146,1778147583.6795552,-2.4447160402881067,-1.1516995590976258,-1.8499938249588013,-1.0573470753482361,1.1192126274108887,0.5759541392326355
1778147583699572010,1778147583.699572,-2.4446476141559046,-1.1517275136760254,-1.8500295877456665,-1.0573672217181702,1.1192333698272705,0.5759541392326355
1778147583719524045,1778147583.7195241,-2.4447043577777308,-1.1517481964877625,-1.8499566316604614,-1.057338909511902,1.1192009449005127,0.5759024620056152
1778147583739530297,1778147583.7395303,-2.44472843805422,-1.1517114800265809,-1.8500336408615112,-1.0573227566531678,1.1192169189453125,0.5759381055831909
1778147583759489738,1778147583.75949,-2.4446798006640833,-1.1517595511725922,-1.8499572277069092,-1.0573791426471253,1.1192126274108887,0.5759623646736145
1778147583779531797,1778147583.779532,-2.4446798006640833,-1.1517155927470704,-1.8499287366867065,-1.0573790830424805,1.1192126274108887,0.575966477394104
1778147583799600953,1778147583.799601,-2.444700066243307,-1.15174354732547,-1.84996497631073,-1.057350830440857,1.1192573308944702,0.5759381055831909
1778147583819535889,1778147583.819536,-2.4446635882007044,-1.1517156225493927,-1.849981427192688,-1.0573713940433045,1.1192126274108887,0.575958251953125
1778147583839637936,1778147583.8396382,-2.44472843805422,-1.1517636638930817,-1.850014090538025,-1.0573511880687256,1.1192126274108887,0.5759463310241699
1778147583859541618,1778147583.8595417,-2.4446798006640833,-1.151731626396515,-1.8499979972839355,-1.05728234470401,1.1192251443862915,0.5759262442588806
1778147583879531211,1778147583.8795314,-2.4446714560138147,-1.151735709314682,-1.8500176668167114,-1.0573511880687256,1.1192209720611572,0.5759660601615906
1778147583899527813,1778147583.899528,-2.4447200934039515,-1.1517196756652375,-1.849989652633667,-1.0573750299266358,1.1191966533660889,0.5759862065315247
1778147583919532865,1778147583.919533,-2.4447203318225306,-1.1517315965941926,-1.8500217199325562,-1.0573714536479493,1.119249701499939,0.5759381651878357
1778147583939523330,1778147583.9395235,-2.4446876684771937,-1.1517435175231476,-1.8500057458877563,-1.0573511880687256,1.1192737817764282,0.5759701728820801
1778147583959533339,1778147583.9595335,-2.4446995894061487,-1.1517114800265809,-1.8499733209609985,-1.057326392536499,1.1192418336868286,0.575958251953125
1778147583979612885,1778147583.979613,-2.4447324911700647,-1.15174354732547,-1.8499938249588013,-1.0573554796031495,1.119241714477539,0.5759221315383911
1778147583999532934,1778147583.9995332,-2.4446714560138147,-1.1517517429641266,-1.8500460386276245,-1.0573429626277466,1.1192009449005127,0.5759261846542358
1778147584019529974,1778147584.01953,-2.444683853779928,-1.1517114800265809,-1.8500175476074219,-1.0573304456523438,1.1191729307174683,0.5759381055831909
1778147584039537388,1778147584.0395374,-2.4446919600116175,-1.1516995590976258,-1.8499572277069092,-1.0573554796031495,1.119197130203247,0.575958251953125
1778147584059528671,1778147584.0595288,-2.4446476141559046,-1.1517558258822937,-1.8499650955200195,-1.0573470753482361,1.1192209720611572,0.5759984850883484
1778147584079530262,1778147584.0795302,-2.444700066243307,-1.1517036718181153,-1.8499691486358643,-1.0573429030231019,1.1192537546157837,0.5759500861167908
1778147584099544450,1778147584.0995448,-2.4446876684771937,-1.1517275136760254,-1.8500134944915771,-1.0573631089976807,1.1192126274108887,0.5759701728820801
1778147584119609263,1778147584.1196094,-2.4446635882007044,-1.151695416574814,-1.849989652633667,-1.0573470753482361,1.1192251443862915,0.5759261846542358
1778147584139533575,1778147584.1395338,-2.4447079340564173,-1.1517517131618042,-1.8499574661254883,-1.057302550678589,1.1192578077316284,0.5759381651878357
1778147584159524744,1778147584.159525,-2.4447203318225306,-1.1517114800265809,-1.8499774932861328,-1.0573511880687256,1.1192251443862915,0.5759262442588806
1778147584179549733,1778147584.1795497,-2.444683853779928,-1.1517439049533387,-1.849953055381775,-1.0573554199985047,1.1192090511322021,0.5759825110435486
1778147584199527019,1778147584.199527,-2.4447203318225306,-1.1516995590976258,-1.8499772548675537,-1.0573595327189942,1.1191765069961548,0.5759463310241699
1778147584219532109,1778147584.2195323,-2.444716278706686,-1.151679442530014,-1.8500105142593384,-1.057347134952881,1.1192126274108887,0.5759541392326355
1778147584239527356,1778147584.2395275,-2.4446678797351282,-1.1517077845386048,-1.849989652633667,-1.0573790830424805,1.1192452907562256,0.5759541392326355
1778147584259600171,1778147584.2596002,-2.4446638266192835,-1.1517155927470704,-1.8499854803085327,-1.0573796194842835,1.1192418336868286,0.5759381055831909
1778147584279536519,1778147584.2795367,-2.4447324911700647,-1.1517114502242585,-1.8499693870544434,-1.0573511880687256,1.1191966533660889,0.5759541392326355
1778147584299659946,1778147584.2996602,-2.444700066243307,-1.1517435175231476,-1.8499774932861328,-1.0573429626277466,1.1192126274108887,0.5759381651878357
1778147584319535217,1778147584.3195353,-2.4447484652148646,-1.1517394048026581,-1.8499854803085327,-1.057387427692749,1.1191765069961548,0.5759783387184143
1778147584339656813,1778147584.3396568,-2.44472843805422,-1.1517234307578583,-1.8499854803085327,-1.057314471607544,1.1191884279251099,0.5759701728820801
1778147584359606594,1778147584.3596067,-2.4446876684771937,-1.1517476302436371,-1.8499857187271118,-1.05738319576297,1.1191848516464233,0.5759463310241699
1778147584379541770,1778147584.3795419,-2.444711987172262,-1.1517032545856019,-1.850001573562622,-1.0573345583728333,1.1191890239715576,0.5759262442588806
1778147584399600089,1778147584.3996003,-2.4446714560138147,-1.151695505981781,-1.8500217199325562,-1.0573345583728333,1.1192132234573364,0.5759742259979248
1778147584419546277,1778147584.4195464,-2.4447324911700647,-1.1517275136760254,-1.8500258922576904,-1.057326392536499,1.1191527843475342,0.5759422183036804
1778147584439626748,1778147584.439627,-2.4446876684771937,-1.1517077845386048,-1.849993348121643,-1.05738319576297,1.1192009449005127,0.5759623646736145
1778147584459527283,1778147584.4595273,-2.444716278706686,-1.1517193478396912,-1.8499854803085327,-1.0573874872973938,1.119281530380249,0.5759381651878357
1778147584479526623,1778147584.4795268,-2.4447243849383753,-1.1517594915679474,-1.8499490022659302,-1.0574034613421937,1.1192578077316284,0.5759664177894592
1778147584499533894,1778147584.499534,-2.444683615361349,-1.151735709314682,-1.8500176668167114,-1.05738319576297,1.1192336082458496,0.575958251953125
1778147584519528125,1778147584.5195284,-2.4446919600116175,-1.151727483873703,-1.8500217199325562,-1.0573595327189942,1.1191805601119995,0.5759623646736145
1778147584539597156,1778147584.5395973,-2.444660011922018,-1.151695505981781,-1.8499855995178223,-1.0573672217181702,1.1192169189453125,0.5759825110435486
1778147584559532330,1778147584.5595324,-2.4446755091296595,-1.1516634684852143,-1.8500134944915771,-1.0573304456523438,1.1192537546157837,0.5759180784225464
1778147584579613037,1778147584.579613,-2.444711987172262,-1.1517073971084137,-1.849961519241333,-1.0573511880687256,1.1192090511322021,0.5759742856025696
1778147584599540145,1778147584.5995402,-2.4446678797351282,-1.1517197054675599,-1.8500258922576904,-1.0573790830424805,1.1192376613616943,0.5759463310241699
1778147584619529701,1778147584.6195297,-2.4446755091296595,-1.1516835552505036,-1.849989652633667,-1.0573672217181702,1.1192495822906494,0.5759705901145935
1778147584639567148,1778147584.6395671,-2.444695536290304,-1.1517476004413147,-1.8499655723571777,-1.057374970321991,1.1192009449005127,0.5759422183036804
1778147584659590892,1778147584.659591,-2.444700066243307,-1.1517073673060914,-1.8499974012374878,-1.0573511880687256,1.1192452907562256,0.5759742856025696
1778147584679568587,1778147584.6795688,-2.444696013127462,-1.151727483873703,-1.8500176668167114,-1.0573832553676148,1.1192210912704468,0.5760147571563721
1778147584699546128,1778147584.6995463,-2.4447367827044886,-1.151723400955536,-1.8499938249588013,-1.0573429626277466,1.1192452907562256,0.5759381651878357
1778147584719612734,1778147584.7196128,-2.4447084108935755,-1.1517394048026581,-1.8499655723571777,-1.0573429626277466,1.1192376613616943,0.5759862065315247
1778147584739531654,1778147584.739532,-2.444696013127462,-1.151735709314682,-1.8500218391418457,-1.05738319576297,1.1192209720611572,0.5759299993515015
1778147584759590925,1778147584.759591,-2.444631640111105,-1.1517192882350464,-1.8500057458877563,-1.0573511880687256,1.1192418336868286,0.5759862065315247
1778147584779543877,1778147584.7795439,-2.4446755091296595,-1.1517435175231476,-1.8500057458877563,-1.0573511880687256,1.1192452907562256,0.5759820938110352
1778147584799533460,1778147584.7995336,-2.444696013127462,-1.1517394048026581,-1.850014090538025,-1.057347134952881,1.1191890239715576,0.5759903192520142
1778147584819533468,1778147584.8195336,-2.4446798006640833,-1.1517595809749146,-1.8500334024429321,-1.0573511284640809,1.1192697286605835,0.5759783983230591
1778147584839530228,1778147584.8395305,-2.4446678797351282,-1.1517077845386048,-1.849937081336975,-1.0573387903026124,1.1192293167114258,0.5759623646736145
1778147584859605681,1778147584.8596058,-2.4446919600116175,-1.1517155927470704,-1.849973201751709,-1.0573790830424805,1.1191890239715576,0.5759701728820801
1778147584879534509,1778147584.8795347,-2.4446595350848597,-1.1517275434783478,-1.8499938249588013,-1.0573755663684388,1.1191811561584473,0.5759061574935913
1778147584899528433,1778147584.8995285,-2.444700066243307,-1.1517353516868134,-1.8499449491500854,-1.0573430222323914,1.1192537546157837,0.5759422779083252
1778147584919537932,1778147584.919538,-2.4447079340564173,-1.151715562944748,-1.8500099182128906,-1.0573631089976807,1.1192656755447388,0.5759261846542358
1778147584939532065,1778147584.939532,-2.444696013127462,-1.1517516833594819,-1.84996497631073,-1.0573511880687256,1.1192209720611572,0.5759344100952148
1778147584959603888,1778147584.959604,-2.4446714560138147,-1.151731626396515,-1.8499938249588013,-1.0573387903026124,1.1191965341567993,0.5759742856025696
1778147584979533462,1778147584.9795337,-2.444696013127462,-1.1517234307578583,-1.850021481513977,-1.0573304456523438,1.1192452907562256,0.5759500861167908
1778147584999607907,1778147584.9996078,-2.4447203318225306,-1.1517074269107361,-1.8499889373779297,-1.0574311775020142,1.1192126274108887,0.5759742856025696
1778147585019549388,1778147585.0195496,-2.4446876684771937,-1.1517037016204377,-1.8499854803085327,-1.0573874872973938,1.1192212104797363,0.575958251953125
1778147585039531988,1778147585.0395322,-2.444696013127462,-1.1516996187022706,-1.849989652633667,-1.0573755663684388,1.1192495822906494,0.5759779810905457
1778147585059539567,1778147585.0595396,-2.444711748753683,-1.1517155927470704,-1.85002601146698,-1.0573992294124146,1.1191966533660889,0.5759820938110352
1778147585079533814,1778147585.079534,-2.444696013127462,-1.1517073971084137,-1.850001573562622,-1.0573512476733704,1.1192049980163574,0.5759862065315247
1778147585099532769,1778147585.0995328,-2.4446755091296595,-1.1517554384521027,-1.849981665611267,-1.0573910635760804,1.1192209720611572,0.5759544968605042
1778147585119532109,1778147585.119532,-2.444700066243307,-1.1517315965941926,-1.8500099182128906,-1.0573631089976807,1.11917245388031,0.5759742856025696
1778147585139600132,1778147585.1396003,-2.444683615361349,-1.1517197054675599,-1.8499774932861328,-1.0573910039714356,1.119208574295044,0.5759943723678589
1778147585159536858,1778147585.159537,-2.444683853779928,-1.1517517131618042,-1.8499774932861328,-1.0573714536479493,1.1191926002502441,0.5759381651878357
1778147585179532934,1778147585.1795332,-2.444716278706686,-1.151731626396515,-1.8499854803085327,-1.0573345583728333,1.1192210912704468,0.5759701728820801
1778147585199526967,1778147585.199527,-2.4446714560138147,-1.1517115098289032,-1.8499854803085327,-1.0573672217181702,1.1192418336868286,0.5759262442588806
1778147585219542413,1778147585.2195427,-2.4446192423449915,-1.1517193180373688,-1.8500099182128906,-1.0573511880687256,1.1192090511322021,0.575958251953125
1778147585239532019,1778147585.2395322,-2.4446879068957728,-1.1517155927470704,-1.850066900253296,-1.0573832553676148,1.1192009449005127,0.5759459733963013
1778147585259541273,1778147585.2595413,-2.444711987172262,-1.1517156225493927,-1.8500176668167114,-1.0573672217181702,1.1191486120224,0.5759742856025696
1778147585279598712,1778147585.2795987,-2.444679562245504,-1.1517636340907593,-1.8500099182128906,-1.0573222202113648,1.1192251443862915,0.5759702324867249
1778147585299535976,1778147585.299536,-2.4447203318225306,-1.1517234307578583,-1.8500134944915771,-1.0573750299266358,1.119197130203247,0.5759902596473694
1778147585319535499,1778147585.3195357,-2.4447324911700647,-1.1517115098289032,-1.8499733209609985,-1.0573345583728333,1.1192009449005127,0.5759903192520142
1778147585339530131,1778147585.3395305,-2.444679562245504,-1.1517357391170044,-1.8499938249588013,-1.057387427692749,1.119238018989563,0.5760025382041931
1778147585359535550,1778147585.3595357,-2.444700304661886,-1.15170373142276,-1.849989652633667,-1.0573672217181702,1.1192082166671753,0.5759541392326355
1778147585379528321,1778147585.3795285,-2.444683853779928,-1.1516753894141694,-1.849961519241333,-1.0573631089976807,1.119187831878662,0.5759541392326355
1778147585399534021,1778147585.3995342,-2.444683853779928,-1.151723400955536,-1.850014090538025,-1.0573832553676148,1.1192125082015991,0.5759381651878357
1778147585419630171,1778147585.4196303,-2.444716278706686,-1.1517718595317383,-1.849989652633667,-1.0573345583728333,1.1191800832748413,0.5759783983230591
1778147585439534485,1778147585.4395347,-2.444696013127462,-1.151731626396515,-1.8499974012374878,-1.05738319576297,1.1192293167114258,0.5759660601615906
1778147585459530744,1778147585.4595308,-2.4447367827044886,-1.1517197054675599,-1.8499772548675537,-1.0573548835567017,1.1192039251327515,0.5759986042976379
1778147585479533430,1778147585.4795334,-2.444679562245504,-1.1517717999270936,-1.85002601146698,-1.0573589962771912,1.1191684007644653,0.5759381055831909
1778147585499528828,1778147585.499529,-2.4446876684771937,-1.1517234307578583,-1.8500057458877563,-1.0573345583728333,1.1192251443862915,0.5759665369987488
1778147585519532611,1778147585.5195327,-2.4447205702411097,-1.1517315965941926,-1.8499854803085327,-1.0573304456523438,1.1191726922988892,0.5759381055831909
1778147585539524779,1778147585.539525,-2.4446917215930384,-1.1517554086497803,-1.8499854803085327,-1.0573024910739441,1.1191726922988892,0.5759381055831909
1778147585559618027,1778147585.5596182,-2.4446516672717493,-1.1517115098289032,-1.8499572277069092,-1.0573345583728333,1.1192660331726074,0.5760021805763245
1778147585579534361,1778147585.5795345,-2.444712225590841,-1.1517476004413147,-1.8499854803085327,-1.0573185247233887,1.1191802024841309,0.5759339928627014
1778147585599534001,1778147585.5995343,-2.4447363058673304,-1.1517677170089264,-1.8500295877456665,-1.0573345583728333,1.1192125082015991,0.5759820938110352
1778147585619524001,1778147585.6195242,-2.4446592966662806,-1.151691423063614,-1.849989652633667,-1.0573554796031495,1.1192253828048706,0.575950026512146
1778147585639531937,1778147585.639532,-2.444712225590841,-1.1517315965941926,-1.8500134944915771,-1.0573061865619202,1.1191726922988892,0.5759381055831909
1778147585659541242,1778147585.6595414,-2.4447043577777308,-1.151751772766449,-1.8499854803085327,-1.0573470753482361,1.1191726922988892,0.5759701728820801
1778147585679526483,1778147585.6795266,-2.4447243849383753,-1.1517114800265809,-1.8500258922576904,-1.0573020738414307,1.1192049980163574,0.5759541392326355
1778147585699599553,1778147585.6995997,-2.4446917215930384,-1.1517073971084137,-1.84996497631073,-1.0573595327189942,1.1192251443862915,0.5759903192520142
1778147585719537680,1778147585.7195377,-2.4446633497821253,-1.1517155927470704,-1.849981427192688,-1.05738319576297,1.1191641092300415,0.5759019255638123
1778147585739540333,1778147585.7395403,-2.444728676472799,-1.1516995590976258,-1.8499733209609985,-1.0573874872973938,1.1192169189453125,0.5759783983230591
1778147585759534419,1778147585.7595344,-2.444712225590841,-1.1517275136760254,-1.8499609231948853,-1.0573430222323914,1.1191802024841309,0.5759701728820801
1778147585779534897,1778147585.779535,-2.4447158018695276,-1.1517434579185029,-1.850029468536377,-1.0573387903026124,1.1192584037780762,0.5759220719337463
1778147585799525491,1778147585.7995255,-2.4446874300586146,-1.1516996783069153,-1.85002601146698,-1.0573631089976807,1.1191718578338623,0.5760104656219482
1778147585819531479,1778147585.8195317,-2.4446874300586146,-1.1517315667918702,-1.8499975204467773,-1.0573430222323914,1.1192049980163574,0.5759865641593933
1778147585839600204,1778147585.8396003,-2.444728676472799,-1.1517357391170044,-1.8499691486358643,-1.0573387903026124,1.1192659139633179,0.5759463310241699
1778147585859538287,1778147585.8595383,-2.444700304661886,-1.1517802339843293,-1.8499650955200195,-1.0573548835567017,1.1191718578338623,0.5759340524673462
1778147585879672620,1778147585.8796728,-2.4446917215930384,-1.151691423063614,-1.8500378131866455,-1.0573671621135254,1.1191565990447998,0.5760063529014587
1778147585899546430,1778147585.8995464,-2.4447243849383753,-1.1517238181880494,-1.8500176668167114,-1.0573708576015015,1.1192337274551392,0.5759302973747253
1778147585919530936,1778147585.919531,-2.4447079340564173,-1.1517594915679474,-1.8500057458877563,-1.057374970321991,1.1192337274551392,0.5759340524673462
1778147585939531573,1778147585.9395316,-2.4447415510760706,-1.1517155927470704,-1.8500134944915771,-1.0573185843280335,1.119176983833313,0.5759665369987488
1778147585959533516,1778147585.9595337,-2.444660011922018,-1.1517275136760254,-1.850001573562622,-1.0573549431613465,1.1192049980163574,0.5759422183036804
1778147585979597803,1778147585.979598,-2.444696013127462,-1.1517476004413147,-1.8499774932861328,-1.057359055881836,1.1192049980163574,0.5759623646736145
1778147585999536592,1778147585.9995368,-2.4447324911700647,-1.1517033141902466,-1.849953055381775,-1.057347134952881,1.1192420721054077,0.5759302973747253
1778147586019614519,1778147586.0196145,-2.4446876684771937,-1.151723400955536,-1.8499979972839355,-1.0573874872973938,1.1192541122436523,0.5759541392326355
1778147586039539361,1778147586.0395396,-2.444683853779928,-1.151735321884491,-1.8499691486358643,-1.0573910039714356,1.1191803216934204,0.5759903192520142
1778147586059533295,1778147586.0595334,-2.444700066243307,-1.1516793829253693,-1.8500503301620483,-1.0573304456523438,1.1192210912704468,0.5759701728820801
1778147586079534028,1778147586.0795343,-2.444696013127462,-1.151695505981781,-1.850014090538025,-1.057302550678589,1.1192293167114258,0.5759660601615906
1778147586099544613,1778147586.0995448,-2.444700066243307,-1.1516633492759247,-1.8500057458877563,-1.0573554199985047,1.1192125082015991,0.5759862065315247
1778147586119597595,1778147586.1195977,-2.4446755091296595,-1.151695505981781,-1.8499691486358643,-1.0573345583728333,1.1192210912704468,0.5759943723678589
1778147586139531413,1778147586.1395316,-2.444667164479391,-1.1517196756652375,-1.849981427192688,-1.0573709172061463,1.1192091703414917,0.5759381055831909
1778147586159537041,1778147586.1595373,-2.4446635882007044,-1.1517315965941926,-1.8499733209609985,-1.0573222798160096,1.1192091703414917,0.5759943723678589
1778147586179530085,1778147586.1795301,-2.444716278706686,-1.1516954761794587,-1.850005030632019,-1.0573750299266358,1.1192378997802734,0.5759984850883484
1778147586199529995,1778147586.1995301,-2.444711987172262,-1.1517394346049805,-1.8500134944915771,-1.0573992294124146,1.1192665100097656,0.5759422183036804
1778147586219527933,1778147586.219528,-2.444724146519796,-1.1517275136760254,-1.8500134944915771,-1.0573304456523438,1.119249701499939,0.5759299397468567
1778147586239530551,1778147586.2395306,-2.444716278706686,-1.1517155927470704,-1.8500134944915771,-1.0573790830424805,1.11918044090271,0.5759381651878357
1778147586259497745,1778147586.259498,-2.4446714560138147,-1.1517036718181153,-1.8500099182128906,-1.0573791426471253,1.1192377805709839,0.5759820938110352
1778147586279543465,1778147586.2795436,-2.44474441209902,-1.1517073971084137,-1.8500174283981323,-1.0573750299266358,1.1192001104354858,0.5759340524673462
1778147586299532098,1778147586.2995322,-2.4447408358203333,-1.1517115396312256,-1.8500093221664429,-1.057395116691925,1.1192699670791626,0.5759463310241699
1778147586319526485,1778147586.3195264,-2.444700066243307,-1.1516955357841034,-1.849993348121643,-1.0573589962771912,1.1192049980163574,0.5759820938110352
1778147586339488097,1778147586.339488,-2.4447484652148646,-1.1517155927470704,-1.8499854803085327,-1.0573103588870545,1.1192049980163574,0.5759742856025696
1778147586359646671,1778147586.3596468,-2.4447243849383753,-1.1517155927470704,-1.849981427192688,-1.0573470753482361,1.1192210912704468,0.5759459733963013
1778147586379589737,1778147586.3795898,-2.444700066243307,-1.1516913634589692,-1.8500378131866455,-1.0573750299266358,1.119282603263855,0.5759504437446594
1778147586399533460,1778147586.3995337,-2.4447084108935755,-1.1516996187022706,-1.8499454259872437,-1.0573470753482361,1.119225263595581,0.5759623050689697
1778147586419585262,1778147586.4195855,-2.4447203318225306,-1.1517155927470704,-1.8500503301620483,-1.0573714536479493,1.1192126274108887,0.5759660601615906
1778147586439594776,1778147586.4395947,-2.4446519056903284,-1.151719258432724,-1.8500021696090698,-1.0573869508555909,1.1192008256912231,0.5759340524673462
1778147586459584750,1778147586.459585,-2.4446798006640833,-1.151719258432724,-1.84996497631073,-1.0574035209468384,1.1192377805709839,0.5759902596473694
1778147586479577366,1778147586.4795775,-2.444683853779928,-1.1517234307578583,-1.8500134944915771,-1.0573470753482361,1.119192361831665,0.5759742259979248
1778147586499586066,1778147586.499586,-2.444696013127462,-1.1517476600459595,-1.8499774932861328,-1.057395116691925,1.1192042827606201,0.5759742856025696
1778147586519586930,1778147586.519587,-2.4446595350848597,-1.1517234307578583,-1.8499733209609985,-1.057387427692749,1.1192126274108887,0.5759701728820801
1778147586539588556,1778147586.5395887,-2.444740358983175,-1.151691423063614,-1.849981427192688,-1.0573631089976807,1.1191972494125366,0.5759984850883484
1778147586559585012,1778147586.559585,-2.4446876684771937,-1.1517315965941926,-1.8499572277069092,-1.0573344987681885,1.1192210912704468,0.5759339928627014
1778147586579586826,1778147586.579587,-2.4446595350848597,-1.1516753000072022,-1.84996497631073,-1.0574029249003907,1.1191848516464233,0.5759623646736145
1778147586599543747,1778147586.5995438,-2.444696013127462,-1.1516995292953034,-1.8500176668167114,-1.0573511880687256,1.1192126274108887,0.5759541988372803
1778147586619537626,1778147586.6195378,-2.444700066243307,-1.1516990226558228,-1.8499691486358643,-1.0573511880687256,1.119188904762268,0.5760103464126587
1778147586639590657,1778147586.6395907,-2.4446476141559046,-1.1517193478396912,-1.8499974012374878,-1.0573832553676148,1.1192049980163574,0.5759262442588806
1778147586659533600,1778147586.6595337,-2.444683853779928,-1.1517032843879242,-1.85002601146698,-1.0573344987681885,1.1192377805709839,0.5759783983230591
1778147586679588870,1778147586.679589,-2.444683853779928,-1.1517517131618042,-1.8499854803085327,-1.0573631089976807,1.1192619800567627,0.575950026512146
1778147586699536896,1778147586.699537,-2.4446755091296595,-1.1517074269107361,-1.850001573562622,-1.0573304456523438,1.119213342666626,0.5759340524673462
1778147586719585278,1778147586.7195854,-2.444740358983175,-1.1517036718181153,-1.8500373363494873,-1.0573345583728333,1.119278073310852,0.5759701728820801
1778147586739600007,1778147586.7396002,-2.444700066243307,-1.1517197054675599,-1.8500176668167114,-1.0573470753482361,1.119168758392334,0.5759902596473694
1778147586759532651,1778147586.7595327,-2.4446919600116175,-1.1517275434783478,-1.8499974012374878,-1.0573548835567017,1.1192209720611572,0.5759939551353455
1778147586779591266,1778147586.7795913,-2.444683853779928,-1.1517115098289032,-1.8500629663467407,-1.0573511880687256,1.1192458868026733,0.5759783387184143
1778147586799534829,1778147586.799535,-2.4447484652148646,-1.1517476302436371,-1.8499733209609985,-1.0573910635760804,1.119261384010315,0.5759824514389038
1778147586819534213,1778147586.8195345,-2.4446755091296595,-1.1517435175231476,-1.8499813079833984,-1.0573263329318543,1.1192049980163574,0.5759742259979248
1778147586839587702,1778147586.8395877,-2.4447043577777308,-1.1517435175231476,-1.849989652633667,-1.0573228162578125,1.1192126274108887,0.5759221911430359
1778147586859536655,1778147586.8595366,-2.4446879068957728,-1.1516593259624024,-1.8499771356582642,-1.0573791426471253,1.1192412376403809,0.575958251953125
1778147586879595915,1778147586.8795962,-2.4446714560138147,-1.1516995590976258,-1.849989414215088,-1.0573511880687256,1.1191848516464233,0.5759862065315247
1778147586899537552,1778147586.8995378,-2.4447203318225306,-1.1517036718181153,-1.8500218391418457,-1.0573511880687256,1.1192293167114258,0.5759903192520142
1778147586919590087,1778147586.9195902,-2.444696013127462,-1.1517115098289032,-1.8499691486358643,-1.0573595327189942,1.1192656755447388,0.5759541988372803
1778147586939532084,1778147586.939532,-2.4446876684771937,-1.1517394048026581,-1.8500217199325562,-1.0573671621135254,1.1191811561584473,0.5759861469268799
1778147586959587627,1778147586.9595878,-2.444700304661886,-1.151691423063614,-1.8500254154205322,-1.0573672217181702,1.1192336082458496,0.5759943723678589
1778147586979528742,1778147586.979529,-2.4447079340564173,-1.1517394048026581,-1.8499774932861328,-1.0573067230037232,1.1192377805709839,0.5759416818618774
1778147586999597749,1778147586.999598,-2.444700066243307,-1.1517155927470704,-1.8499974012374878,-1.0574034613421937,1.119208574295044,0.5759943723678589
1778147587019534968,1778147587.019535,-2.4446635882007044,-1.151739464407303,-1.8499608039855957,-1.0573672217181702,1.1191811561584473,0.5759742856025696
1778147587039586177,1778147587.0395863,-2.4446798006640833,-1.1517155927470704,-1.8499488830566406,-1.0573511880687256,1.1192209720611572,0.5759824514389038
1778147587059537303,1778147587.0595374,-2.4446919600116175,-1.1517115098289032,-1.850046157836914,-1.0573631089976807,1.1192169189453125,0.5759463310241699
1778147587079584946,1778147587.079585,-2.444716278706686,-1.1517114800265809,-1.850001573562622,-1.0573631089976807,1.1192578077316284,0.5759623646736145
1778147587099547716,1778147587.0995479,-2.4446798006640833,-1.1517193180373688,-1.8499815464019775,-1.0573595327189942,1.1192376613616943,0.5759660601615906
1778147587119524178,1778147587.1195242,-2.4447606245623987,-1.1517435175231476,-1.8499733209609985,-1.057338909511902,1.1192251443862915,0.5759861469268799
1778147587139554092,1778147587.1395543,-2.4446876684771937,-1.1517234307578583,-1.8499938249588013,-1.0573992294124146,1.1192537546157837,0.5759742259979248
1778147587159529343,1778147587.1595292,-2.4446757475482386,-1.151723400955536,-1.8500218391418457,-1.0573874872973938,1.1192009449005127,0.5759500861167908
1778147587179527150,1778147587.1795273,-2.4446876684771937,-1.1517073971084137,-1.8499854803085327,-1.0573992294124146,1.1192293167114258,0.5759783387184143
1778147587199527146,1778147587.1995273,-2.444683615361349,-1.151735321884491,-1.8499774932861328,-1.0573832553676148,1.1192293167114258,0.5759180784225464
1778147587219528457,1778147587.2195287,-2.4447079340564173,-1.1517073673060914,-1.8499938249588013,-1.0573709172061463,1.1191848516464233,0.5759660601615906
1778147587239523961,1778147587.239524,-2.4447084108935755,-1.1517517131618042,-1.8500217199325562,-1.0573672217181702,1.1192132234573364,0.5760104060173035
1778147587259524847,1778147587.259525,-2.4446879068957728,-1.1517393750003357,-1.849989652633667,-1.0573511880687256,1.1192090511322021,0.5759902596473694
1778147587279609161,1778147587.2796092,-2.44472843805422,-1.1516995590976258,-1.849981427192688,-1.0573511880687256,1.1191884279251099,0.5759701132774353
1778147587299550530,1778147587.2995505,-2.4447079340564173,-1.1517114800265809,-1.8499609231948853,-1.0573185247233887,1.1192500591278076,0.5759824514389038
1778147587319545926,1778147587.319546,-2.4446919600116175,-1.151727483873703,-1.8500218391418457,-1.0573185247233887,1.1192048788070679,0.5760147571563721
1778147587339541738,1778147587.339542,-2.4446876684771937,-1.1517197054675599,-1.8500378131866455,-1.0573790830424805,1.1192049980163574,0.5759619474411011
1778147587359527820,1778147587.359528,-2.4447324911700647,-1.1517114800265809,-1.8500134944915771,-1.0573631089976807,1.1191563606262207,0.5759701728820801
1778147587379529622,1778147587.37953,-2.4446755091296595,-1.1517275434783478,-1.8499974012374878,-1.0573672217181702,1.1191645860671997,0.5759701728820801
1778147587399521824,1778147587.3995218,-2.4447203318225306,-1.1517196756652375,-1.84996497631073,-1.0573429626277466,1.1192293167114258,0.5759903192520142
1778147587419556611,1778147587.4195566,-2.4447036425219935,-1.151723788385727,-1.850021481513977,-1.0573429626277466,1.1192418336868286,0.5759664177894592
1778147587439527791,1778147587.4395278,-2.4446919600116175,-1.1517115098289032,-1.8500134944915771,-1.0573344987681885,1.1191729307174683,0.5759262442588806
1778147587459539266,1778147587.4595394,-2.4446757475482386,-1.1517275434783478,-1.85002601146698,-1.0573672217181702,1.1191409826278687,0.5759541988372803
1778147587479541060,1778147587.479541,-2.44472843805422,-1.1517759722522278,-1.8500094413757324,-1.0573511880687256,1.1191805601119995,0.576006293296814
1778147587499531836,1778147587.499532,-2.4447079340564173,-1.1517114800265809,-1.8500218391418457,-1.0573470753482361,1.1191924810409546,0.575934112071991
1778147587519533161,1778147587.5195332,-2.444679562245504,-1.151739851837494,-1.8500134944915771,-1.0574035209468384,1.1192009449005127,0.5759583115577698
1778147587539526838,1778147587.539527,-2.444700066243307,-1.1517356795123597,-1.8500175476074219,-1.0573139947703858,1.1192209720611572,0.5759422183036804
1778147587559540748,1778147587.5595407,-2.4446712175952356,-1.1516835552505036,-1.8499854803085327,-1.0573102992824097,1.1192008256912231,0.5759783387184143
1778147587579529973,1778147587.57953,-2.4446798006640833,-1.1516954761794587,-1.8500057458877563,-1.0573470157435914,1.119233250617981,0.5759381651878357
1778147587599594638,1778147587.5995948,-2.4446879068957728,-1.1516913932612916,-1.8500134944915771,-1.0573832553676148,1.1192578077316284,0.5759102702140808
1778147587619535353,1778147587.6195354,-2.444696013127462,-1.1517196756652375,-1.850006341934204,-1.0573631089976807,1.1191965341567993,0.5759422779083252
1778147587639525409,1778147587.6395254,-2.444696013127462,-1.1517074269107361,-1.8500057458877563,-1.0573672217181702,1.1191729307174683,0.5759463906288147
1778147587659647370,1778147587.6596477,-2.4447079340564173,-1.1517434877208252,-1.8499932289123535,-1.0573344987681885,1.1192293167114258,0.575950026512146
1778147587679584863,1778147587.679585,-2.4446755091296595,-1.1517517429641266,-1.8500337600708008,-1.0573631089976807,1.1192091703414917,0.5759783983230591
1778147587699594409,1778147587.6995945,-2.444696013127462,-1.1517356795123597,-1.8500134944915771,-1.0573429626277466,1.1192377805709839,0.5759302973747253
1778147587719555641,1778147587.7195556,-2.4447043577777308,-1.1517476004413147,-1.8500378131866455,-1.0573304456523438,1.1192418336868286,0.5759903192520142
1778147587739538839,1778147587.7395391,-2.44472843805422,-1.1517438751510163,-1.8500378131866455,-1.0573344987681885,1.1192008256912231,0.5759422183036804
1778147587759532110,1778147587.7595322,-2.4446755091296595,-1.1517073971084137,-1.8500218391418457,-1.0573992294124146,1.1192169189453125,0.5759381651878357
1778147587779601896,1778147587.779602,-2.444711987172262,-1.1517037016204377,-1.8500176668167114,-1.0573750299266358,1.1192336082458496,0.5759221315383911
1778147587799531991,1778147587.7995322,-2.444712225590841,-1.1517315667918702,-1.8499854803085327,-1.0573750299266358,1.1191930770874023,0.5759779810905457
1778147587819586259,1778147587.8195865,-2.444679085408346,-1.1517274540713807,-1.8499774932861328,-1.0573992294124146,1.1192293167114258,0.5759984850883484
1778147587839584676,1778147587.8395848,-2.444683853779928,-1.1517315965941926,-1.8500455617904663,-1.0573672217181702,1.1192251443862915,0.5759541988372803
1778147587859592560,1778147587.8595927,-2.444683853779928,-1.151723400955536,-1.850001573562622,-1.0573750299266358,1.1192132234573364,0.5759422779083252
1778147587879595798,1778147587.879596,-2.444696013127462,-1.1517356795123597,-1.8500182628631592,-1.0573791426471253,1.1192008256912231,0.575910210609436
1778147587899535681,1778147587.8995357,-2.4447370211230677,-1.151727483873703,-1.8499774932861328,-1.0573589962771912,1.1192251443862915,0.5759619474411011
1778147587919582619,1778147587.9195828,-2.4447079340564173,-1.1517033141902466,-1.8500134944915771,-1.0573470753482361,1.1192009449005127,0.5759742259979248
1778147587939638961,1778147587.939639,-2.444679562245504,-1.151755378847458,-1.8499974012374878,-1.0573790830424805,1.1192578077316284,0.5759661197662354
1778147587959530473,1778147587.9595306,-2.444700304661886,-1.1517558258822937,-1.84996497631073,-1.0573429626277466,1.1192049980163574,0.5759902000427246
1778147587979528951,1778147587.9795291,-2.4446550051318567,-1.1517476302436371,-1.8499691486358643,-1.0573991698077698,1.1191729307174683,0.5759861469268799
1778147587999526314,1778147587.9995265,-2.4447291533099573,-1.1517594915679474,-1.8499733209609985,-1.0573589962771912,1.1191765069961548,0.5759902000427246
1778147588019524407,1778147588.0195246,-2.444700304661886,-1.1517156225493927,-1.8499572277069092,-1.0573672217181702,1.1192172765731812,0.5759701132774353
1778147588039536796,1778147588.039537,-2.444696013127462,-1.1517155927470704,-1.8499979972839355,-1.0573714536479493,1.1192049980163574,0.5759422779083252
1778147588059610656,1778147588.0596108,-2.444696013127462,-1.151755378847458,-1.849989652633667,-1.0573554199985047,1.1192009449005127,0.5759783983230591
1778147588079561173,1778147588.0795612,-2.444696013127462,-1.1517476004413147,-1.8500057458877563,-1.0573144120028992,1.1192009449005127,0.5759902596473694
1778147588099530445,1778147588.0995307,-2.444732729588644,-1.1517275434783478,-1.8500057458877563,-1.0573750299266358,1.1192049980163574,0.5759861469268799
1778147588119531359,1778147588.1195314,-2.4446917215930384,-1.1517036718181153,-1.8500057458877563,-1.0573345583728333,1.1192251443862915,0.5759660601615906
1778147588139554930,1778147588.139555,-2.444744888936178,-1.1517435175231476,-1.8499974012374878,-1.0573430222323914,1.1192251443862915,0.5759340524673462
1778147588159545121,1778147588.1595452,-2.444679562245504,-1.1517275136760254,-1.8499974012374878,-1.0573671621135254,1.1192251443862915,0.575950026512146
1778147588179542453,1778147588.1795425,-2.4446752707110804,-1.151727483873703,-1.8499691486358643,-1.0573709172061463,1.1191645860671997,0.5759903192520142
1778147588199530071,1778147588.1995301,-2.444700304661886,-1.1517394048026581,-1.8499854803085327,-1.0573672217181702,1.1192376613616943,0.5759416818618774
1778147588219513705,1778147588.2195137,-2.444716517125265,-1.1516753894141694,-1.850001573562622,-1.0573589962771912,1.1191924810409546,0.5759783983230591
1778147588239551061,1778147588.239551,-2.4446798006640833,-1.151719645862915,-1.8499813079833984,-1.0573874872973938,1.1192251443862915,0.5759422183036804
1778147588259536937,1778147588.259537,-2.4446755091296595,-1.1517315965941926,-1.8499733209609985,-1.0573388499072571,1.1192090511322021,0.5759701728820801
1778147588279530990,1778147588.279531,-2.4446755091296595,-1.1517554384521027,-1.8500099182128906,-1.0573387903026124,1.1191645860671997,0.5759783983230591
1778147588299548771,1778147588.2995489,-2.444700066243307,-1.151735321884491,-1.8500099182128906,-1.0573387903026124,1.1192820072174072,0.5759541392326355
1778147588319548622,1778147588.3195488,-2.444700066243307,-1.151731626396515,-1.8499854803085327,-1.0573709172061463,1.1192336082458496,0.5759623646736145
1778147588339541973,1778147588.3395422,-2.4447079340564173,-1.1517156225493927,-1.850001573562622,-1.0573066633990784,1.1192049980163574,0.5759943723678589
1778147588359530914,1778147588.3595312,-2.44466740289797,-1.1517356795123597,-1.849989652633667,-1.0573470753482361,1.1192537546157837,0.5759742856025696
1778147588379531283,1778147588.3795314,-2.444683853779928,-1.1517677170089264,-1.8500255346298218,-1.0573429626277466,1.1191765069961548,0.5759820938110352
1778147588399588286,1778147588.3995883,-2.4446678797351282,-1.1517275136760254,-1.8500057458877563,-1.0573470157435914,1.1192009449005127,0.575934112071991
1778147588419583449,1778147588.4195836,-2.4447036425219935,-1.1517394048026581,-1.8500337600708008,-1.0573671621135254,1.1191966533660889,0.5759701728820801
1778147588439535144,1778147588.4395351,-2.4447243849383753,-1.1517435175231476,-1.849981427192688,-1.0573262733272095,1.119225263595581,0.5759902596473694
1778147588459584552,1778147588.4595847,-2.4446919600116175,-1.1516954463771363,-1.8499932289123535,-1.0573869508555909,1.1191929578781128,0.575958251953125
1778147588479591102,1778147588.4795914,-2.4447036425219935,-1.1517435175231476,-1.8500337600708008,-1.057306782608368,1.1191966533660889,0.5759783387184143
1778147588499584896,1778147588.4995852,-2.44472843805422,-1.1517114800265809,-1.8500099182128906,-1.057359055881836,1.1192376613616943,0.575950026512146
1778147588519581722,1778147588.5195818,-2.444696013127462,-1.1517275136760254,-1.8499938249588013,-1.0573511880687256,1.1192376613616943,0.5759902596473694
1778147588539542393,1778147588.5395424,-2.444711987172262,-1.151735321884491,-1.8500176668167114,-1.0573345583728333,1.1191966533660889,0.5759340524673462
1778147588559582022,1778147588.559582,-2.444683853779928,-1.1517234307578583,-1.8499854803085327,-1.057347134952881,1.1191930770874023,0.5759902596473694
1778147588579590314,1778147588.5795906,-2.4447203318225306,-1.1517394048026581,-1.8500134944915771,-1.0573790830424805,1.1192537546157837,0.576014518737793
1778147588599531603,1778147588.5995317,-2.444700066243307,-1.1517237585834046,-1.8499815464019775,-1.0573429626277466,1.1192293167114258,0.5759783983230591
1778147588619558181,1778147588.6195583,-2.4446678797351282,-1.1517197054675599,-1.8499854803085327,-1.057363049393036,1.119160532951355,0.5759623646736145
1778147588639536460,1778147588.6395364,-2.4446595350848597,-1.1517476302436371,-1.8500218391418457,-1.0573874872973938,1.1192291975021362,0.5759862065315247
1778147588659542901,1778147588.6595428,-2.4446635882007044,-1.1517193180373688,-1.8499854803085327,-1.0573755663684388,1.1191805601119995,0.5759742856025696
1778147588679536799,1778147588.679537,-2.444711987172262,-1.1517115098289032,-1.849989652633667,-1.0573511284640809,1.1192251443862915,0.5759862065315247
1778147588699529274,1778147588.6995294,-2.444683853779928,-1.1517155927470704,-1.849989652633667,-1.0573548835567017,1.1191890239715576,0.5759943723678589
1778147588719554370,1778147588.7195544,-2.4447243849383753,-1.151707337503769,-1.8500057458877563,-1.0573790830424805,1.1192293167114258,0.5759381055831909
1778147588739676961,1778147588.739677,-2.4446919600116175,-1.1517275136760254,-1.8499772548675537,-1.0573344987681885,1.1192656755447388,0.5759984850883484
1778147588759526447,1778147588.7595265,-2.444711987172262,-1.1517155927470704,-1.8500301837921143,-1.0573304456523438,1.1192412376403809,0.5759381055831909
1778147588779526807,1778147588.779527,-2.4446919600116175,-1.151735709314682,-1.850001573562622,-1.0573672217181702,1.1192049980163574,0.5759381055831909
1778147588799671445,1778147588.7996716,-2.444700304661886,-1.1516954761794587,-1.850014090538025,-1.0573387903026124,1.1192169189453125,0.5759581923484802
1778147588819563735,1778147588.8195639,-2.4446919600116175,-1.1517196756652375,-1.8500218391418457,-1.0573709172061463,1.119180679321289,0.575950026512146
1778147588839549362,1778147588.8395495,-2.4446798006640833,-1.1517435175231476,-1.850001573562622,-1.0573554796031495,1.1192458868026733,0.5759783387184143
1778147588859675011,1778147588.8596752,-2.4446595350848597,-1.1517803233912964,-1.8500175476074219,-1.0573714536479493,1.1192009449005127,0.5759303569793701
1778147588879579436,1778147588.8795795,-2.444716278706686,-1.1517155927470704,-1.850001573562622,-1.0573750299266358,1.1192376613616943,0.5759381055831909
1778147588899532992,1778147588.8995333,-2.4447360674487513,-1.151735709314682,-1.8499974012374878,-1.0573672217181702,1.1192009449005127,0.5759303569793701
1778147588919630301,1778147588.9196305,-2.4446714560138147,-1.151679442530014,-1.8499733209609985,-1.0573874872973938,1.1192169189453125,0.5759984850883484
1778147588939533770,1778147588.939534,-2.4447367827044886,-1.15174354732547,-1.8499979972839355,-1.0573470753482361,1.1192293167114258,0.5759661197662354
1778147588959544551,1778147588.9595447,-2.444696013127462,-1.151731626396515,-1.8499932289123535,-1.0573791426471253,1.1191848516464233,0.5759541392326355
1778147588979536225,1778147588.9795363,-2.444711987172262,-1.151695416574814,-1.8499974012374878,-1.0573388499072571,1.1192660331726074,0.5759862065315247
1778147588999541120,1778147588.9995413,-2.4447079340564173,-1.1517073971084137,-1.8500176668167114,-1.0573750299266358,1.1192169189453125,0.5759779810905457
1778147589019513342,1778147589.0195134,-2.4447079340564173,-1.1517476600459595,-1.8500099182128906,-1.0573304456523438,1.1191771030426025,0.5759701728820801
1778147589039558041,1778147589.0395582,-2.4447043577777308,-1.1517518025687714,-1.8499854803085327,-1.0573790830424805,1.1192336082458496,0.5759820938110352
1778147589059525382,1778147589.0595255,-2.444700066243307,-1.151751772766449,-1.8499854803085327,-1.0573713940433045,1.119197130203247,0.575958251953125
1778147589079560517,1778147589.0795605,-2.444696013127462,-1.1516913336566468,-1.849989652633667,-1.0573790830424805,1.1192371845245361,0.5759903192520142
1778147589099616620,1778147589.0996165,-2.444700066243307,-1.1517114800265809,-1.849981665611267,-1.0573709172061463,1.1192458868026733,0.5759783983230591
1778147589119524589,1778147589.1195247,-2.4446919600116175,-1.1516872507384797,-1.8500057458877563,-1.0573828381351014,1.1192536354064941,0.5759701728820801
1778147589139529194,1778147589.1395292,-2.4446595350848597,-1.151755468254425,-1.8499606847763062,-1.0573430222323914,1.1192008256912231,0.5760022401809692
1778147589159533095,1778147589.1595333,-2.4446798006640833,-1.151719258432724,-1.8500100374221802,-1.0573874872973938,1.1192412376403809,0.5759541392326355
1778147589179570178,1778147589.1795702,-2.444696013127462,-1.1517036718181153,-1.849973201751709,-1.0573470753482361,1.1192656755447388,0.5760022401809692
1778147589199529975,1778147589.1995301,-2.4446919600116175,-1.1517394346049805,-1.8499691486358643,-1.0573388499072571,1.1191848516464233,0.5759701728820801
1778147589219521035,1778147589.219521,-2.4446919600116175,-1.1517114800265809,-1.8500295877456665,-1.0574034613421937,1.1192293167114258,0.5759943723678589
1778147589239537843,1778147589.239538,-2.4447243849383753,-1.1516793829253693,-1.8499974012374878,-1.057387427692749,1.1192209720611572,0.5759541392326355
1778147589259531225,1778147589.2595313,-2.4446879068957728,-1.1516913634589692,-1.8500057458877563,-1.0573345583728333,1.1192458868026733,0.5759262442588806
1778147589279537007,1778147589.279537,-2.444696013127462,-1.1516752702048798,-1.8499733209609985,-1.0573429626277466,1.1192209720611572,0.5759422779083252
1778147589299530600,1778147589.2995305,-2.444660011922018,-1.1517114800265809,-1.8499774932861328,-1.0572984975627442,1.1192209720611572,0.5759463310241699
1778147589319591198,1778147589.3195913,-2.444700066243307,-1.1517275136760254,-1.8500301837921143,-1.0573554199985047,1.1191966533660889,0.5759541392326355
1778147589339590459,1778147589.3395905,-2.4446678797351282,-1.1517275136760254,-1.8499771356582642,-1.0573991698077698,1.1192618608474731,0.5759583115577698
1778147589359536722,1778147589.3595366,-2.4446714560138147,-1.1516990226558228,-1.8500337600708008,-1.0573429030231019,1.119208574295044,0.5759862065315247
1778147589379617170,1778147589.3796175,-2.4447408358203333,-1.151751772766449,-1.8500218391418457,-1.0573672217181702,1.1192126274108887,0.5759422779083252
1778147589399545325,1778147589.3995454,-2.4447038809405726,-1.1517357391170044,-1.8499691486358643,-1.0573305052569886,1.1192126274108887,0.575998067855835
1778147589419541091,1778147589.4195411,-2.4446678797351282,-1.1516913336566468,-1.8499774932861328,-1.0573511880687256,1.1191805601119995,0.5759623646736145
1778147589439536923,1778147589.439537,-2.44466740289797,-1.1517156225493927,-1.8499813079833984,-1.0573511880687256,1.1192009449005127,0.5759862065315247
1778147589459666643,1778147589.4596667,-2.444683853779928,-1.1516954761794587,-1.85002601146698,-1.0573263329318543,1.119208574295044,0.5759541392326355
1778147589479681766,1778147589.479682,-2.4447160402881067,-1.1517636638930817,-1.85002601146698,-1.0573185247233887,1.1192412376403809,0.5759824514389038
1778147589499646031,1778147589.499646,-2.444716278706686,-1.1517394048026581,-1.8500337600708008,-1.0573554796031495,1.1192376613616943,0.5759820342063904
1778147589519528124,1778147589.5195284,-2.4446921984301966,-1.1517073673060914,-1.85002601146698,-1.0573304456523438,1.1192336082458496,0.5759381055831909
1778147589539630576,1778147589.5396307,-2.4447603861438196,-1.1517476600459595,-1.8500176668167114,-1.0573429626277466,1.1192537546157837,0.5759504437446594
1778147589559591376,1778147589.5595915,-2.4446714560138147,-1.1517197054675599,-1.8499938249588013,-1.0573511880687256,1.1192376613616943,0.575958251953125
1778147589579617846,1778147589.579618,-2.4446714560138147,-1.15174354732547,-1.8500176668167114,-1.0573554796031495,1.1192090511322021,0.5759701728820801
1778147589599644973,1778147589.5996451,-2.444683853779928,-1.1516917508891602,-1.8500096797943115,-1.0573429030231019,1.1191765069961548,0.5759903192520142
1778147589619536345,1778147589.6195364,-2.4446798006640833,-1.1517114800265809,-1.8500057458877563,-1.0573955935290833,1.1192336082458496,0.5759701728820801
1778147589639532808,1778147589.6395328,-2.4447038809405726,-1.1517073673060914,-1.8499774932861328,-1.0573595327189942,1.1192376613616943,0.575950026512146
1778147589659566638,1778147589.6595666,-2.4446755091296595,-1.1517357391170044,-1.8499932289123535,-1.0573387903026124,1.1192169189453125,0.5759619474411011
1778147589679540481,1778147589.6795406,-2.4446755091296595,-1.1516913336566468,-1.8499932289123535,-1.0573344987681885,1.1192169189453125,0.5759541392326355
1778147589699556282,1778147589.6995564,-2.4446919600116175,-1.151698963051178,-1.850014090538025,-1.0573672217181702,1.1192495822906494,0.5759862065315247
1778147589719603965,1778147589.719604,-2.4447243849383753,-1.1516828697970887,-1.8500295877456665,-1.057347134952881,1.1192251443862915,0.5759504437446594
1778147589739595489,1778147589.7395957,-2.4446876684771937,-1.1517275136760254,-1.8499690294265747,-1.0573672217181702,1.1191765069961548,0.575958251953125
1778147589759535811,1778147589.759536,-2.4447200934039515,-1.1517357391170044,-1.8499488830566406,-1.0573672217181702,1.1192251443862915,0.575950026512146
1778147589779561579,1778147589.7795615,-2.444716278706686,-1.1517197054675599,-1.850050449371338,-1.0574034613421937,1.1192737817764282,0.5759500861167908
1778147589799602170,1778147589.7996023,-2.4447084108935755,-1.1517357689193268,-1.8500099182128906,-1.0573344987681885,1.1192090511322021,0.575958251953125
1778147589819537999,1778147589.819538,-2.4447203318225306,-1.1517596405795594,-1.8499488830566406,-1.0573470753482361,1.1191966533660889,0.5759463906288147
1778147589839536910,1778147589.839537,-2.4446876684771937,-1.151698963051178,-1.8499774932861328,-1.0573511880687256,1.1192172765731812,0.5759541392326355
1778147589859533954,1778147589.8595343,-2.444716278706686,-1.1516872209361573,-1.8499813079833984,-1.0573222202113648,1.1192209720611572,0.5759422183036804
1778147589879637178,1778147589.8796372,-2.4446876684771937,-1.1517275136760254,-1.850037932395935,-1.05738319576297,1.1192049980163574,0.5759143829345703
1778147589899574053,1778147589.899574,-2.444679562245504,-1.1517192882350464,-1.85002601146698,-1.0573304456523438,1.1192337274551392,0.5759742856025696
1778147589919551379,1778147589.9195516,-2.44472843805422,-1.1516876381686707,-1.8499608039855957,-1.0573511880687256,1.1191962957382202,0.5759463310241699
1778147589939605534,1778147589.9396057,-2.444683853779928,-1.1517155927470704,-1.8500134944915771,-1.057338909511902,1.1192007064819336,0.575950026512146
1778147589959515319,1778147589.9595156,-2.444679562245504,-1.1516954463771363,-1.8500176668167114,-1.057387427692749,1.1191684007644653,0.5759381055831909
1778147589979548314,1778147589.9795485,-2.444700304661886,-1.15174354732547,-1.8500421047210693,-1.0573992294124146,1.1192125082015991,0.5759541392326355
1778147589999528863,1778147589.9995291,-2.4446921984301966,-1.1517196756652375,-1.8499974012374878,-1.0573512476733704,1.119175910949707,0.5759180188179016
1778147590019630690,1778147590.0196307,-2.444740358983175,-1.1517155927470704,-1.84996497631073,-1.0573636454394837,1.119225025177002,0.5759344100952148
1778147590039552477,1778147590.0395527,-2.444696013127462,-1.1516794127276917,-1.8500218391418457,-1.0572984379580994,1.1192212104797363,0.5759943723678589
1778147590059532956,1778147590.059533,-2.44472843805422,-1.1517275136760254,-1.8499608039855957,-1.0573832553676148,1.1191638708114624,0.5759623646736145
1778147590079569630,1778147590.0795698,-2.444688145314352,-1.1517197054675599,-1.8500100374221802,-1.0573304456523438,1.119246482849121,0.575950026512146
1778147590099532329,1778147590.0995324,-2.444679562245504,-1.151715562944748,-1.8500134944915771,-1.0573595327189942,1.1191962957382202,0.5759422779083252
1778147590119589666,1778147590.1195898,-2.4446755091296595,-1.1517192882350464,-1.8499691486358643,-1.0573345583728333,1.1192337274551392,0.5760103464126587
1778147590139600170,1778147590.1396003,-2.444683853779928,-1.1517718893340607,-1.849989652633667,-1.0574034613421937,1.1192092895507812,0.5759463310241699
1778147590159534910,1778147590.159535,-2.4446752707110804,-1.151731626396515,-1.8500057458877563,-1.057334617977478,1.1192296743392944,0.5759981274604797
1778147590179603174,1778147590.1796033,-2.444728676472799,-1.1517077845386048,-1.8500174283981323,-1.0573631089976807,1.1192337274551392,0.5759544968605042
1778147590199599879,1778147590.1996,-2.44465142885317,-1.1517275136760254,-1.850037932395935,-1.0573992294124146,1.1191964149475098,0.575958251953125
1778147590219592804,1778147590.2195928,-2.4446471373187464,-1.1517357689193268,-1.849961519241333,-1.0573429030231019,1.1191964149475098,0.575958251953125
1778147590239530193,1778147590.2395303,-2.444728676472799,-1.1517036718181153,-1.849953055381775,-1.0573344987681885,1.1192125082015991,0.5759463310241699
1778147590259545955,1778147590.259546,-2.444728676472799,-1.1516995590976258,-1.8499854803085327,-1.0573429626277466,1.119225025177002,0.5759783983230591
1778147590279586919,1778147590.279587,-2.444716517125265,-1.1517073077014466,-1.8500261306762695,-1.0573511880687256,1.1191846132278442,0.575982391834259
1778147590299617527,1778147590.2996175,-2.4446831385241907,-1.151751772766449,-1.8499813079833984,-1.057338909511902,1.1192083358764648,0.5759344100952148
1778147590319538378,1778147590.3195386,-2.4446633497821253,-1.1516876381686707,-1.8499854803085327,-1.0573750299266358,1.1192498207092285,0.5759743452072144
1778147590339530074,1778147590.33953,-2.4446752707110804,-1.1517114800265809,-1.8499771356582642,-1.0573511880687256,1.1192251443862915,0.5759664177894592
1778147590359527136,1778147590.3595273,-2.4446917215930384,-1.1517197054675599,-1.8500134944915771,-1.0573672217181702,1.1192498207092285,0.5759500861167908
1778147590379586463,1778147590.3795867,-2.444667641316549,-1.1517155927470704,-1.8500422239303589,-1.0574035209468384,1.1192293167114258,0.5759381651878357
1778147590399598311,1778147590.3995984,-2.44472843805422,-1.1517476600459595,-1.849969744682312,-1.0573185247233887,1.1191728115081787,0.5759463310241699
1778147590419522889,1778147590.419523,-2.444696013127462,-1.1517357391170044,-1.8499932289123535,-1.0573791426471253,1.1192337274551392,0.5759541392326355
1778147590439532296,1778147590.4395323,-2.4446595350848597,-1.1517118972590943,-1.8500134944915771,-1.0573672217181702,1.1192539930343628,0.575958251953125
1778147590459530413,1778147590.4595306,-2.444716278706686,-1.1517233711532135,-1.8500587940216064,-1.0573511880687256,1.1192378997802734,0.5759701728820801
1778147590479610267,1778147590.4796104,-2.444655958806173,-1.1517316561988373,-1.8500100374221802,-1.057347134952881,1.119249939918518,0.5759180188179016
1778147590499584603,1778147590.4995847,-2.444724146519796,-1.151731626396515,-1.8499774932861328,-1.0573511880687256,1.1192337274551392,0.5760104060173035
1778147590519531880,1778147590.519532,-2.444711987172262,-1.1516995590976258,-1.850001573562622,-1.0573631089976807,1.1191599369049072,0.5759825110435486
1778147590539585558,1778147590.5395856,-2.444700066243307,-1.1517193478396912,-1.8499774932861328,-1.0573470753482361,1.1192582845687866,0.5759221315383911
1778147590559517883,1778147590.559518,-2.444683853779928,-1.1516913932612916,-1.8499939441680908,-1.0573631089976807,1.1191964149475098,0.5759541392326355
1778147590579593901,1778147590.5795941,-2.4446476141559046,-1.151723400955536,-1.8500057458877563,-1.0574148458293458,1.1191641092300415,0.5759623646736145
1778147590599573538,1778147590.5995736,-2.4447324911700647,-1.1516995590976258,-1.8500057458877563,-1.0573554796031495,1.1191803216934204,0.5759825110435486
1778147590619555248,1778147590.6195555,-2.4446635882007044,-1.1517517429641266,-1.8499938249588013,-1.0573791426471253,1.1192454099655151,0.5759262442588806
1778147590639547038,1778147590.6395473,-2.444716278706686,-1.151675359611847,-1.849989652633667,-1.0573388499072571,1.1192169189453125,0.5759262442588806
1778147590659529661,1778147590.65953,-2.44472843805422,-1.1517032843879242,-1.8499974012374878,-1.0573589962771912,1.1192008256912231,0.5759742259979248
1778147590679603515,1778147590.6796036,-2.444711987172262,-1.1516876381686707,-1.8499813079833984,-1.0573549431613465,1.1192294359207153,0.5759943723678589
1778147590699588780,1778147590.699589,-2.444696013127462,-1.1517275136760254,-1.8499648571014404,-1.0573512476733704,1.1192210912704468,0.5759660601615906
1778147590719649606,1778147590.7196496,-2.4446755091296595,-1.1517074269107361,-1.8499813079833984,-1.0573631089976807,1.119213342666626,0.5759462714195251
1778147590739682875,1778147590.739683,-2.4446879068957728,-1.151771829729416,-1.849989652633667,-1.057338909511902,1.1192734241485596,0.5759463310241699
1778147590759543050,1778147590.7595432,-2.444696013127462,-1.1517315965941926,-1.8500099182128906,-1.0573790830424805,1.1192251443862915,0.5759820938110352
1778147590779574654,1778147590.7795746,-2.4447324911700647,-1.1517397624305268,-1.8500256538391113,-1.057395116691925,1.1192573308944702,0.5759623646736145
1778147590799627775,1778147590.7996278,-2.444671932850973,-1.1517073971084137,-1.8500422239303589,-1.0573916000178833,1.1192293167114258,0.5759340524673462
1778147590819684472,1778147590.8196845,-2.4447365442859095,-1.1517155927470704,-1.8499690294265747,-1.0572824639132996,1.1192083358764648,0.5759701728820801
1778147590839536433,1778147590.8395364,-2.4447079340564173,-1.1517517429641266,-1.8500337600708008,-1.0573511880687256,1.1192413568496704,0.5759463310241699
1778147590859554126,1778147590.859554,-2.444700066243307,-1.1517155927470704,-1.8499938249588013,-1.0573511880687256,1.1192210912704468,0.576006293296814
1778147590879544983,1778147590.8795452,-2.444700304661886,-1.1517275136760254,-1.849989652633667,-1.0573589962771912,1.119188904762268,0.5759705305099487
1778147590899542960,1778147590.899543,-2.4446635882007044,-1.1517394346049805,-1.8499854803085327,-1.0573430222323914,1.1192169189453125,0.5759221315383911
1778147590919531794,1778147590.9195318,-2.444711987172262,-1.15174354732547,-1.8499571084976196,-1.0573595327189942,1.1192049980163574,0.5759221315383911
1778147590939548554,1778147590.9395487,-2.4446714560138147,-1.1516954761794587,-1.8500261306762695,-1.05738319576297,1.119225263595581,0.5759422183036804
1778147590959604249,1778147590.9596043,-2.444696013127462,-1.1517115098289032,-1.849973201751709,-1.0573345583728333,1.1192783117294312,0.5759862065315247
1778147590979542474,1778147590.9795427,-2.44472843805422,-1.1517476302436371,-1.849989652633667,-1.0573263329318543,1.1192126274108887,0.576006293296814
1778147590999542661,1778147590.999543,-2.44464356104006,-1.1517275136760254,-1.8499939441680908,-1.057326392536499,1.1191686391830444,0.5759463310241699
1778147591019526969,1778147591.019527,-2.4447079340564173,-1.1517074269107361,-1.8499771356582642,-1.0573345583728333,1.1191930770874023,0.5759943723678589
1778147591039541829,1778147591.039542,-2.4447038809405726,-1.1517155927470704,-1.8499974012374878,-1.0573511880687256,1.1192169189453125,0.5759422183036804
1778147591059535652,1778147591.0595357,-2.444756333027975,-1.1517237585834046,-1.849973201751709,-1.057359055881836,1.1192049980163574,0.575910210609436
1778147591079581001,1778147591.079581,-2.4447200934039515,-1.151735709314682,-1.8499854803085327,-1.0573631089976807,1.119188904762268,0.5759303569793701
1778147591099663286,1778147591.0996635,-2.444696013127462,-1.151739464407303,-1.8499815464019775,-1.0573511880687256,1.1192336082458496,0.5759783387184143
1778147591119533153,1778147591.119533,-2.4446759859668177,-1.1517677170089264,-1.849953055381775,-1.05738319576297,1.1191608905792236,0.575966477394104
1778147591139522650,1778147591.1395226,-2.444700066243307,-1.1516913634589692,-1.8499410152435303,-1.0573307436755677,1.1191965341567993,0.5759381055831909
1778147591159539619,1778147591.15954,-2.4446919600116175,-1.1517394346049805,-1.8499648571014404,-1.0573554796031495,1.1191965341567993,0.575958251953125
1778147591179542255,1778147591.1795423,-2.4446995894061487,-1.1516913932612916,-1.8500057458877563,-1.0573631089976807,1.1192126274108887,0.5759701728820801
1778147591199570043,1778147591.19957,-2.4446798006640833,-1.1517394346049805,-1.8499854803085327,-1.0572984379580994,1.1192293167114258,0.5759500861167908
1778147591219538066,1778147591.2195382,-2.4446798006640833,-1.151723400955536,-1.8499733209609985,-1.057395116691925,1.1192169189453125,0.5759660601615906
1778147591239536014,1778147591.2395363,-2.444716278706686,-1.1517115098289032,-1.849989652633667,-1.0573750299266358,1.1191729307174683,0.5759623050689697
1778147591259536081,1778147591.2595363,-2.4446798006640833,-1.1517356795123597,-1.8499774932861328,-1.0573470753482361,1.1192169189453125,0.5759623646736145
1778147591279535491,1778147591.2795358,-2.4446919600116175,-1.1517476004413147,-1.8500057458877563,-1.0573387903026124,1.1192008256912231,0.576006293296814
1778147591299535229,1778147591.2995353,-2.4446755091296595,-1.1517435771277924,-1.8500100374221802,-1.057338909511902,1.1192044019699097,0.5759862065315247
1778147591319555911,1778147591.319556,-2.444683853779928,-1.1517155927470704,-1.8499813079833984,-1.0573345583728333,1.1192418336868286,0.5759820938110352
1778147591339540891,1778147591.3395412,-2.4446712175952356,-1.1517073971084137,-1.8500257730484009,-1.0573470753482361,1.1192210912704468,0.575966477394104
1778147591359539523,1778147591.3595395,-2.4446919600116175,-1.1517036718181153,-1.8499854803085327,-1.0573790830424805,1.1191965341567993,0.5759459733963013
1778147591379528127,1778147591.3795283,-2.4446798006640833,-1.1516753894141694,-1.8499813079833984,-1.0573636454394837,1.1191924810409546,0.575958251953125
1778147591399538212,1778147591.3995383,-2.444696013127462,-1.1517476004413147,-1.8499776124954224,-1.0573672217181702,1.1192210912704468,0.575958251953125
1778147591419589441,1778147591.4195895,-2.4447043577777308,-1.1517074269107361,-1.8500261306762695,-1.0573791426471253,1.1192173957824707,0.5759660601615906
1778147591439536231,1778147591.4395363,-2.4446759859668177,-1.1517435175231476,-1.8500176668167114,-1.0573344987681885,1.119269847869873,0.5759824514389038
1778147591459606424,1778147591.4596066,-2.4446919600116175,-1.1517196756652375,-1.8500261306762695,-1.0573554199985047,1.1192377805709839,0.5759701728820801
1778147591479539023,1778147591.4795392,-2.4446919600116175,-1.1517033141902466,-1.8499974012374878,-1.0573750299266358,1.1192008256912231,0.5759701728820801
1778147591499544079,1778147591.4995441,-2.444700066243307,-1.1517114800265809,-1.849989652633667,-1.0573470753482361,1.1191890239715576,0.5759862065315247
1778147591519587244,1778147591.5195875,-2.444696013127462,-1.151735709314682,-1.8500218391418457,-1.0573511880687256,1.1191765069961548,0.5759541392326355
1778147591539584941,1778147591.539585,-2.4446714560138147,-1.1517115098289032,-1.8500176668167114,-1.0573991698077698,1.1192209720611572,0.575950026512146
1778147591559592633,1778147591.5595927,-2.4447408358203333,-1.151723400955536,-1.8499811887741089,-1.0573511880687256,1.1192251443862915,0.575934112071991
1778147591579648531,1778147591.5796487,-2.4446798006640833,-1.1517115098289032,-1.8500337600708008,-1.0573470157435914,1.1192209720611572,0.5759903192520142
1778147591599733984,1778147591.599734,-2.44472843805422,-1.151695505981781,-1.8500261306762695,-1.0573511880687256,1.119156837463379,0.575958251953125
1778147591619535151,1778147591.6195352,-2.4447324911700647,-1.1517115098289032,-1.850001573562622,-1.0573470753482361,1.1192209720611572,0.5759102702140808
1778147591639527799,1778147591.6395278,-2.4446476141559046,-1.1517155927470704,-1.8500176668167114,-1.0573511880687256,1.1192376613616943,0.5759583115577698
1778147591659536146,1778147591.6595361,-2.444683853779928,-1.1517275136760254,-1.8500500917434692,-1.0573714536479493,1.1192336082458496,0.5759984254837036
1778147591679512517,1778147591.6795127,-2.44472843805422,-1.1517397624305268,-1.850001573562622,-1.0573589962771912,1.1192209720611572,0.5759463310241699
1778147591699586440,1778147591.6995866,-2.444696013127462,-1.1517077547362824,-1.8499811887741089,-1.0573874872973938,1.1192452907562256,0.5759742856025696
1778147591719532463,1778147591.7195327,-2.4447200934039515,-1.1517394346049805,-1.8499854803085327,-1.0573554199985047,1.1192336082458496,0.5759381651878357
1778147591739557925,1778147591.739558,-2.444711987172262,-1.151695505981781,-1.8500057458877563,-1.0573791426471253,1.1192495822906494,0.5759742856025696
1778147591759535511,1778147591.7595358,-2.444696013127462,-1.1517234307578583,-1.8499655723571777,-1.05738319576297,1.1192376613616943,0.5759623646736145
1778147591779534258,1778147591.7795343,-2.4446919600116175,-1.1517196756652375,-1.8500134944915771,-1.0573672217181702,1.1191563606262207,0.5759742259979248
1778147591799537367,1778147591.7995374,-2.444700066243307,-1.1516995590976258,-1.8499974012374878,-1.0573511880687256,1.119208574295044,0.5759422183036804
1778147591819538298,1778147591.8195384,-2.4446876684771937,-1.1517275136760254,-1.8499692678451538,-1.0573874872973938,1.1192578077316284,0.575958251953125
1778147591839546342,1778147591.8395464,-2.4446919600116175,-1.1517234307578583,-1.8499648571014404,-1.0573671621135254,1.1192009449005127,0.5759503841400146
1778147591859537902,1778147591.859538,-2.444711987172262,-1.1516995888999482,-1.8500218391418457,-1.0573511880687256,1.1192618608474731,0.5759742856025696
1778147591879562230,1778147591.8795624,-2.444700066243307,-1.1517073673060914,-1.850001573562622,-1.0573429626277466,1.1191890239715576,0.5759943723678589
1778147591899537594,1778147591.8995378,-2.444671932850973,-1.1517357391170044,-1.8500057458877563,-1.0573511880687256,1.1192049980163574,0.5759221315383911
1778147591919541122,1778147591.9195414,-2.4446678797351282,-1.1517315965941926,-1.8499974012374878,-1.0573429626277466,1.1192009449005127,0.5759221315383911
1778147591939534734,1778147591.939535,-2.444696013127462,-1.1517476302436371,-1.8499690294265747,-1.05731816709552,1.1192169189453125,0.5759862065315247
1778147591959543455,1778147591.9595437,-2.444683853779928,-1.151731626396515,-1.8500218391418457,-1.0573185247233887,1.1191924810409546,0.5759340524673462
1778147591979548572,1778147591.9795487,-2.444679562245504,-1.1516954761794587,-1.8499855995178223,-1.0573387903026124,1.1191930770874023,0.5759623646736145
1778147591999538790,1778147591.999539,-2.444740358983175,-1.1517275136760254,-1.8500218391418457,-1.057338909511902,1.1192336082458496,0.5759545564651489
1778147592019542495,1778147592.0195427,-2.4446678797351282,-1.1517155927470704,-1.8500254154205322,-1.0573512476733704,1.1192132234573364,0.5759463906288147
1778147592039521658,1778147592.0395217,-2.444700304661886,-1.1517476004413147,-1.8499813079833984,-1.0573511880687256,1.1192049980163574,0.5759541988372803
1778147592059702992,1778147592.059703,-2.444700304661886,-1.1517356795123597,-1.8499690294265747,-1.0573304456523438,1.1192210912704468,0.575958251953125
1778147592079538143,1778147592.0795383,-2.444732729588644,-1.1517036718181153,-1.8499571084976196,-1.0573790830424805,1.1192293167114258,0.575950026512146
1778147592099533011,1778147592.099533,-2.4446921984301966,-1.1516917508891602,-1.849989652633667,-1.0573304456523438,1.119188904762268,0.575958251953125
1778147592119544221,1778147592.1195445,-2.444716278706686,-1.151723788385727,-1.8500295877456665,-1.0573511880687256,1.1191890239715576,0.5759541988372803
1778147592139678193,1778147592.1396782,-2.444683853779928,-1.1516917508891602,-1.849989652633667,-1.0573713940433045,1.1192209720611572,0.5759783983230591
1778147592159540833,1778147592.159541,-2.444679562245504,-1.1517036718181153,-1.8500134944915771,-1.0573671621135254,1.1192126274108887,0.5759541392326355
1778147592179610447,1778147592.1796105,-2.4447036425219935,-1.1517114800265809,-1.8500337600708008,-1.0573429626277466,1.1192376613616943,0.5759619474411011
1778147592199695327,1778147592.1996956,-2.444712225590841,-1.1516913932612916,-1.8499854803085327,-1.0573554796031495,1.1192537546157837,0.5759302973747253
1778147592219551899,1778147592.219552,-2.444712225590841,-1.1517275136760254,-1.8499974012374878,-1.0573061865619202,1.1192009449005127,0.575958251953125
1778147592239569413,1778147592.2395694,-2.444667641316549,-1.1517196756652375,-1.850001573562622,-1.0573750299266358,1.119176983833313,0.5759541392326355
1778147592259628313,1778147592.2596283,-2.444728676472799,-1.1517155927470704,-1.8500093221664429,-1.0573430222323914,1.1192209720611572,0.5759783387184143
1778147592279676310,1778147592.2796764,-2.4446874300586146,-1.1516913634589692,-1.8499813079833984,-1.0573672217181702,1.1192458868026733,0.5759742856025696
1778147592299530757,1778147592.2995307,-2.444700304661886,-1.1517356795123597,-1.8499690294265747,-1.0573874872973938,1.1191890239715576,0.5759902596473694
1778147592319567496,1778147592.3195677,-2.444667641316549,-1.1517476302436371,-1.8500101566314697,-1.0573672217181702,1.1192251443862915,0.5759303569793701
1778147592339541717,1778147592.339542,-2.4446709791766565,-1.15174354732547,-1.8500218391418457,-1.0573429626277466,1.11923348903656,0.5759742856025696
1778147592359527870,1778147592.359528,-2.444716517125265,-1.1517435175231476,-1.849989652633667,-1.0573832553676148,1.1192209720611572,0.5759299993515015
1778147592379524634,1778147592.3795247,-2.4446752707110804,-1.151723788385727,-1.849981665611267,-1.0573791426471253,1.1192169189453125,0.5759262442588806
1778147592399537543,1778147592.3995378,-2.444732968007223,-1.1517315965941926,-1.8500019311904907,-1.0573750299266358,1.1192293167114258,0.5759422183036804
1778147592419542531,1778147592.4195426,-2.4447363058673304,-1.1517476302436371,-1.849973201751709,-1.0573992294124146,1.1192009449005127,0.575958251953125
1778147592440540039,1778147592.4405403,-2.4446752707110804,-1.1517036718181153,-1.8499528169631958,-1.0573631089976807,1.1192452907562256,0.5759422779083252
1778147592459660015,1778147592.45966,-2.444716517125265,-1.1517513555339356,-1.8499648571014404,-1.057407633667328,1.1192169189453125,0.5759862065315247
1778147592479545259,1778147592.4795454,-2.444732968007223,-1.1517033141902466,-1.8500219583511353,-1.0573714536479493,1.1192336082458496,0.5759701728820801
1778147592499529896,1778147592.49953,-2.4446714560138147,-1.1517234307578583,-1.850001573562622,-1.0573470753482361,1.1192049980163574,0.5759701728820801
1778147592519513088,1778147592.5195131,-2.4446516672717493,-1.1517435175231476,-1.8499854803085327,-1.0573554796031495,1.1192009449005127,0.5759701728820801
1778147592539659745,1778147592.53966,-2.4447084108935755,-1.1517155927470704,-1.8500049114227295,-1.0573511880687256,1.1191890239715576,0.5759180188179016
1778147592559648881,1778147592.559649,-2.444700066243307,-1.151735709314682,-1.8500100374221802,-1.0573951762965699,1.1191930770874023,0.575958251953125
1778147592579529932,1778147592.57953,-2.444683853779928,-1.1517073971084137,-1.8499974012374878,-1.0573548835567017,1.1192291975021362,0.5760067105293274
1778147592599561956,1778147592.5995622,-2.444700066243307,-1.1517036718181153,-1.8500134944915771,-1.0573429626277466,1.1191965341567993,0.5759544968605042
1778147592619590571,1778147592.6195908,-2.4446798006640833,-1.1517275136760254,-1.849973201751709,-1.0573672217181702,1.1192418336868286,0.5759381651878357
1778147592639510187,1778147592.6395104,-2.4446798006640833,-1.1517114800265809,-1.8499562740325928,-1.0573554796031495,1.1192169189453125,0.575934112071991
1778147592659594894,1778147592.659595,-2.44472843805422,-1.1517074269107361,-1.8499939441680908,-1.0573387903026124,1.119188904762268,0.5759340524673462
1778147592679573595,1778147592.6795735,-2.4446798006640833,-1.151667521601059,-1.849989652633667,-1.0573344987681885,1.1192293167114258,0.575966477394104
1778147592699538728,1778147592.6995387,-2.444696013127462,-1.1517397922328492,-1.849989652633667,-1.0573595327189942,1.119188904762268,0.5759500861167908
1778147592719603730,1778147592.7196038,-2.4446755091296595,-1.1517476004413147,-1.850001573562622,-1.0573304456523438,1.1191965341567993,0.5759820938110352
1778147592739615964,1778147592.7396162,-2.444700066243307,-1.151723400955536,-1.8500218391418457,-1.0573344987681885,1.1192169189453125,0.5759742259979248
1778147592759647841,1778147592.7596478,-2.4447079340564173,-1.1517839890769501,-1.8500261306762695,-1.0573387903026124,1.1192458868026733,0.575958251953125
1778147592779662903,1778147592.7796628,-2.4446194807635706,-1.151739851837494,-1.8500218391418457,-1.0573631089976807,1.1192251443862915,0.5759783387184143
1778147592799671868,1778147592.799672,-2.44472843805422,-1.1517073971084137,-1.8500219583511353,-1.0573304456523438,1.1191890239715576,0.5759381651878357
1778147592819660500,1778147592.8196607,-2.444695536290304,-1.1517397624305268,-1.8499854803085327,-1.0573304456523438,1.1191966533660889,0.5759903192520142
1778147592840013477,1778147592.8400137,-2.444711987172262,-1.1517476302436371,-1.850001573562622,-1.0573470753482361,1.1191645860671997,0.5759943127632141
1778147592860993871,1778147592.8609939,-2.4446919600116175,-1.1516995888999482,-1.8499648571014404,-1.0573631089976807,1.1192293167114258,0.5759623646736145
1778147592880113732,1778147592.8801138,-2.4446879068957728,-1.1517073971084137,-1.850001573562622,-1.0573992294124146,1.1192084550857544,0.5759660601615906
1778147592902805452,1778147592.9028056,-2.4446635882007044,-1.151767687206604,-1.8499974012374878,-1.0573429626277466,1.1192169189453125,0.5759343504905701
1778147592919524723,1778147592.9195247,-2.4446714560138147,-1.151723788385727,-1.8500176668167114,-1.0573511880687256,1.1192495822906494,0.5759701728820801
1778147592939530277,1778147592.9395304,-2.444683853779928,-1.151715562944748,-1.8499939441680908,-1.0573554796031495,1.119208574295044,0.5759742856025696
1778147592959574383,1778147592.9595745,-2.444683853779928,-1.1517279309085389,-1.8499774932861328,-1.0573714536479493,1.119208574295044,0.5759541392326355
1778147592979659454,1778147592.9796596,-2.4447324911700647,-1.1517315965941926,-1.8500219583511353,-1.0573631089976807,1.1191966533660889,0.575958251953125
1778147592999642483,1778147592.9996424,-2.44475227991213,-1.1517234307578583,-1.8500175476074219,-1.0573429626277466,1.1192376613616943,0.5759339928627014
1778147593019616214,1778147593.0196164,-2.444700066243307,-1.1516995590976258,-1.8500423431396484,-1.0573631089976807,1.1192537546157837,0.5759742856025696
1778147593039617962,1778147593.0396183,-2.444683615361349,-1.151723400955536,-1.8500304222106934,-1.0573344987681885,1.1192049980163574,0.5759825110435486
1778147593059526436,1778147593.0595264,-2.44472843805422,-1.1517074269107361,-1.8499974012374878,-1.0573672217181702,1.1191966533660889,0.5759262442588806
1778147593079763580,1778147593.0797637,-2.444683853779928,-1.151735709314682,-1.849973201751709,-1.0573549431613465,1.1192169189453125,0.5759541392326355
1778147593100519770,1778147593.10052,-2.444655481969015,-1.151731626396515,-1.8500134944915771,-1.0573791426471253,1.1191811561584473,0.5759541392326355
1778147593119692459,1778147593.1196926,-2.4447079340564173,-1.1517517429641266,-1.8500134944915771,-1.0573470753482361,1.1192537546157837,0.5759303569793701
1778147593139580688,1778147593.1395807,-2.4447408358203333,-1.1517114800265809,-1.8500219583511353,-1.0573832553676148,1.1192009449005127,0.5759344100952148
1778147593159736662,1778147593.1597366,-2.4446919600116175,-1.1517114800265809,-1.8500254154205322,-1.0573470753482361,1.1192209720611572,0.5759623646736145
1778147593179613109,1778147593.1796134,-2.4446798006640833,-1.1517155927470704,-1.8499733209609985,-1.0573631089976807,1.1192210912704468,0.5759422183036804
1778147593199761701,1778147593.1997619,-2.4446798006640833,-1.1516995590976258,-1.8500134944915771,-1.0573832553676148,1.1192210912704468,0.5759262442588806
1778147593219756134,1778147593.2197561,-2.444724146519796,-1.1517315965941926,-1.8499647378921509,-1.0573345583728333,1.1191765069961548,0.5759902596473694
1778147593239680252,1778147593.2396803,-2.444711987172262,-1.1516995888999482,-1.850002408027649,-1.0573992890170594,1.1192291975021362,0.5759742856025696
1778147593259606415,1778147593.2596066,-2.4446635882007044,-1.151675359611847,-1.8499605655670166,-1.0573750299266358,1.1192291975021362,0.5759340524673462
1778147593279549743,1778147593.2795498,-2.4447160402881067,-1.1517275434783478,-1.8500134944915771,-1.0573631089976807,1.1192537546157837,0.5759943723678589
1778147593299655101,1778147593.2996552,-2.444700066243307,-1.1517114800265809,-1.849953293800354,-1.057318465118744,1.1192458868026733,0.5759381651878357
1778147593319547669,1778147593.3195477,-2.4446516672717493,-1.151727871303894,-1.8500134944915771,-1.0573548835567017,1.1192452907562256,0.5759623050689697
1778147593339579347,1778147593.3395796,-2.444696013127462,-1.1516995888999482,-1.849989652633667,-1.0573672217181702,1.119176983833313,0.5759701728820801
1778147593359529407,1778147593.3595295,-2.4446678797351282,-1.151707337503769,-1.8499727249145508,-1.0573388499072571,1.1192126274108887,0.5759381651878357
1778147593379553067,1778147593.379553,-2.4446921984301966,-1.151735709314682,-1.849989652633667,-1.0573344987681885,1.119225263595581,0.5759701728820801
1778147593399741983,1778147593.3997421,-2.4446919600116175,-1.1517196756652375,-1.8499974012374878,-1.0573388499072571,1.1192376613616943,0.5759541392326355
1778147593419902944,1778147593.419903,-2.444696013127462,-1.1516954463771363,-1.8500381708145142,-1.057330386047699,1.1192126274108887,0.5759381651878357
1778147593442433307,1778147593.4424334,-2.444683853779928,-1.151715562944748,-1.8500057458877563,-1.0573750299266358,1.1192412376403809,0.5759504437446594
1778147593459712511,1778147593.4597125,-2.444683853779928,-1.1517718595317383,-1.850001573562622,-1.0573344987681885,1.1191805601119995,0.5759660601615906
1778147593479658623,1778147593.4796586,-2.444716278706686,-1.151723788385727,-1.849989652633667,-1.0573756855777283,1.1192817687988281,0.5759701728820801
1778147593499594608,1778147593.4995947,-2.44472843805422,-1.1516913336566468,-1.8499854803085327,-1.0573429626277466,1.1191848516464233,0.5759862065315247
1778147593519592330,1778147593.5195925,-2.444724146519796,-1.1517033141902466,-1.8500219583511353,-1.0573511880687256,1.1192126274108887,0.575958251953125
1778147593541565929,1778147593.5415661,-2.444700066243307,-1.1517356795123597,-1.849973201751709,-1.0573344987681885,1.1191966533660889,0.5759463310241699
1778147593559835403,1778147593.5598354,-2.4447243849383753,-1.1517394346049805,-1.8500093221664429,-1.0573511880687256,1.1191848516464233,0.575958251953125
1778147593579737815,1778147593.579738,-2.4447324911700647,-1.1517398220351716,-1.850017786026001,-1.0573511880687256,1.1192126274108887,0.5759504437446594
1778147593599717558,1778147593.5997179,-2.444756333027975,-1.1517275136760254,-1.8499647378921509,-1.0573511880687256,1.1192578077316284,0.5759783983230591
1778147593622593680,1778147593.6225939,-2.4447243849383753,-1.1516794127276917,-1.8500465154647827,-1.0573429626277466,1.1192376613616943,0.5759660601615906
1778147593641061447,1778147593.6410615,-2.4446755091296595,-1.1517155927470704,-1.849989652633667,-1.057407097225525,1.1192049980163574,0.5759261250495911
1778147593659615081,1778147593.659615,-2.4447243849383753,-1.1517315965941926,-1.8499854803085327,-1.0573672217181702,1.1192209720611572,0.5760063529014587
1778147593679514975,1778147593.679515,-2.44472843805422,-1.1517074269107361,-1.8499647378921509,-1.0573875469020386,1.1192209720611572,0.5759701728820801
1778147593699511119,1778147593.699511,-2.44464356104006,-1.1517074269107361,-1.8500057458877563,-1.0573344987681885,1.1192576885223389,0.5759742856025696
1778147593719669922,1778147593.71967,-2.444683853779928,-1.1516872507384797,-1.8499689102172852,-1.0573554796031495,1.1191771030426025,0.5759943723678589
1778147593739601478,1778147593.7396016,-2.4446595350848597,-1.1517275136760254,-1.8499974012374878,-1.057310239677765,1.1191729307174683,0.5759422183036804
1778147593761439101,1778147593.761439,-2.4446798006640833,-1.1516753894141694,-1.849993109703064,-1.0573429626277466,1.1192251443862915,0.575950026512146
1778147593781497764,1778147593.781498,-2.4447243849383753,-1.1517517131618042,-1.8499692678451538,-1.0573589962771912,1.1192049980163574,0.575950026512146
1778147593800488075,1778147593.8004882,-2.4446635882007044,-1.1517397624305268,-1.849989652633667,-1.0573832553676148,1.1191848516464233,0.5759463310241699
1778147593822489081,1778147593.8224893,-2.4446919600116175,-1.1517077547362824,-1.8499974012374878,-1.0573512476733704,1.1191805601119995,0.5759701728820801
1778147593839646870,1778147593.839647,-2.444679323826925,-1.1517517131618042,-1.849989652633667,-1.0573344987681885,1.1192210912704468,0.5759902596473694
1778147593859659471,1778147593.8596597,-2.4446635882007044,-1.1517155927470704,-1.8500057458877563,-1.0573429030231019,1.1191966533660889,0.5759303569793701
1778147593879595383,1778147593.8795953,-2.4447200934039515,-1.1517193180373688,-1.8499939441680908,-1.0573589962771912,1.1191688776016235,0.5759660601615906
1778147593900074617,1778147593.9000747,-2.4446876684771937,-1.1517074269107361,-1.8500134944915771,-1.0573304456523438,1.1191890239715576,0.5759862065315247
1778147593919595920,1778147593.9195962,-2.444679562245504,-1.151703642015793,-1.850009799003601,-1.0573910635760804,1.1192293167114258,0.5759820938110352
1778147593939524659,1778147593.9395247,-2.4446919600116175,-1.1517155927470704,-1.8500100374221802,-1.0573875469020386,1.1191805601119995,0.5759742856025696
1778147593959599546,1778147593.9595997,-2.4447036425219935,-1.1517357391170044,-1.8499733209609985,-1.0573429030231019,1.1192172765731812,0.5759500861167908
1778147593979577177,1778147593.9795773,-2.444716278706686,-1.1517156225493927,-1.8499526977539062,-1.0573511880687256,1.1192090511322021,0.5759984254837036
1778147593999643692,1778147593.9996438,-2.444683853779928,-1.1517155927470704,-1.8499689102172852,-1.0573637050441285,1.1191930770874023,0.5760021805763245
1778147594019644767,1778147594.0196447,-2.4446755091296595,-1.1517155927470704,-1.8500219583511353,-1.0573429626277466,1.1192293167114258,0.5759824514389038
