aqumoz/WireEKF/data_Viktor/ctrl_mads_lauge_anders_20260507_114328/robot_b_q.csv
time_ns,time_s,q0,q1,q2,q3,q4,q5
1778147013890334021,1778147013.8903341,-2.49069053331484,-0.9281379741481324,-1.9527868032455444,-1.16166444242511,1.1475577354431152,0.5366554260253906
1778147013908788283,1778147013.9087884,-2.4907315413104456,-0.9281581801227112,-1.9528429508209229,-1.161660985355713,1.1475334167480469,0.5366435647010803
1778147013927144117,1778147013.9271443,-2.4907434622394007,-0.9281380337527771,-1.9528629779815674,-1.1616644722274323,1.1475577354431152,0.5366513133049011
1778147013947007144,1778147013.9470074,-2.4907026926623743,-0.9281540674022217,-1.9528266191482544,-1.161591337328293,1.1475369930267334,0.5366554260253906
1778147013966085658,1778147013.9660857,-2.490706745778219,-0.9281666439822693,-1.9528146982192993,-1.1616159838489075,1.1475334167480469,0.5366353392601013
1778147013987758102,1778147013.9877582,-2.490699116383688,-0.9281950753978272,-1.9528306722640991,-1.161681280737259,1.147545337677002,0.5366595387458801
1778147014005858883,1778147014.005859,-2.4907150904284876,-0.9281261128238221,-1.9528511762619019,-1.1616363686374207,1.1475250720977783,0.5366315841674805
1778147014026020229,1778147014.0260205,-2.490727249776022,-0.9281624120524903,-1.9528348445892334,-1.1616398257068177,1.1475369930267334,0.5366679430007935
1778147014045889913,1778147014.0458899,-2.490695063267843,-0.9281831544688721,-1.9528188705444336,-1.1616311830333252,1.1475250720977783,0.536627471446991
1778147014065797046,1778147014.0657973,-2.4907191435443323,-0.9281867307475586,-1.9528470039367676,-1.1616159838489075,1.1475168466567993,0.5366554260253906
1778147014085800295,1778147014.0858004,-2.4907072226153772,-0.9281872671893616,-1.9528872966766357,-1.161586956386902,1.1475410461425781,0.5366796851158142
1778147014105933539,1778147014.1059337,-2.490695063267843,-0.9281504911235352,-1.9528388977050781,-1.161697433595993,1.1475493907928467,0.5366636514663696
1778147014125857807,1778147014.1258578,-2.4907432238208216,-0.9281665843776246,-1.9528789520263672,-1.1616363686374207,1.1475454568862915,0.536619246006012
1778147014145821034,1778147014.145821,-2.490711037312643,-0.9281540674022217,-1.9528270959854126,-1.1616075199893494,1.1475577354431152,0.5366673469543457
1778147014165829756,1778147014.1658297,-2.4907432238208216,-0.9281748098186036,-1.9528106451034546,-1.1616075199893494,1.1475167274475098,0.5366472005844116
1778147014185820258,1778147014.1858203,-2.490727249776022,-0.9281747502139588,-1.9528306722640991,-1.1615998309901734,1.1475536823272705,0.5366796255111694
1778147014205777110,1778147014.2057772,-2.4907313028918665,-0.9281303447536011,-1.95279860496521,-1.1616405707648774,1.1475495100021362,0.5366151928901672
1778147014225784154,1778147014.225784,-2.490723435078756,-0.9281540674022217,-1.9528429508209229,-1.1616321367076416,1.147545337677002,0.5366755723953247
1778147014245926779,1778147014.2459269,-2.4907313028918665,-0.9281748098186036,-1.9528188705444336,-1.1616279047778626,1.1475334167480469,0.5366755723953247
1778147014265782433,1778147014.2657826,-2.490694824849264,-0.9281581205180665,-1.9528387784957886,-1.1616440576365967,1.1475781202316284,0.5366636514663696
1778147014285864189,1778147014.2858644,-2.490779463444845,-0.9281421464732666,-1.9528306722640991,-1.1616159838489075,1.147586464881897,0.5366755723953247
1778147014305891724,1778147014.305892,-2.490694824849264,-0.9281665247729798,-1.9528348445892334,-1.1616939169219513,1.147573709487915,0.5366513133049011
1778147014325779952,1778147014.3257802,-2.4907313028918665,-0.9281421464732666,-1.9528790712356567,-1.1616312128356476,1.1475292444229126,0.5366796255111694
1778147014345853529,1778147014.3458536,-2.490711037312643,-0.9281748098186036,-1.9528145790100098,-1.1616813105395813,1.147545337677002,0.5366915464401245
1778147014365835177,1778147014.3658354,-2.4907191435443323,-0.9281581205180665,-1.9528146982192993,-1.161611722116806,1.1475821733474731,0.5366352796554565
1778147014386137747,1778147014.386138,-2.490723196660177,-0.9281748098186036,-1.9528671503067017,-1.1616117519191285,1.147562026977539,0.5366792678833008
1778147014405831244,1778147014.4058313,-2.4907191435443323,-0.9281748098186036,-1.9528390169143677,-1.1616321367076416,1.1475780010223389,0.5366233587265015
1778147014425809216,1778147014.4258091,-2.4907150904284876,-0.9281706970981141,-1.9528306722640991,-1.1616321069053193,1.1475250720977783,0.5366234183311462
1778147014445822790,1778147014.4458227,-2.4906869570361536,-0.9281913203052063,-1.9528348445892334,-1.1616321367076416,1.1475369930267334,0.536619246006012
1778147014465810734,1778147014.4658108,-2.490706745778219,-0.9281826180270691,-1.9528594017028809,-1.1616398257068177,1.1476142406463623,0.5366796255111694
1778147014485858039,1778147014.4858582,-2.490699116383688,-0.9281624120524903,-1.9528470039367676,-1.1616727870753785,1.1475982666015625,0.5366595387458801
1778147014505938351,1778147014.5059385,-2.490694824849264,-0.9281867307475586,-1.9528712034225464,-1.1616684061339875,1.1476058959960938,0.5366315841674805
1778147014525952703,1778147014.5259528,-2.490678612385885,-0.9281867307475586,-1.9528511762619019,-1.1616159242442627,1.147520899772644,0.5366673469543457
1778147014546353555,1778147014.5463538,-2.49068266550173,-0.9281831544688721,-1.9528470039367676,-1.1616769892028351,1.1475856304168701,0.5366554260253906
1778147014565821921,1778147014.5658221,-2.490727249776022,-0.9281791013530274,-1.9528629779815674,-1.161648229961731,1.1475856304168701,0.536627471446991
1778147014585937663,1778147014.5859377,-2.4907072226153772,-0.928195135002472,-1.9528511762619019,-1.1616525512984772,1.1475369930267334,0.5366792678833008
1778147014605837303,1778147014.6058373,-2.4907596747027796,-0.9281581205180665,-1.9528430700302124,-1.1616354149631043,1.1475821733474731,0.5366151928901672
1778147014625814359,1778147014.6258144,-2.49075156847109,-0.9281872671893616,-1.9528511762619019,-1.1615869265845795,1.1475856304168701,0.5366435050964355
1778147014645859076,1778147014.6458592,-2.490755621586935,-0.9281950753978272,-1.9528429508209229,-1.1616687339595337,1.1475377082824707,0.5366233587265015
1778147014666059331,1778147014.6660593,-2.4907191435443323,-0.9281463784030457,-1.952871322631836,-1.161648229961731,1.1475083827972412,0.5366755723953247
1778147014689979919,1778147014.68998,-2.4907353560077112,-0.9281950753978272,-1.9528229236602783,-1.1616124671748658,1.1475454568862915,0.5366796851158142
1778147014705789088,1778147014.7057893,-2.49074370065798,-0.9281706970981141,-1.9528146982192993,-1.1616652768901368,1.1475898027420044,0.5366475582122803
1778147014725814810,1778147014.7258148,-2.490723196660177,-0.9281540674022217,-1.9528511762619019,-1.1616075199893494,1.1475410461425781,0.5366513133049011
1778147014745776832,1778147014.745777,-2.4907313028918665,-0.9281790417483826,-1.9528511762619019,-1.1616559785655518,1.1475661993026733,0.5366874933242798
1778147014765818765,1778147014.765819,-2.4907150904284876,-0.9281706970981141,-1.9528913497924805,-1.1616159540465851,1.1476141214370728,0.5366636514663696
1778147014785962225,1778147014.7859623,-2.490694824849264,-0.9281950753978272,-1.9528306722640991,-1.1615869861892243,1.1475167274475098,0.5366796255111694
1778147014805872917,1778147014.805873,-2.490723196660177,-0.9281624120524903,-1.9528954029083252,-1.1616236430457612,1.1475660800933838,0.5366435050964355
1778147014825694059,1778147014.825694,-2.4907150904284876,-0.9281498950770875,-1.9528671503067017,-1.1616202157786866,1.1475577354431152,0.5366953015327454
1778147014845821691,1778147014.8458219,-2.4907150904284876,-0.9281581801227112,-1.9528429508209229,-1.1616321367076416,1.1475940942764282,0.5366595387458801
1778147014866059001,1778147014.866059,-2.490727249776022,-0.9282027047923584,-1.9527945518493652,-1.1616931718638916,1.1475493907928467,0.5366513133049011
1778147014885841268,1778147014.8858414,-2.490706745778219,-0.9281624716571351,-1.9528470039367676,-1.1616236728480835,1.1475249528884888,0.5366233587265015
1778147014906093650,1778147014.9060936,-2.490711037312643,-0.9281748098186036,-1.9528470039367676,-1.16160403311763,1.1475661993026733,0.5366632342338562
1778147014927555867,1778147014.927556,-2.4907072226153772,-0.9281991285136719,-1.9528306722640991,-1.1616236430457612,1.1475661993026733,0.5366957187652588
1778147014945763764,1778147014.945764,-2.4907355944262903,-0.9282111090472718,-1.9528146982192993,-1.1616236728480835,1.1475577354431152,0.5366999506950378
1778147014965799414,1778147014.9657996,-2.4907475153552454,-0.9282111090472718,-1.9528188705444336,-1.1616321367076416,1.1475377082824707,0.5366796255111694
1778147014985974343,1778147014.9859743,-2.4907031694995325,-0.9281791013530274,-1.9528306722640991,-1.1616159838489075,1.1475495100021362,0.5366193056106567
1778147015005845776,1778147015.0058458,-2.490779463444845,-0.9282068771174927,-1.9528429508209229,-1.16166444242511,1.14755380153656,0.5366554260253906
1778147015025990698,1778147015.0259907,-2.4907313028918665,-0.9281950753978272,-1.9528470039367676,-1.1616279047778626,1.1475167274475098,0.5366714596748352
1778147015045848348,1778147015.0458484,-2.4907313028918665,-0.9281950753978272,-1.9528634548187256,-1.1616727870753785,1.147504210472107,0.5366915464401245
1778147015065881907,1778147015.065882,-2.4907472769366663,-0.9281665843776246,-1.9528388977050781,-1.1616482597640534,1.147562026977539,0.5366839170455933
1778147015086088819,1778147015.086089,-2.4907150904284876,-0.9281458419612427,-1.9528553485870361,-1.1616075199893494,1.14750075340271,0.5366193056106567
1778147015109217092,1778147015.1092172,-2.4907150904284876,-0.9281991881183167,-1.9528188705444336,-1.1617050927928467,1.1475577354431152,0.536639392375946
1778147015125846006,1778147015.1258461,-2.4907031694995325,-0.9281666439822693,-1.9528470039367676,-1.1615955990603943,1.1475334167480469,0.5366315841674805
1778147015145874682,1778147015.1458747,-2.490727249776022,-0.9281581205180665,-1.9528995752334595,-1.1616321367076416,1.1475083827972412,0.5366312265396118
1778147015165786181,1778147015.1657863,-2.4907313028918665,-0.9281831544688721,-1.9528266191482544,-1.161668674354889,1.1475940942764282,0.5366431474685669
1778147015185796763,1778147015.185797,-2.4907031694995325,-0.9281950753978272,-1.9528470039367676,-1.1616398257068177,1.1475293636322021,0.5366595387458801
1778147015205838723,1778147015.205839,-2.490695063267843,-0.9281380337527771,-1.9528027772903442,-1.1616932314685364,1.1475940942764282,0.5366233587265015
1778147015225907241,1778147015.2259073,-2.490715567265646,-0.9281791013530274,-1.952883243560791,-1.1616440278342743,1.1475577354431152,0.5366233587265015
1778147015249562769,1778147015.249563,-2.4907191435443323,-0.9281908434680481,-1.9528589248657227,-1.161611722116806,1.1475780010223389,0.5366352796554565
1778147015265809967,1778147015.26581,-2.490727249776022,-0.9281950753978272,-1.9528552293777466,-1.1616728168777009,1.147562026977539,0.5366554260253906
1778147015285708500,1778147015.2857087,-2.4907031694995325,-0.9281581205180665,-1.9528387784957886,-1.1616159838489075,1.1475536823272705,0.5366193056106567
1778147015305830676,1778147015.3058307,-2.4907355944262903,-0.9281665247729798,-1.9528671503067017,-1.1615998309901734,1.1475334167480469,0.5366352796554565
1778147015325760862,1778147015.3257608,-2.4907191435443323,-0.9281706970981141,-1.9528229236602783,-1.1616397959044953,1.147520899772644,0.5365948677062988
1778147015345920236,1778147015.3459203,-2.4907713572131556,-0.9281665247729798,-1.9528429508209229,-1.1616398257068177,1.1475293636322021,0.5366874933242798
1778147015365878587,1778147015.3658786,-2.490723435078756,-0.9281420868686219,-1.9528666734695435,-1.1616075199893494,1.1475250720977783,0.5366874933242798
1778147015385888361,1778147015.3858883,-2.4907191435443323,-0.9281581205180665,-1.9527945518493652,-1.1616236728480835,1.1475577354431152,0.5366595387458801
1778147015405868277,1778147015.4058683,-2.490699116383688,-0.9281623524478455,-1.9528348445892334,-1.1616075199893494,1.1475660800933838,0.5366874933242798
1778147015425732815,1778147015.425733,-2.490727488194601,-0.9281624120524903,-1.9527868032455444,-1.1616729360869904,1.1475334167480469,0.5366994142532349
1778147015445832534,1778147015.4458325,-2.4907315413104456,-0.9281706970981141,-1.9528348445892334,-1.1616354149631043,1.1475577354431152,0.5366472601890564
1778147015465969526,1778147015.4659696,-2.490755860005514,-0.9281260532191773,-1.9528470039367676,-1.1616560083678742,1.1475660800933838,0.5366352796554565
1778147015485916559,1778147015.4859169,-2.4907313028918665,-0.9281791013530274,-1.9528348445892334,-1.1616602700999756,1.1475856304168701,0.5366636514663696
1778147015505774700,1778147015.5057747,-2.4907432238208216,-0.9281826180270691,-1.9528872966766357,-1.161681280737259,1.1475167274475098,0.5366315841674805
1778147015525720072,1778147015.5257201,-2.4907479921924036,-0.9281791013530274,-1.9528306722640991,-1.1616278749755402,1.1475410461425781,0.5366591215133667
1778147015545821176,1778147015.5458212,-2.4907150904284876,-0.9281581801227112,-1.9528753757476807,-1.1616116923144837,1.1475417613983154,0.5366554260253906
1778147015565740888,1778147015.5657408,-2.490727249776022,-0.9281950753978272,-1.9528229236602783,-1.1616525811007996,1.1475249528884888,0.5366915464401245
1778147015585827421,1778147015.5858274,-2.4907031694995325,-0.9281624120524903,-1.9528388977050781,-1.1616278749755402,1.1475493907928467,0.5366755723953247
1778147015605942736,1778147015.605943,-2.490723196660177,-0.9281581205180665,-1.9528511762619019,-1.1616363686374207,1.1475167274475098,0.5366755723953247
1778147015625815944,1778147015.625816,-2.4907355944262903,-0.9281791013530274,-1.9528306722640991,-1.1616397959044953,1.147545337677002,0.5366315841674805
1778147015645856106,1778147015.6458561,-2.490711514149801,-0.9281908434680481,-1.9528229236602783,-1.1616321069053193,1.1475167274475098,0.536639392375946
1778147015665746194,1778147015.6657462,-2.4907355944262903,-0.9281867307475586,-1.9528470039367676,-1.1616236430457612,1.1475167274475098,0.5366472005844116
1778147015685907525,1778147015.6859076,-2.4906862417804163,-0.9281791013530274,-1.9528110027313232,-1.161608265047409,1.1475334167480469,0.536663293838501
1778147015705814905,1778147015.7058148,-2.490727249776022,-0.9281791013530274,-1.952826976776123,-1.1616525214961548,1.1475369930267334,0.536639392375946
1778147015725826635,1778147015.7258267,-2.49070650735964,-0.9281867307475586,-1.9528429508209229,-1.1616398257068177,1.1475293636322021,0.5366554260253906
1778147015745776316,1778147015.7457764,-2.4907434622394007,-0.9281581205180665,-1.9528511762619019,-1.1616482895663758,1.1475577354431152,0.5365985035896301
1778147015765969785,1778147015.7659698,-2.4906988779651087,-0.9281950753978272,-1.9528712034225464,-1.161668674354889,1.1475369930267334,0.5366796255111694
1778147015785914873,1778147015.785915,-2.490744177495138,-0.9281705778888245,-1.9528429508209229,-1.1616279047778626,1.1475167274475098,0.5366435050964355
1778147015807336060,1778147015.807336,-2.4907031694995325,-0.9282111090472718,-1.9528629779815674,-1.1616244477084656,1.1475293636322021,0.5366151928901672
1778147015825879332,1778147015.8258793,-2.490678373967306,-0.9281831544688721,-1.9528629779815674,-1.16166444242511,1.1475334167480469,0.5366632342338562
1778147015846094010,1778147015.8460941,-2.4907193819629114,-0.9281790417483826,-1.952871322631836,-1.1616727870753785,1.1475377082824707,0.5366554260253906
1778147015865823796,1778147015.8658237,-2.4906867186175745,-0.9281581205180665,-1.9528229236602783,-1.1616363686374207,1.147545337677002,0.5366874933242798
1778147015885928781,1778147015.8859289,-2.4907074610339563,-0.9281540674022217,-1.9528511762619019,-1.1616286498359223,1.1475328207015991,0.5366352796554565
1778147015905786003,1778147015.9057863,-2.4906824270831507,-0.9281791013530274,-1.9528027772903442,-1.1616279047778626,1.1475334167480469,0.5366632342338562
1778147015925830344,1778147015.9258306,-2.49070650735964,-0.9281831544688721,-1.9528594017028809,-1.1616559785655518,1.1475410461425781,0.536639392375946
1778147015946042062,1778147015.9460423,-2.490718666707174,-0.9281791013530274,-1.9528065919876099,-1.161611722116806,1.1475250720977783,0.5366595387458801
1778147015966226124,1778147015.9662263,-2.490727249776022,-0.9281908434680481,-1.9528027772903442,-1.1616202157786866,1.1475085020065308,0.5366472005844116
1778147015988885478,1778147015.9888856,-2.4907358328448694,-0.9281587165645142,-1.9528146982192993,-1.161668674354889,1.1475577354431152,0.536639392375946
1778147016005832579,1778147016.005833,-2.490723435078756,-0.9281908434680481,-1.9528106451034546,-1.1616482895663758,1.1475293636322021,0.5366193056106567
1778147016025936066,1778147016.0259361,-2.4907191435443323,-0.9281950753978272,-1.9528348445892334,-1.1616398257068177,1.147520899772644,0.5366353392601013
1778147016045831991,1778147016.0458322,-2.4907472769366663,-0.9281748098186036,-1.9528266191482544,-1.1616398257068177,1.1475940942764282,0.5366148948669434
1778147016065887189,1778147016.0658875,-2.4907150904284876,-0.9281624120524903,-1.9528629779815674,-1.1616117519191285,1.1475210189819336,0.5366476774215698
1778147016085735412,1778147016.0857356,-2.490723435078756,-0.9281540674022217,-1.9528229236602783,-1.1615794462016602,1.1475780010223389,0.5366353392601013
1778147016106188280,1778147016.1061883,-2.490727249776022,-0.9281261128238221,-1.9528306722640991,-1.1616440576365967,1.1475210189819336,0.536687433719635
1778147016127733618,1778147016.1277337,-2.490727249776022,-0.9282068771174927,-1.952871322631836,-1.1616279047778626,1.1475660800933838,0.5366513729095459
1778147016145917216,1778147016.1459172,-2.4907432238208216,-0.9281665247729798,-1.9528306722640991,-1.1616515678218384,1.1475334167480469,0.5366714596748352
1778147016167744944,1778147016.167745,-2.490694824849264,-0.9281791013530274,-1.9528671503067017,-1.1616117519191285,1.1475696563720703,0.5366554260253906
1778147016185860531,1778147016.1858606,-2.490711037312643,-0.9281624120524903,-1.9528266191482544,-1.161668674354889,1.147545337677002,0.5366513133049011
1778147016205854540,1778147016.2058547,-2.490711037312643,-0.9281540674022217,-1.9528229236602783,-1.1616440576365967,1.1475250720977783,0.5366678833961487
1778147016225792177,1778147016.2257924,-2.4906910101519983,-0.9281791013530274,-1.9528027772903442,-1.1616727870753785,1.1475821733474731,0.5366435050964355
1778147016245815430,1778147016.2458158,-2.4907189051257532,-0.9281867307475586,-1.9528388977050781,-1.1616150301745911,1.1475577354431152,0.536639392375946
1778147016265861721,1778147016.2658617,-2.49068266550173,-0.9281867903522034,-1.9528872966766357,-1.1616117519191285,1.1475660800933838,0.5367113351821899
1778147016285831046,1778147016.2858312,-2.4906790892230433,-0.9281581801227112,-1.9528146982192993,-1.16166444242511,1.147545337677002,0.5366233587265015
1778147016305771848,1778147016.3057718,-2.4907475153552454,-0.9281950753978272,-1.9528470039367676,-1.1616354149631043,1.1475821733474731,0.5366755723953247
1778147016325786739,1778147016.3257868,-2.4906907717334192,-0.9281831544688721,-1.9527950286865234,-1.1616159838489075,1.1474967002868652,0.5366755723953247
1778147016345836346,1778147016.3458364,-2.490723196660177,-0.9281380337527771,-1.9528388977050781,-1.1616075199893494,1.1475738286972046,0.536639392375946
1778147016365776131,1778147016.3657763,-2.490727249776022,-0.9281706970981141,-1.9528871774673462,-1.1616440576365967,1.1475781202316284,0.5366472005844116
1778147016386036988,1778147016.386037,-2.4907150904284876,-0.9281991285136719,-1.9528388977050781,-1.1616406303695221,1.1475660800933838,0.5366714596748352
1778147016405834486,1778147016.4058347,-2.4907355944262903,-0.9282271426967164,-1.952810525894165,-1.1616398257068177,1.147562026977539,0.5366554260253906
1778147016425864345,1778147016.4258645,-2.490711037312643,-0.9281706970981141,-1.9528188705444336,-1.1616727870753785,1.1475334167480469,0.5366874933242798
1778147016446115073,1778147016.4461153,-2.4907150904284876,-0.9281826180270691,-1.9528511762619019,-1.1616845291903992,1.1475660800933838,0.5366914868354797
1778147016465951267,1778147016.4659514,-2.490727249776022,-0.9281540674022217,-1.9528306722640991,-1.1616398257068177,1.1476141214370728,0.536663293838501
1778147016485946637,1778147016.4859467,-2.4907150904284876,-0.9281421464732666,-1.952826976776123,-1.1617016357234498,1.14750075340271,0.5366595387458801
1778147016505834552,1778147016.5058346,-2.4906745592700403,-0.9281624120524903,-1.952810525894165,-1.1616525214961548,1.1475940942764282,0.5366193056106567
1778147016525943228,1778147016.5259435,-2.49068266550173,-0.9281791013530274,-1.952810525894165,-1.1616525214961548,1.147520899772644,0.5366513133049011
1778147016550278725,1778147016.5502787,-2.4907475153552454,-0.9281748098186036,-1.9528229236602783,-1.1616236728480835,1.1475293636322021,0.5366394519805908
1778147016565839214,1778147016.5658393,-2.4906907717334192,-0.9281867307475586,-1.952883243560791,-1.1616192621043702,1.1475334167480469,0.5366714596748352
1778147016585770592,1778147016.5857706,-2.490699116383688,-0.9281581205180665,-1.9528306722640991,-1.1616567534259339,1.1475250720977783,0.5366353392601013
1778147016605872227,1778147016.6058722,-2.490723435078756,-0.928195135002472,-1.952863097190857,-1.1616363686374207,1.1475334167480469,0.5366316437721252
1778147016625862101,1778147016.6258624,-2.49066669145693,-0.9281867307475586,-1.9528188705444336,-1.1616321367076416,1.1475493907928467,0.5366755723953247
1778147016645810016,1778147016.6458101,-2.490722958241598,-0.9281791013530274,-1.9528146982192993,-1.1616854828647156,1.1475293636322021,0.5366312265396118
1778147016665959910,1778147016.66596,-2.490727249776022,-0.9281624120524903,-1.9528306722640991,-1.1616117519191285,1.1475334167480469,0.5366193056106567
1778147016685847716,1778147016.685848,-2.490706745778219,-0.9281624120524903,-1.9528589248657227,-1.1615784925273438,1.1475293636322021,0.5366595387458801
1778147016705812328,1778147016.7058122,-2.4907355944262903,-0.9281624120524903,-1.9528348445892334,-1.1616559785655518,1.147520899772644,0.5366026759147644
1778147016725726258,1778147016.7257264,-2.4907031694995325,-0.9281666439822693,-1.9528671503067017,-1.1616602402976532,1.1475898027420044,0.5366554260253906
1778147016745906174,1778147016.7459064,-2.490699116383688,-0.9281581205180665,-1.9528188705444336,-1.161603109245636,1.1475781202316284,0.5366714596748352
1778147016765836563,1778147016.7658367,-2.4907313028918665,-0.9281624120524903,-1.95279860496521,-1.1616559785655518,1.1475250720977783,0.536639392375946
1778147016785849380,1778147016.7858496,-2.4907150904284876,-0.928195135002472,-1.9528470039367676,-1.1616482895663758,1.1475410461425781,0.5366714596748352
1778147016805869074,1778147016.805869,-2.4907031694995325,-0.9281581205180665,-1.9528430700302124,-1.1616525214961548,1.1475577354431152,0.536647617816925
1778147016825758750,1778147016.825759,-2.490706984196798,-0.9281790417483826,-1.9528188705444336,-1.16166444242511,1.1475411653518677,0.5366554260253906
1778147016845815686,1778147016.845816,-2.4906869570361536,-0.9281826180270691,-1.9528388977050781,-1.1616440576365967,1.1474924087524414,0.5366352796554565
1778147016867534274,1778147016.8675344,-2.4907472769366663,-0.928154007797577,-1.9528229236602783,-1.161672906284668,1.1475493907928467,0.5366513133049011
1778147016885847603,1778147016.8858476,-2.490763489400045,-0.9281463784030457,-1.9528429508209229,-1.1615878504565735,1.1475250720977783,0.5366916060447693
1778147016905997467,1778147016.9059978,-2.490727249776022,-0.9282312554172059,-1.952826976776123,-1.1616354149631043,1.1475168466567993,0.5366714596748352
1778147016925730972,1778147016.9257312,-2.49076754251589,-0.9281625312617798,-1.9527908563613892,-1.1616159838489075,1.1475821733474731,0.5366554260253906
1778147016945946628,1778147016.9459467,-2.4907355944262903,-0.9281950753978272,-1.9528306722640991,-1.1616559785655518,1.1475410461425781,0.5366067290306091
1778147016965845128,1778147016.9658453,-2.4907355944262903,-0.928166465168335,-1.9528511762619019,-1.1616405707648774,1.147573709487915,0.5366594791412354
1778147016985849962,1778147016.9858499,-2.4907355944262903,-0.9281624120524903,-1.9528552293777466,-1.1616159838489075,1.1475334167480469,0.536615252494812
1778147017005973153,1778147017.0059733,-2.4907189051257532,-0.9281867307475586,-1.9528388977050781,-1.1616441172412415,1.1475664377212524,0.536687433719635
1778147017025824209,1778147017.0258243,-2.4906910101519983,-0.9281791013530274,-1.9528388977050781,-1.161636398439743,1.1475292444229126,0.5366513729095459
1778147017045866630,1778147017.045867,-2.4907150904284876,-0.928211049442627,-1.952815055847168,-1.1616609257510682,1.1475783586502075,0.5366595387458801
1778147017065883972,1778147017.065884,-2.490706984196798,-0.9281867307475586,-1.9528429508209229,-1.1616559785655518,1.1475783586502075,0.5366352796554565
1778147017085820146,1778147017.0858202,-2.490695063267843,-0.9281380337527771,-1.9528146982192993,-1.1616559785655518,1.1475496292114258,0.5366193056106567
1778147017105804430,1778147017.1058047,-2.4907355944262903,-0.9281665247729798,-1.9528470039367676,-1.1616440278342743,1.147558331489563,0.5367159843444824
1778147017125929656,1778147017.1259298,-2.4907191435443323,-0.9281706970981141,-1.9528388977050781,-1.1616727870753785,1.1475696563720703,0.5366513133049011
1778147017145766244,1778147017.1457663,-2.49068266550173,-0.9281831544688721,-1.9528348445892334,-1.1616159540465851,1.147545337677002,0.5366435647010803
1778147017165836187,1778147017.1658363,-2.490723196660177,-0.9282027643970032,-1.9528428316116333,-1.1615998607924958,1.1475247144699097,0.5366796851158142
1778147017185761298,1778147017.1857615,-2.490711037312643,-0.9281706970981141,-1.9528594017028809,-1.1616363686374207,1.1475205421447754,0.5366796255111694
1778147017205876149,1778147017.2058764,-2.4906907717334192,-0.9281950753978272,-1.9528146982192993,-1.1616602104953309,1.147529125213623,0.5367034673690796
1778147017225904147,1778147017.2259042,-2.490682903920309,-0.9282033008388062,-1.952826976776123,-1.1616601806930085,1.1475496292114258,0.536615252494812
1778147017245815921,1778147017.245816,-2.49075156847109,-0.9281624120524903,-1.9528511762619019,-1.161586956386902,1.147507905960083,0.5366275310516357
1778147017265950305,1778147017.2659502,-2.4907313028918665,-0.9281624120524903,-1.9528306722640991,-1.16166444242511,1.1475292444229126,0.5366151928901672
1778147017285784978,1778147017.2857852,-2.49075156847109,-0.9281504911235352,-1.9528348445892334,-1.1616524916938324,1.1475492715835571,0.5366591811180115
1778147017305891697,1778147017.3058918,-2.490706745778219,-0.9281380337527771,-1.9528753757476807,-1.1616559785655518,1.1475696563720703,0.5366635918617249
1778147017325822006,1778147017.325822,-2.4907150904284876,-0.9281950753978272,-1.9528146982192993,-1.1616159540465851,1.147545337677002,0.5366714596748352
1778147017345823125,1778147017.3458233,-2.4907313028918665,-0.9282115262797852,-1.9528306722640991,-1.1616602104953309,1.1475163698196411,0.536647617816925
1778147017365776987,1778147017.365777,-2.4907150904284876,-0.9281832140735169,-1.9528790712356567,-1.1616117519191285,1.1475696563720703,0.5366595387458801
1778147017385870375,1778147017.3858705,-2.490695063267843,-0.9281665247729798,-1.9528511762619019,-1.1616192621043702,1.1475750207901,0.5366513133049011
1778147017406029213,1778147017.4060295,-2.490711037312643,-0.9281831544688721,-1.9528306722640991,-1.1616728466800232,1.147566318511963,0.5366800427436829
1778147017425839473,1778147017.4258394,-2.4907355944262903,-0.9282187980464478,-1.9528511762619019,-1.161595569258072,1.1475292444229126,0.5366511940956116
1778147017445835367,1778147017.4458354,-2.49068266550173,-0.9281791013530274,-1.9528430700302124,-1.1616602104953309,1.1475492715835571,0.536627471446991
1778147017465930561,1778147017.4659307,-2.4907150904284876,-0.9281499546817322,-1.9528552293777466,-1.1615752142718812,1.1475163698196411,0.5366315841674805
1778147017485980215,1778147017.4859803,-2.4907355944262903,-0.9281867903522034,-1.9528306722640991,-1.1616354149631043,1.147566318511963,0.5366554260253906
1778147017505947991,1778147017.505948,-2.4907475153552454,-0.9282027643970032,-1.9528110027313232,-1.1615879100612183,1.1474844217300415,0.5366919636726379
1778147017525931147,1778147017.5259314,-2.490699116383688,-0.9281581205180665,-1.9528229236602783,-1.1616202157786866,1.147562026977539,0.5366273522377014
1778147017545845752,1778147017.545846,-2.490702454243795,-0.9281706970981141,-1.9528511762619019,-1.1616559785655518,1.1475292444229126,0.5366554260253906
1778147017565867704,1778147017.565868,-2.490735117589132,-0.9281992477229615,-1.9528229236602783,-1.1616075199893494,1.1475292444229126,0.5366145372390747
1778147017585794687,1778147017.5857947,-2.490694824849264,-0.9281748098186036,-1.9528511762619019,-1.161668674354889,1.1475495100021362,0.5366352796554565
1778147017605876464,1778147017.6058767,-2.4907594362842005,-0.928174690609314,-1.952810525894165,-1.1615879100612183,1.1475409269332886,0.5366554260253906
1778147017625779819,1778147017.6257799,-2.4907191435443323,-0.9281463784030457,-1.952826976776123,-1.1616567534259339,1.147545337677002,0.5366392731666565
1778147017645912964,1778147017.6459131,-2.49069053331484,-0.9281581205180665,-1.9528429508209229,-1.1615955990603943,1.1475292444229126,0.5366511940956116
1778147017665697111,1778147017.665697,-2.490699116383688,-0.9281379741481324,-1.9528188705444336,-1.1616363686374207,1.1475539207458496,0.5366554260253906
1778147017685797659,1778147017.6857977,-2.4907150904284876,-0.9281624120524903,-1.95279860496521,-1.1616075199893494,1.147529125213623,0.5367081761360168
1778147017706024835,1778147017.7060251,-2.490772072468893,-0.9281463784030457,-1.9528753757476807,-1.1616602104953309,1.147520661354065,0.5366715788841248
1778147017725838682,1778147017.7258387,-2.4906707445727747,-0.9281909030726929,-1.9528146982192993,-1.1616202157786866,1.1475495100021362,0.5366435050964355
1778147017745764668,1778147017.7457647,-2.490727249776022,-0.928215281372406,-1.9528552293777466,-1.1615998309901734,1.14753258228302,0.5366792678833008
1778147017765807452,1778147017.7658074,-2.490727249776022,-0.9282068771174927,-1.952871322631836,-1.1616482895663758,1.1475367546081543,0.5366758108139038
1778147017785818135,1778147017.7858183,-2.4907107988940638,-0.9281344574740906,-1.95279860496521,-1.16160403311763,1.1475824117660522,0.5366683602333069
1778147017806261811,1778147017.8062618,-2.490744177495138,-0.9281385105899354,-1.9528429508209229,-1.1616482895663758,1.1475248336791992,0.5366188287734985
1778147017825996826,1778147017.8259969,-2.4907107988940638,-0.9281831544688721,-1.9528552293777466,-1.161611722116806,1.147589921951294,0.5366597175598145
1778147017850361606,1778147017.8503618,-2.4907315413104456,-0.9281831544688721,-1.9528110027313232,-1.1616602104953309,1.147589921951294,0.5366392731666565
1778147017865864585,1778147017.8658648,-2.4907637278186243,-0.9281791013530274,-1.9528429508209229,-1.1616117519191285,1.1475292444229126,0.5367039442062378
1778147017885927048,1778147017.8859272,-2.4907193819629114,-0.9281581205180665,-1.9528429508209229,-1.161620245581009,1.1475334167480469,0.5366522073745728
1778147017905856358,1778147017.9058564,-2.49070650735964,-0.9281991881183167,-1.9528629779815674,-1.1616602402976532,1.1475248336791992,0.536703884601593
1778147017925838507,1778147017.9258387,-2.49068266550173,-0.9281504911235352,-1.9528146982192993,-1.1616201561740418,1.1475292444229126,0.53667151927948
1778147017945972135,1778147017.9459724,-2.4907074610339563,-0.9281261128238221,-1.9528266191482544,-1.1616201859763642,1.1475661993026733,0.5366630554199219
1778147017965985712,1778147017.965986,-2.490788523350851,-0.9281421464732666,-1.9528266191482544,-1.161611722116806,1.147562026977539,0.5366350412368774
1778147017985726994,1778147017.985727,-2.49068266550173,-0.9281303447536011,-1.95279860496521,-1.1615997415832062,1.1475292444229126,0.5366630554199219
1778147018005899884,1778147018.0059,-2.490722958241598,-0.9281624120524903,-1.9528182744979858,-1.1616525214961548,1.1475249528884888,0.5366683602333069
1778147018025808609,1778147018.0258088,-2.4907150904284876,-0.9281950753978272,-1.9528388977050781,-1.1616321367076416,1.14755380153656,0.5366553664207458
1778147018045858700,1778147018.0458589,-2.4906988779651087,-0.9281950753978272,-1.9528748989105225,-1.1616236430457612,1.1475368738174438,0.5366673469543457
1778147018065881588,1778147018.0658817,-2.4907313028918665,-0.9281143707088013,-1.9528306722640991,-1.1616687041572114,1.1475495100021362,0.5366273522377014
1778147018085847955,1778147018.085848,-2.4907191435443323,-0.9281307619861145,-1.9528553485870361,-1.1616406303695221,1.1475123167037964,0.5366435050964355
1778147018106065736,1778147018.1060658,-2.4907031694995325,-0.9281458419612427,-1.9527868032455444,-1.1616729658893128,1.1475292444229126,0.5366392731666565
1778147018125775975,1778147018.125776,-2.4906347433673304,-0.9281220001033326,-1.9528146982192993,-1.1616354149631043,1.1475661993026733,0.5366511940956116
1778147018145779958,1778147018.14578,-2.4907355944262903,-0.9281540674022217,-1.9528264999389648,-1.1616440576365967,1.1475706100463867,0.5366307497024536
1778147018165778708,1778147018.1657789,-2.490694824849264,-0.9281706970981141,-1.952854871749878,-1.1616440576365967,1.1475577354431152,0.5366597175598145
1778147018185890763,1778147018.185891,-2.490699116383688,-0.9281463784030457,-1.9528145790100098,-1.1616398257068177,1.1475661993026733,0.5366230607032776
1778147018205894649,1778147018.2058947,-2.4907432238208216,-0.9281581801227112,-1.9528306722640991,-1.1616602104953309,1.1475410461425781,0.5366835594177246
1778147018225823912,1778147018.225824,-2.4906867186175745,-0.9281785053065796,-1.9528306722640991,-1.1616729658893128,1.1475249528884888,0.5366877317428589
1778147018245945637,1778147018.2459457,-2.490694824849264,-0.9281540674022217,-1.9528552293777466,-1.161607490187027,1.147562026977539,0.5366020202636719
1778147018265828804,1778147018.265829,-2.490694824849264,-0.9281581205180665,-1.9528224468231201,-1.1616398257068177,1.1475334167480469,0.5366554260253906
1778147018285861440,1778147018.2858615,-2.490695063267843,-0.9281950753978272,-1.9528552293777466,-1.1616559785655518,1.147541880607605,0.5366673469543457
1778147018305839020,1778147018.3058393,-2.4906626383410853,-0.9281748098186036,-1.952826976776123,-1.1616363686374207,1.1475495100021362,0.5366392731666565
1778147018325897011,1778147018.325897,-2.490706745778219,-0.9281831544688721,-1.9528348445892334,-1.1616610151580353,1.1475661993026733,0.5366392731666565
1778147018345894031,1778147018.3458943,-2.490711037312643,-0.9281832140735169,-1.9528831243515015,-1.1616687041572114,1.1475410461425781,0.5366511940956116
1778147018365735874,1778147018.365736,-2.4907754103290003,-0.9281706970981141,-1.9528224468231201,-1.1616602402976532,1.147520899772644,0.5366638898849487
1778147018385831806,1778147018.3858318,-2.490711037312643,-0.9281908434680481,-1.9528748989105225,-1.161647306089737,1.1475292444229126,0.5366673469543457
1778147018408232432,1778147018.4082325,-2.4907355944262903,-0.9281826180270691,-1.9528306722640991,-1.1617049735835572,1.147545337677002,0.5366715788841248
1778147018425880603,1778147018.4258807,-2.490739647542135,-0.9281872671893616,-1.9528748989105225,-1.161628083591797,1.1475738286972046,0.5366435050964355
1778147018445890405,1778147018.4458904,-2.4907313028918665,-0.9281385105899354,-1.9528629779815674,-1.161652223472931,1.1475249528884888,0.5366553664207458
1778147018465888082,1778147018.465888,-2.4907313028918665,-0.9281540674022217,-1.9528872966766357,-1.1616120499423523,1.1475334167480469,0.5366272926330566
1778147018485772724,1778147018.4857728,-2.4907191435443323,-0.9281219404986878,-1.9528266191482544,-1.1616000992110749,1.1475781202316284,0.5366477370262146
1778147018505847606,1778147018.5058477,-2.49068266550173,-0.9281499546817322,-1.9528306722640991,-1.1616482895663758,1.147545337677002,0.5366511940956116
1778147018525988283,1778147018.5259886,-2.490723435078756,-0.9281581205180665,-1.9528511762619019,-1.1616399449161072,1.1475495100021362,0.5366638898849487
1778147018546037083,1778147018.5460372,-2.490699116383688,-0.9281379741481324,-1.9528429508209229,-1.1616362494281312,1.1475292444229126,0.5366392731666565
1778147018565932079,1778147018.565932,-2.490699116383688,-0.9281624120524903,-1.9528552293777466,-1.1616559785655518,1.1475334167480469,0.5366596579551697
1778147018585845583,1778147018.5858457,-2.490699116383688,-0.9281540674022217,-1.9528348445892334,-1.1616079074195405,1.1475410461425781,0.5366145968437195
1778147018605836301,1778147018.6058364,-2.49068266550173,-0.9281581205180665,-1.9528511762619019,-1.1616481703570862,1.1475493907928467,0.5366392731666565
1778147018625755854,1778147018.625756,-2.4907432238208216,-0.9281624120524903,-1.9528470039367676,-1.1616201859763642,1.1475696563720703,0.5366750359535217
1778147018645744323,1778147018.6457446,-2.4907189051257532,-0.9281458419612427,-1.9528306722640991,-1.16161202014003,1.1475821733474731,0.5366596579551697
1778147018666306215,1778147018.6663065,-2.490723435078756,-0.9281540674022217,-1.9528753757476807,-1.161660061483719,1.1475493907928467,0.5366273522377014
1778147018686962368,1778147018.6869626,-2.490723196660177,-0.928174690609314,-1.9528671503067017,-1.161652223472931,1.147562026977539,0.5366511940956116
1778147018706036658,1778147018.7060368,-2.49074370065798,-0.9281581205180665,-1.952891230583191,-1.1616440576365967,1.1475660800933838,0.5367039442062378
1778147018726854765,1778147018.7268548,-2.490695063267843,-0.9281867307475586,-1.952883243560791,-1.161632166509964,1.147573709487915,0.5366596579551697
1778147018745788878,1778147018.745789,-2.490727249776022,-0.9281421464732666,-1.9528429508209229,-1.1616202753833313,1.1475377082824707,0.5366715788841248
1778147018765837179,1778147018.7658372,-2.4907150904284876,-0.9281624120524903,-1.9528429508209229,-1.1616280537894745,1.147512674331665,0.5366062521934509
1778147018785795703,1778147018.7857957,-2.490727249776022,-0.9281867307475586,-1.9528634548187256,-1.1616161328605195,1.1475738286972046,0.5366145968437195
1778147018805875307,1778147018.8058753,-2.4907472769366663,-0.9281504911235352,-1.9528264999389648,-1.1616079670241852,1.1475577354431152,0.5366476774215698
1778147018825873968,1778147018.825874,-2.490678612385885,-0.9281540674022217,-1.9528748989105225,-1.1616321367076416,1.1476141214370728,0.5366469621658325
1778147018845998312,1778147018.8459985,-2.4906907717334192,-0.9281748098186036,-1.9528470039367676,-1.1616161328605195,1.147520899772644,0.5366435050964355
1778147018865721714,1778147018.8657217,-2.4907031694995325,-0.9282074135592957,-1.9528266191482544,-1.161640004520752,1.147598147392273,0.5366147756576538
1778147018885820528,1778147018.8858206,-2.4907191435443323,-0.9281624120524903,-1.9528511762619019,-1.1616559785655518,1.1475334167480469,0.5366919636726379
1778147018905802515,1778147018.9058025,-2.490695063267843,-0.928154007797577,-1.9528306722640991,-1.1616202157786866,1.147562026977539,0.5366758704185486
1778147018925793705,1778147018.925794,-2.4907313028918665,-0.9281665247729798,-1.9528270959854126,-1.1616082948497315,1.1475250720977783,0.5366596579551697
1778147018945777517,1778147018.9457774,-2.4907355944262903,-0.9281908434680481,-1.9528470039367676,-1.161664144401886,1.1475292444229126,0.5366145968437195
1778147018965774982,1778147018.9657753,-2.4907355944262903,-0.9281705778888245,-1.9528387784957886,-1.1616242688945313,1.1475780010223389,0.5366673469543457
1778147018985916963,1778147018.985917,-2.490699116383688,-0.9281791013530274,-1.952802300453186,-1.1616440576365967,1.1476064920425415,0.5366231203079224
1778147019009869454,1778147019.0098696,-2.49068266550173,-0.9281831544688721,-1.9528146982192993,-1.1616399449161072,1.147520899772644,0.5366392731666565
1778147019025936269,1778147019.0259366,-2.490699116383688,-0.9281581205180665,-1.9528306722640991,-1.161660061483719,1.147610068321228,0.5366273522377014
1778147019045832914,1778147019.045833,-2.4907107988940638,-0.9281748098186036,-1.9528388977050781,-1.1616522532752533,1.1475780010223389,0.5366469621658325
1778147019065852462,1778147019.0658526,-2.4906707445727747,-0.9281581205180665,-1.9528388977050781,-1.1616399449161072,1.1475856304168701,0.5366596579551697
1778147019085851352,1778147019.0858514,-2.490739647542135,-0.928154007797577,-1.9528872966766357,-1.1616000694087525,1.147562026977539,0.536696195602417
1778147019105863122,1778147019.1058633,-2.4907472769366663,-0.9281339210322876,-1.9528306722640991,-1.1616600912860413,1.1475293636322021,0.5366308093070984
1778147019126085956,1778147019.126086,-2.490711037312643,-0.9281791013530274,-1.9528266191482544,-1.1617009204677125,1.1475493907928467,0.5366435050964355
1778147019145853567,1778147019.1458535,-2.4906790892230433,-0.9281867307475586,-1.9528552293777466,-1.1616082352450867,1.1475210189819336,0.5366392731666565
1778147019165825565,1778147019.1658256,-2.490715567265646,-0.9281540674022217,-1.952871322631836,-1.1616440874389191,1.147545337677002,0.5366145968437195
1778147019185783615,1778147019.1857836,-2.490711514149801,-0.9281540674022217,-1.952854871749878,-1.1616079074195405,1.1475738286972046,0.5366477370262146
1778147019205782489,1778147019.2057827,-2.490699116383688,-0.9281706970981141,-1.9528552293777466,-1.1616357129863282,1.1475577354431152,0.536696195602417
1778147019225833880,1778147019.2258341,-2.4907313028918665,-0.9281624120524903,-1.9528388977050781,-1.1616522532752533,1.1475247144699097,0.5366758108139038
1778147019245851442,1778147019.2458515,-2.4907594362842005,-0.9281706970981141,-1.952818751335144,-1.1616481405547638,1.1475939750671387,0.5366435050964355
1778147019266054760,1778147019.2660549,-2.4907026926623743,-0.9281872671893616,-1.9528589248657227,-1.1616362494281312,1.147598147392273,0.5366554260253906
1778147019288503286,1778147019.2885034,-2.49068266550173,-0.9281624120524903,-1.9528471231460571,-1.1616682571223755,1.147598147392273,0.5366553664207458
1778147019305914520,1778147019.3059146,-2.4907355944262903,-0.9281624120524903,-1.9528188705444336,-1.1616280239871521,1.147562026977539,0.5366554260253906
1778147019325854256,1778147019.3258543,-2.4907355944262903,-0.9281421464732666,-1.952871322631836,-1.1616079372218628,1.1475293636322021,0.536652147769928
1778147019345969751,1778147019.3459697,-2.4907432238208216,-0.9282152217677613,-1.9528229236602783,-1.1616357129863282,1.147520899772644,0.5366469621658325
1778147019365837346,1778147019.3658373,-2.49076754251589,-0.9281624120524903,-1.9528429508209229,-1.1616440576365967,1.1475495100021362,0.5366511940956116
1778147019385786665,1778147019.3857868,-2.490727249776022,-0.9281624120524903,-1.9528390169143677,-1.1616440576365967,1.1475369930267334,0.5366222858428955
1778147019405941510,1778147019.4059417,-2.4906907717334192,-0.9281504911235352,-1.9527987241744995,-1.1616362196258088,1.1475495100021362,0.5366919636726379
1778147019426440974,1778147019.426441,-2.490678612385885,-0.9281581205180665,-1.9528146982192993,-1.161660061483719,1.147545337677002,0.5366512537002563
1778147019445871943,1778147019.445872,-2.490727249776022,-0.9281665247729798,-1.9528511762619019,-1.1616161328605195,1.1475940942764282,0.5366477370262146
1778147019465957542,1778147019.4659576,-2.4907191435443323,-0.9282111090472718,-1.9528188705444336,-1.1616120499423523,1.1475898027420044,0.5366554260253906
1778147019485815979,1778147019.4858162,-2.4907031694995325,-0.9281950753978272,-1.9528671503067017,-1.161660061483719,1.147520899772644,0.5366631150245667
1778147019505945613,1778147019.5059457,-2.490727249776022,-0.9281748098186036,-1.9528306722640991,-1.1616161626628418,1.1475292444229126,0.5366638898849487
1778147019525844141,1778147019.5258443,-2.490662399922506,-0.9281504911235352,-1.952875018119812,-1.1616239708713074,1.147562026977539,0.5366596579551697
1778147019546041454,1778147019.5460415,-2.4907150904284876,-0.9281748098186036,-1.952871322631836,-1.1616440576365967,1.1475493907928467,0.5366511940956116
1778147019565768973,1778147019.565769,-2.4907432238208216,-0.9281303447536011,-1.9528511762619019,-1.161660061483719,1.1475780010223389,0.5366554260253906
1778147019585812622,1778147019.5858128,-2.490723435078756,-0.9281540674022217,-1.9528266191482544,-1.161655918960907,1.1475410461425781,0.5366673469543457
1778147019606012171,1778147019.6060123,-2.490727249776022,-0.9281581205180665,-1.9528470039367676,-1.161591963177063,1.1475738286972046,0.5367122888565063
1778147019625962317,1778147019.6259623,-2.490699116383688,-0.9281463784030457,-1.9528511762619019,-1.1616037052920838,1.1475125551223755,0.5366876721382141
1778147019645825142,1778147019.6458251,-2.490727249776022,-0.9281706374934693,-1.9528790712356567,-1.1616481405547638,1.1475661993026733,0.5366715788841248
1778147019665789310,1778147019.6657894,-2.4906743208514612,-0.9281624120524903,-1.9528229236602783,-1.1616161626628418,1.1475249528884888,0.5366595983505249
1778147019685780388,1778147019.6857805,-2.490694824849264,-0.9281706970981141,-1.95279860496521,-1.1616931122592469,1.1475292444229126,0.5366758108139038
1778147019709494697,1778147019.7094948,-2.4907031694995325,-0.9281791013530274,-1.9528063535690308,-1.161660061483719,1.1475577354431152,0.5366631746292114
1778147019725861397,1778147019.7258615,-2.49075156847109,-0.9281791013530274,-1.9528552293777466,-1.1616239708713074,1.1475292444229126,0.5366476774215698
1778147019745914961,1778147019.745915,-2.490702454243795,-0.9282033008388062,-1.9528748989105225,-1.1616440576365967,1.1475168466567993,0.5366273522377014
1778147019765901253,1778147019.7659013,-2.4907355944262903,-0.9281256955913086,-1.9528552293777466,-1.1616202157786866,1.1475780010223389,0.5367080569267273
1778147019785913090,1778147019.7859132,-2.4907432238208216,-0.9281624120524903,-1.9528027772903442,-1.1616361898234864,1.147512674331665,0.5366512537002563
1778147019805830482,1778147019.8058305,-2.490744177495138,-0.9281748098186036,-1.9528629779815674,-1.161652223472931,1.147562026977539,0.5366351008415222
1778147019826279447,1778147019.8262796,-2.4906867186175745,-0.9281581205180665,-1.9528429508209229,-1.1616239708713074,1.1475250720977783,0.5366351008415222
1778147019845819577,1778147019.8458197,-2.4906988779651087,-0.9281344574740906,-1.9528224468231201,-1.1615919035724183,1.1475577354431152,0.5367038249969482
1778147019865846472,1778147019.8658466,-2.4907107988940638,-0.928105966453888,-1.9528790712356567,-1.1616321069053193,1.1475536823272705,0.5366750359535217
1778147019886919612,1778147019.8869197,-2.490694824849264,-0.9282068771174927,-1.9528748989105225,-1.1616724294475098,1.1475661993026733,0.536675751209259
1778147019905938952,1778147019.905939,-2.490694824849264,-0.9281143707088013,-1.9528348445892334,-1.1616357129863282,1.147520899772644,0.5365818738937378
1778147019925858121,1778147019.9258583,-2.4907477537738245,-0.9281950753978272,-1.9528470039367676,-1.1616440576365967,1.147512674331665,0.5366554260253906
1778147019946838000,1778147019.9468381,-2.4907193819629114,-0.9281826180270691,-1.9528470039367676,-1.1616563361934205,1.1475660800933838,0.5366715788841248
1778147019965798298,1778147019.9657986,-2.4907150904284876,-0.9281581205180665,-1.9528306722640991,-1.16161202014003,1.1475780010223389,0.5366715788841248
1778147019985805313,1778147019.9858055,-2.4907150904284876,-0.9281791013530274,-1.9528306722640991,-1.1616082948497315,1.1475536823272705,0.5366470217704773
1778147020005845946,1778147020.005846,-2.4907107988940638,-0.9282347720912476,-1.9528188705444336,-1.1616641742042084,1.1475250720977783,0.5366105437278748
1778147020025921829,1778147020.0259218,-2.4907150904284876,-0.9281826180270691,-1.9528511762619019,-1.1616682273200531,1.1475210189819336,0.5366063714027405
1778147020045880576,1778147020.0458808,-2.4906988779651087,-0.9281831544688721,-1.9528470039367676,-1.161623941068985,1.1475328207015991,0.5366799831390381
1778147020065797605,1778147020.0657978,-2.490727249776022,-0.9281950753978272,-1.952826976776123,-1.1616600912860413,1.147520899772644,0.5366266965866089
1778147020085903733,1778147020.0859036,-2.490744177495138,-0.9281624120524903,-1.9528145790100098,-1.161676750784256,1.1476057767868042,0.5367038249969482
1778147020109585761,1778147020.1095858,-2.49074370065798,-0.9281581205180665,-1.952883243560791,-1.16161202014003,1.1475334167480469,0.5366673469543457
1778147020126072091,1778147020.1260722,-2.4907432238208216,-0.9281581205180665,-1.952863097190857,-1.161623941068985,1.1475577354431152,0.5366835594177246
1778147020145843762,1778147020.1458437,-2.490694824849264,-0.9281504911235352,-1.9528146982192993,-1.1616321367076416,1.147545337677002,0.5366435050964355
1778147020165837913,1778147020.165838,-2.49066669145693,-0.928174690609314,-1.9528594017028809,-1.1616357129863282,1.1476017236709595,0.5366961359977722
1778147020185843370,1778147020.1858435,-2.490727249776022,-0.9281831544688721,-1.9528306722640991,-1.161623941068985,1.1476101875305176,0.5366358757019043
1778147020206091402,1778147020.2060916,-2.4907475153552454,-0.9282033008388062,-1.9528064727783203,-1.1616522532752533,1.1475703716278076,0.5366470217704773
1778147020228078245,1778147020.2280784,-2.4907191435443323,-0.9281220597079773,-1.9528511762619019,-1.1616723400405427,1.1475660800933838,0.5366308689117432
1778147020245991181,1778147020.2459912,-2.4907313028918665,-0.9281504911235352,-1.9528183937072754,-1.1616036158851166,1.1475293636322021,0.5366147756576538
1778147020267306094,1778147020.267306,-2.4907191435443323,-0.9281706970981141,-1.9528429508209229,-1.1616283816150208,1.1475369930267334,0.5367038249969482
1778147020285952680,1778147020.2859528,-2.4906466642962855,-0.9281867307475586,-1.9528224468231201,-1.161652223472931,1.147545337677002,0.5366792678833008
1778147020305850422,1778147020.3058505,-2.4907026926623743,-0.9281872075847168,-1.9528629779815674,-1.1616156262210389,1.147598147392273,0.5366554260253906
1778147020325815671,1778147020.3258157,-2.4906869570361536,-0.9281581205180665,-1.9528470039367676,-1.161648229961731,1.1475250720977783,0.536635160446167
1778147020345836723,1778147020.3458369,-2.490723435078756,-0.9281624120524903,-1.9528306722640991,-1.1616726082614441,1.1475083827972412,0.5366511940956116
1778147020366270329,1778147020.3662703,-2.490699116383688,-0.9281581205180665,-1.9528145790100098,-1.1615599256804963,1.147598147392273,0.5366673469543457
1778147020386526021,1778147020.386526,-2.490699116383688,-0.9281624120524903,-1.9528470039367676,-1.1616120797446747,1.1475493907928467,0.5366435050964355
1778147020405908362,1778147020.4059086,-2.49076754251589,-0.9281540674022217,-1.9528348445892334,-1.1616321367076416,1.147598147392273,0.536642849445343
1778147020425938031,1778147020.4259381,-2.490706745778219,-0.9281665247729798,-1.9528146982192993,-1.1616848570159455,1.1475733518600464,0.5366595983505249
1778147020445814506,1778147020.4458146,-2.4907313028918665,-0.9281503719142457,-1.9528348445892334,-1.1615919333747406,1.1475821733474731,0.5366147756576538
1778147020465880918,1778147020.4658809,-2.4907026926623743,-0.9281706970981141,-1.9528146982192993,-1.1616357129863282,1.147545337677002,0.5366393327713013
1778147020485912890,1778147020.485913,-2.490727249776022,-0.928195135002472,-1.9528306722640991,-1.1616476041129609,1.1475293636322021,0.536675751209259
1778147020505890530,1778147020.5058906,-2.4907313028918665,-0.9281380337527771,-1.9528266191482544,-1.1616242986968537,1.1475287675857544,0.5366876721382141
1778147020525982905,1778147020.525983,-2.490699116383688,-0.9281950753978272,-1.9528511762619019,-1.1615881484797974,1.1475328207015991,0.5366435050964355
1778147020545871074,1778147020.5458713,-2.4907313028918665,-0.9281748098186036,-1.952871322631836,-1.1616682273200531,1.1475493907928467,0.5366393327713013
1778147020566032311,1778147020.5660324,-2.490678612385885,-0.9281665247729798,-1.9528146982192993,-1.1616927248290558,1.1475410461425781,0.5366554260253906
1778147020586021817,1778147020.586022,-2.490711037312643,-0.928195135002472,-1.9528470039367676,-1.1616726082614441,1.1475495100021362,0.536675751209259
1778147020605828756,1778147020.605829,-2.490711037312643,-0.9281499546817322,-1.9528470039367676,-1.161591963177063,1.1475410461425781,0.5366554260253906
1778147020625967805,1778147020.625968,-2.4907191435443323,-0.9282027643970032,-1.9528748989105225,-1.1616600912860413,1.1475744247436523,0.5366595983505249
1778147020645917068,1778147020.6459172,-2.490727249776022,-0.9281581205180665,-1.9528266191482544,-1.161651687031128,1.1475334167480469,0.536675751209259
1778147020666014334,1778147020.6660144,-2.4906869570361536,-0.9281463784030457,-1.952826976776123,-1.1615960162929078,1.1475821733474731,0.5366189479827881
1778147020685730618,1778147020.6857307,-2.4907313028918665,-0.9281344574740906,-1.9528266191482544,-1.161652223472931,1.1475696563720703,0.5366554260253906
1778147020706256449,1778147020.7062564,-2.4907072226153772,-0.9281581205180665,-1.9527945518493652,-1.16161202014003,1.1475410461425781,0.53667151927948
1778147020725948064,1778147020.7259483,-2.490711037312643,-0.9281504911235352,-1.9528671503067017,-1.1616321069053193,1.1475334167480469,0.5366673469543457
1778147020745942565,1778147020.7459426,-2.490727249776022,-0.9282271426967164,-1.9528225660324097,-1.161660061483719,1.1475660800933838,0.5366274118423462
1778147020765814484,1778147020.7658145,-2.4907191435443323,-0.9281463784030457,-1.9528188705444336,-1.1616280239871521,1.147598147392273,0.5366231799125671
1778147020785928666,1778147020.7859287,-2.49068266550173,-0.9281706970981141,-1.9528511762619019,-1.1616403025439759,1.1475210189819336,0.5366520881652832
1778147020805892694,1778147020.8058927,-2.490727249776022,-0.9281913799098511,-1.9528306722640991,-1.1615959864905854,1.1475940942764282,0.5366512537002563
1778147020825892009,1778147020.8258922,-2.490694824849264,-0.9281950753978272,-1.9528470039367676,-1.1616321367076416,1.1475577354431152,0.5366876721382141
1778147020845907781,1778147020.845908,-2.490678612385885,-0.9281665247729798,-1.9528266191482544,-1.161588118677475,1.1476142406463623,0.5366476774215698
1778147020866663732,1778147020.8666637,-2.490711037312643,-0.9281665247729798,-1.9528470039367676,-1.1616440576365967,1.1475410461425781,0.5366477370262146
1778147020885895020,1778147020.885895,-2.4907072226153772,-0.9281624120524903,-1.9528146982192993,-1.1616444450667878,1.1475493907928467,0.5366470217704773
1778147020905886416,1778147020.9058867,-2.490678612385885,-0.9281380337527771,-1.9528348445892334,-1.1616522532752533,1.1475293636322021,0.5366351008415222
1778147020925836474,1778147020.9258366,-2.490706745778219,-0.9281991881183167,-1.9528388977050781,-1.1616239708713074,1.1475043296813965,0.5366673469543457
1778147020945868491,1778147020.9458687,-2.4907150904284876,-0.9281706970981141,-1.9528106451034546,-1.1616120499423523,1.1475577354431152,0.5366554260253906
1778147020965806870,1778147020.965807,-2.4907191435443323,-0.9282152217677613,-1.952810525894165,-1.1616243583014985,1.147586464881897,0.5366512537002563
1778147020986712196,1778147020.9867125,-2.4907355944262903,-0.9281826180270691,-1.952871322631836,-1.1616481405547638,1.1475334167480469,0.5366351008415222
1778147021005824910,1778147021.005825,-2.4907594362842005,-0.9281826180270691,-1.9528629779815674,-1.1616321367076416,1.1475083827972412,0.5366351008415222
1778147021025899217,1778147021.0258994,-2.4907191435443323,-0.9282027643970032,-1.9528753757476807,-1.1616726082614441,1.1475780010223389,0.5366315841674805
1778147021046573160,1778147021.0465732,-2.4906907717334192,-0.9281343978694458,-1.9528306722640991,-1.161616103058197,1.1475493907928467,0.5366512537002563
1778147021065812756,1778147021.0658128,-2.490711037312643,-0.9282111090472718,-1.9528348445892334,-1.1616522532752533,1.1475410461425781,0.5366637706756592
1778147021085824675,1778147021.085825,-2.4907475153552454,-0.9281826776317139,-1.9527982473373413,-1.1616440278342743,1.147545337677002,0.5366476774215698
1778147021105787474,1778147021.1057875,-2.490763489400045,-0.9281748098186036,-1.9528594017028809,-1.1615995925715943,1.1475577354431152,0.536663830280304
1778147021125899686,1778147021.1258998,-2.490711514149801,-0.9281540674022217,-1.9528470039367676,-1.1616522830775757,1.1475083827972412,0.536675751209259
1778147021145753376,1778147021.1457534,-2.49075156847109,-0.9281872671893616,-1.9528348445892334,-1.161615566616394,1.1475780010223389,0.5366231203079224
1778147021165928493,1778147021.1659286,-2.490682903920309,-0.9282027643970032,-1.9528266191482544,-1.1616808039001008,1.1475614309310913,0.5366919040679932
1778147021186516048,1778147021.186516,-2.490727249776022,-0.9281623524478455,-1.9528388977050781,-1.1615960460952302,1.1475293636322021,0.5366595983505249
1778147021205810081,1778147021.2058103,-2.4907355944262903,-0.9281540674022217,-1.9528387784957886,-1.161616103058197,1.1475781202316284,0.5366392731666565
1778147021226024686,1778147021.2260249,-2.4907026926623743,-0.9281540674022217,-1.9528145790100098,-1.1616522532752533,1.1475210189819336,0.5366553664207458
1778147021245811529,1778147021.2458115,-2.4906907717334192,-0.9281624120524903,-1.9528229236602783,-1.1616280537894745,1.1475577354431152,0.5366232395172119
1778147021265775963,1778147021.265776,-2.4907150904284876,-0.9281706970981141,-1.9528348445892334,-1.1616481405547638,1.1475250720977783,0.5366190671920776
1778147021285865383,1778147021.2858655,-2.490723196660177,-0.9281748098186036,-1.9528388977050781,-1.1616362196258088,1.1475660800933838,0.5366756916046143
1778147021305821952,1778147021.3058221,-2.4907191435443323,-0.9281624120524903,-1.9528306722640991,-1.1616399449161072,1.147545337677002,0.5366554856300354
1778147021325955309,1778147021.3259554,-2.490711514149801,-0.9282033008388062,-1.9528387784957886,-1.1616321367076416,1.1475493907928467,0.5366595983505249
1778147021345870565,1778147021.3458707,-2.4907594362842005,-0.9281706374934693,-1.9528753757476807,-1.1616522532752533,1.1475493907928467,0.5366554260253906
1778147021365888278,1778147021.3658884,-2.4907353560077112,-0.9281143707088013,-1.9528629779815674,-1.1616082948497315,1.1475898027420044,0.5366960763931274
1778147021385852738,1778147021.3858528,-2.49075156847109,-0.9281748098186036,-1.9527950286865234,-1.1616440576365967,1.1475493907928467,0.5366554260253906
1778147021405844225,1778147021.4058444,-2.490711037312643,-0.9281421464732666,-1.9528470039367676,-1.1616560083678742,1.1475495100021362,0.5366190075874329
1778147021428170184,1778147021.4281704,-2.490694824849264,-0.9281706970981141,-1.9528511762619019,-1.161592261200287,1.1475410461425781,0.5366266965866089
1778147021445781438,1778147021.4457817,-2.4907432238208216,-0.9282152217677613,-1.952871322631836,-1.1616641145995636,1.1475210189819336,0.53667151927948
1778147021465837360,1778147021.4658375,-2.4907031694995325,-0.9281540674022217,-1.9528266191482544,-1.1616600316813965,1.1475820541381836,0.5366351008415222
1778147021485859547,1778147021.4858596,-2.49075156847109,-0.9281540674022217,-1.9528634548187256,-1.1615960162929078,1.1475127935409546,0.5366673469543457
1778147021505781271,1778147021.5057814,-2.490699116383688,-0.9281706374934693,-1.9528348445892334,-1.1616161626628418,1.1475660800933838,0.5366918444633484
1778147021525877281,1778147021.5258775,-2.4907031694995325,-0.9281831544688721,-1.9528511762619019,-1.1616316002658387,1.1475493907928467,0.53667151927948
1778147021545860130,1778147021.5458603,-2.490727249776022,-0.9281867307475586,-1.9528188705444336,-1.1616723102382203,1.147562026977539,0.5366512537002563
1778147021566102105,1778147021.566102,-2.4907026926623743,-0.9281380337527771,-1.9528306722640991,-1.1616001588157197,1.1475780010223389,0.5366393327713013
1778147021585958461,1778147021.5859585,-2.490723196660177,-0.9282068771174927,-1.9528470039367676,-1.161660061483719,1.1475334167480469,0.5366756916046143
1778147021605774371,1778147021.6057744,-2.490723435078756,-0.9281908434680481,-1.9528306722640991,-1.1616079968265076,1.1475334167480469,0.5366673469543457
1778147021625929965,1778147021.62593,-2.4906464258777063,-0.9281665247729798,-1.9528589248657227,-1.1616079074195405,1.1475536823272705,0.5366631746292114
1778147021645826302,1778147021.6458263,-2.4907031694995325,-0.9282027643970032,-1.9528789520263672,-1.1616440576365967,1.1475495100021362,0.5366393327713013
1778147021665927092,1778147021.6659272,-2.4907313028918665,-0.9281624120524903,-1.9528146982192993,-1.1616725784591218,1.1475210189819336,0.5366590023040771
1778147021685824931,1778147021.685825,-2.490727249776022,-0.9281624120524903,-1.9528348445892334,-1.1616522532752533,1.147562026977539,0.5366876125335693
1778147021705974404,1778147021.7059746,-2.4907074610339563,-0.9281303447536011,-1.9528306722640991,-1.161656306391098,1.147545337677002,0.5366190075874329
1778147021726034594,1778147021.7260349,-2.4907150904284876,-0.9282111090472718,-1.9528225660324097,-1.1616440576365967,1.1475821733474731,0.5366435050964355
1778147021745815445,1778147021.7458158,-2.4907355944262903,-0.9281624716571351,-1.9528348445892334,-1.1616202157786866,1.1475493907928467,0.5366799235343933
1778147021765839388,1778147021.7658396,-2.490678373967306,-0.9281380337527771,-1.9528145790100098,-1.1616481703570862,1.1475293636322021,0.5366512537002563
1778147021785820007,1778147021.78582,-2.4907355944262903,-0.9281908434680481,-1.9528511762619019,-1.1616481405547638,1.1475495100021362,0.53667151927948
1778147021805803659,1778147021.8058038,-2.49068266550173,-0.9281950753978272,-1.9528224468231201,-1.1616723400405427,1.1475780010223389,0.5366232395172119
1778147021825862627,1778147021.825863,-2.490727249776022,-0.9281867307475586,-1.9528552293777466,-1.161624328499176,1.1475898027420044,0.5366793274879456
1778147021848058950,1778147021.848059,-2.490694824849264,-0.9281791013530274,-1.952818751335144,-1.1615959864905854,1.1475369930267334,0.5367037653923035
1778147021866064984,1778147021.866065,-2.4907315413104456,-0.9281665247729798,-1.9528511762619019,-1.1616280239871521,1.1475369930267334,0.5366435050964355
1778147021885776070,1778147021.8857763,-2.490727249776022,-0.9281907838634034,-1.9528430700302124,-1.1616280239871521,1.1475821733474731,0.5366267561912537
1778147021905972472,1778147021.9059725,-2.49072772661318,-0.9281706374934693,-1.9528552293777466,-1.1616399449161072,1.1475377082824707,0.5366435050964355
1778147021925875151,1778147021.9258754,-2.4907315413104456,-0.9281748098186036,-1.9528188705444336,-1.1616239708713074,1.1475495100021362,0.5366595983505249
1778147021945799077,1778147021.9457994,-2.4906824270831507,-0.9281420868686219,-1.9528388977050781,-1.1616202157786866,1.1475369930267334,0.5366995334625244
1778147021965891544,1778147021.9658916,-2.49069053331484,-0.9281992477229615,-1.9528470039367676,-1.1616764527610322,1.1475410461425781,0.5366554260253906
1778147021985738938,1778147021.9857392,-2.4907475153552454,-0.9281914395144959,-1.9528388977050781,-1.1616362196258088,1.147512674331665,0.5366673469543457
1778147022005925163,1778147022.0059252,-2.490727249776022,-0.9281791013530274,-1.952806830406189,-1.1616481107524415,1.1475293636322021,0.5366190075874329
1778147022027997012,1778147022.027997,-2.4906862417804163,-0.9281581205180665,-1.9528470039367676,-1.1616280537894745,1.147545337677002,0.5366512537002563
1778147022045820952,1778147022.045821,-2.490694586430685,-0.928154007797577,-1.9528470039367676,-1.1616481703570862,1.1475660800933838,0.5366476774215698
1778147022065885198,1778147022.0658853,-2.4906862417804163,-0.9281665247729798,-1.95279860496521,-1.1616239112666626,1.1475329399108887,0.536635160446167
1778147022085786452,1778147022.0857866,-2.4907074610339563,-0.928154007797577,-1.9528387784957886,-1.1616242986968537,1.1475369930267334,0.5366876125335693
1778147022105930222,1778147022.1059303,-2.490727249776022,-0.9281992477229615,-1.9528872966766357,-1.161652223472931,1.1475696563720703,0.5366960167884827
1778147022125832898,1778147022.125833,-2.4906988779651087,-0.928195135002472,-1.9528429508209229,-1.161616103058197,1.1475660800933838,0.5366953611373901
1778147022146122122,1778147022.1461225,-2.49070650735964,-0.9282187980464478,-1.9528266191482544,-1.1616723102382203,1.147545337677002,0.5366637706756592
1778147022166397091,1778147022.1663973,-2.4906907717334192,-0.9281338614276429,-1.9528388977050781,-1.1616481703570862,1.1475334167480469,0.5366267561912537
1778147022185888661,1778147022.1858888,-2.4906705061541956,-0.9281791013530274,-1.9528388977050781,-1.161660061483719,1.1475334167480469,0.53667151927948
1778147022205785358,1778147022.2057855,-2.4907150904284876,-0.928195135002472,-1.9528388977050781,-1.161607877617218,1.1475369930267334,0.5366190075874329
1778147022225895934,1778147022.2258961,-2.490727488194601,-0.9282027643970032,-1.9528470039367676,-1.1616079074195405,1.1475410461425781,0.5366393327713013
1778147022245934465,1778147022.2459347,-2.4907313028918665,-0.9281748098186036,-1.9528671503067017,-1.1616642040065308,1.1475293636322021,0.5366637706756592
1778147022265962051,1778147022.2659621,-2.4907191435443323,-0.9281178277781983,-1.9527945518493652,-1.1616079074195405,1.1475210189819336,0.5366393327713013
1778147022286093069,1778147022.2860932,-2.49074370065798,-0.9281255167773743,-1.9527987241744995,-1.1616559785655518,1.1475334167480469,0.5366756916046143
1778147022306903518,1778147022.3069036,-2.4907353560077112,-0.9281748098186036,-1.9528264999389648,-1.1616082948497315,1.1475536823272705,0.5366673469543457
1778147022325847294,1778147022.3258474,-2.4907313028918665,-0.9281908434680481,-1.9528552293777466,-1.1616399449161072,1.1475744247436523,0.5366393327713013
1778147022347202885,1778147022.347203,-2.490678612385885,-0.9282235664180298,-1.952871322631836,-1.1616642040065308,1.1475493907928467,0.5366595983505249
1778147022365824615,1778147022.3658247,-2.4907355944262903,-0.928154007797577,-1.9528388977050781,-1.1616522830775757,1.1475496292114258,0.53667151927948
1778147022385795456,1778147022.3857956,-2.490695063267843,-0.9281706970981141,-1.9528266191482544,-1.1616280537894745,1.1475204229354858,0.5366876125335693
1778147022405841999,1778147022.405842,-2.4906910101519983,-0.9281624120524903,-1.952883243560791,-1.1616120797446747,1.1475534439086914,0.53667151927948
1778147022426008391,1778147022.4260085,-2.490723435078756,-0.9281791013530274,-1.9528428316116333,-1.1616440874389191,1.1475334167480469,0.5366232395172119
1778147022448352877,1778147022.4483528,-2.490699116383688,-0.9281379741481324,-1.9528836011886597,-1.1616601210883637,1.147529125213623,0.5366673469543457
1778147022465841741,1778147022.4658418,-2.4906867186175745,-0.9281867307475586,-1.9527945518493652,-1.1616559487632294,1.1475826501846313,0.5366637706756592
1778147022485981266,1778147022.4859812,-2.4907355944262903,-0.9281624120524903,-1.9528429508209229,-1.1616161328605195,1.1475247144699097,0.5366393327713013
1778147022505829232,1778147022.5058293,-2.4907150904284876,-0.928154007797577,-1.9528511762619019,-1.161652223472931,1.1475334167480469,0.536675751209259
1778147022525823023,1778147022.525823,-2.4907072226153772,-0.928195135002472,-1.9528872966766357,-1.1616440576365967,1.1475621461868286,0.5366799235343933
1778147022546031555,1778147022.5460317,-2.490706984196798,-0.9281791013530274,-1.9528348445892334,-1.1616079670241852,1.1475577354431152,0.5366513133049011
1778147022566552280,1778147022.5665524,-2.4907191435443323,-0.928195135002472,-1.9527987241744995,-1.1616600316813965,1.1475577354431152,0.5366267561912537
1778147022587505753,1778147022.5875058,-2.4907191435443323,-0.9281463187984009,-1.9528671503067017,-1.1616000992110749,1.1475334167480469,0.5366512537002563
1778147022605889413,1778147022.6058896,-2.490694824849264,-0.9281665247729798,-1.9528388977050781,-1.1616321367076416,1.147545337677002,0.5366834402084351
1778147022627255181,1778147022.6272554,-2.490699116383688,-0.9281665247729798,-1.9528511762619019,-1.1616517168334504,1.1475577354431152,0.5366274118423462
1778147022645816532,1778147022.6458168,-2.4907150904284876,-0.9281624120524903,-1.9528021812438965,-1.161676750784256,1.1475162506103516,0.5366595983505249
1778147022665795296,1778147022.6657953,-2.4906907717334192,-0.9281748098186036,-1.9528470039367676,-1.16161202014003,1.1475120782852173,0.5366435050964355
1778147022686090673,1778147022.686091,-2.4907313028918665,-0.9281748098186036,-1.9528790712356567,-1.1616600316813965,1.1475496292114258,0.5366595983505249
1778147022705972917,1778147022.7059731,-2.4907026926623743,-0.928154007797577,-1.9528511762619019,-1.1616481703570862,1.1475987434387207,0.5366351008415222
1778147022725709042,1778147022.7257092,-2.490699116383688,-0.9281498950770875,-1.9528552293777466,-1.1616481405547638,1.1475707292556763,0.5366834402084351
1778147022745830280,1778147022.7458305,-2.490711037312643,-0.9281867307475586,-1.9528794288635254,-1.1616362494281312,1.1475696563720703,0.5366834998130798
1778147022766370895,1778147022.766371,-2.490739170704977,-0.9281582993320008,-1.952871322631836,-1.1616927546313782,1.1475664377212524,0.5366309881210327
1778147022785882041,1778147022.7858822,-2.490711037312643,-0.9281665247729798,-1.9528388977050781,-1.1616563659957428,1.1475825309753418,0.5366595983505249
1778147022805824001,1778147022.805824,-2.490739647542135,-0.9281463784030457,-1.9528552293777466,-1.1616321367076416,1.147545337677002,0.5366595983505249
1778147022825960828,1778147022.8259609,-2.490739647542135,-0.9281296891025086,-1.9528388977050781,-1.1615959864905854,1.147553563117981,0.5366309881210327
1778147022845898256,1778147022.8458984,-2.49075156847109,-0.9281385701945801,-1.9528594017028809,-1.1616481703570862,1.1475738286972046,0.5366673469543457
1778147022866737159,1778147022.8667374,-2.4907551447497767,-0.9281832140735169,-1.9528470039367676,-1.1616120499423523,1.1475038528442383,0.5366637706756592
1778147022885825719,1778147022.8858259,-2.4907475153552454,-0.9281624120524903,-1.9528790712356567,-1.1616559785655518,1.1475825309753418,0.5366876125335693
1778147022905709318,1778147022.9057095,-2.490711037312643,-0.9281873267940064,-1.9528429508209229,-1.1616161924651642,1.1475621461868286,0.5366309285163879
1778147022925892031,1778147022.925892,-2.490739170704977,-0.9281706970981141,-1.9528388977050781,-1.161623941068985,1.1475986242294312,0.536635160446167
1778147022945901190,1778147022.9459014,-2.4907313028918665,-0.9281099599650879,-1.9528306722640991,-1.1616682273200531,1.1475495100021362,0.5366393327713013
1778147022965781970,1778147022.9657822,-2.4907313028918665,-0.9282348913005372,-1.9528224468231201,-1.1616766911796113,1.1475462913513184,0.5366799235343933
1778147022985869744,1778147022.98587,-2.490763489400045,-0.9281872671893616,-1.9528589248657227,-1.161628083591797,1.147545337677002,0.5366392731666565
1778147023005657042,1778147023.0056572,-2.4907594362842005,-0.9281706970981141,-1.9528388977050781,-1.1616362196258088,1.1475577354431152,0.5365980863571167
1778147023025950983,1778147023.0259511,-2.490699116383688,-0.9281950753978272,-1.9528348445892334,-1.1616481405547638,1.1475248336791992,0.5366674065589905
1778147023045763501,1778147023.0457637,-2.4907031694995325,-0.9282033008388062,-1.9528913497924805,-1.161660061483719,1.1475621461868286,0.5366673469543457
1778147023065802560,1778147023.0658026,-2.4907432238208216,-0.9281908434680481,-1.9528387784957886,-1.1616280239871521,1.1475824117660522,0.5366674065589905
1778147023085826230,1778147023.0858264,-2.490695063267843,-0.9281504315188904,-1.9528470039367676,-1.1616399747184296,1.1475621461868286,0.5366918444633484
1778147023105818572,1778147023.1058187,-2.4907150904284876,-0.9281624120524903,-1.9528470039367676,-1.1616079074195405,1.1475166082382202,0.5366435050964355
1778147023125950641,1778147023.1259508,-2.49068266550173,-0.9281499546817322,-1.9528348445892334,-1.1616356831840058,1.1475248336791992,0.5366393327713013
1778147023146476592,1778147023.1464767,-2.4907150904284876,-0.9281344574740906,-1.9527945518493652,-1.161652223472931,1.1475210189819336,0.536699652671814
1778147023165807277,1778147023.1658075,-2.490711037312643,-0.9281706970981141,-1.9528470039367676,-1.1616522532752533,1.147529125213623,0.5366512537002563
1778147023185806387,1778147023.1858065,-2.490694824849264,-0.9281504911235352,-1.9528266191482544,-1.1616202157786866,1.1475367546081543,0.5366148352622986
1778147023205789770,1778147023.2057898,-2.490706745778219,-0.9281261128238221,-1.9528552293777466,-1.1616321367076416,1.1475495100021362,0.53667151927948
1778147023226099614,1778147023.2260997,-2.490715567265646,-0.9281790417483826,-1.9528794288635254,-1.1616641742042084,1.147520661354065,0.5366435050964355
1778147023248078703,1778147023.2480786,-2.4906745592700403,-0.9281624120524903,-1.9528995752334595,-1.1616559785655518,1.1475824117660522,0.5366834402084351
1778147023265941044,1778147023.2659411,-2.490711037312643,-0.9282111686519166,-1.952750325202942,-1.1616522532752533,1.147508144378662,0.5367037653923035
1778147023286544090,1778147023.2865443,-2.490755621586935,-0.9281425637057801,-1.9528789520263672,-1.161604182129242,1.1475409269332886,0.5366554260253906
1778147023305838291,1778147023.3058383,-2.4906907717334192,-0.9281707567027588,-1.9528552293777466,-1.1616476339152833,1.1475410461425781,0.5366595983505249
1778147023326960797,1778147023.326961,-2.490678612385885,-0.9281831544688721,-1.9528748989105225,-1.1616321069053193,1.1475249528884888,0.5367037057876587
1778147023345786458,1778147023.3457866,-2.4907191435443323,-0.9281581205180665,-1.9528146982192993,-1.1616723400405427,1.1475248336791992,0.5366392731666565
1778147023365825586,1778147023.3658257,-2.49068266550173,-0.9281624120524903,-1.9528306722640991,-1.1616440874389191,1.147586703300476,0.5366799235343933
1778147023385841821,1778147023.385842,-2.4907355944262903,-0.9281581801227112,-1.9528629779815674,-1.1616362196258088,1.1475334167480469,0.5366470813751221
1778147023405858459,1778147023.4058588,-2.4906702677356165,-0.9281540674022217,-1.9528589248657227,-1.1616600316813965,1.1475334167480469,0.5366512537002563
1778147023429064140,1778147023.4290643,-2.4907031694995325,-0.9281385105899354,-1.9528306722640991,-1.161620245581009,1.1475367546081543,0.5366512537002563
1778147023445898005,1778147023.445898,-2.490678612385885,-0.9281624120524903,-1.9528552293777466,-1.1616123777678986,1.1475334167480469,0.5366393327713013
1778147023465907001,1778147023.465907,-2.4907191435443323,-0.9281624120524903,-1.9528306722640991,-1.161575899725296,1.147553563117981,0.5366554260253906
1778147023485822770,1778147023.485823,-2.490727249776022,-0.9281791013530274,-1.952818751335144,-1.1615960162929078,1.147545337677002,0.5366512537002563
1778147023505827580,1778147023.5058277,-2.490699116383688,-0.9281581205180665,-1.9528348445892334,-1.1615919333747406,1.1475334167480469,0.5366554260253906
1778147023525763536,1778147023.5257638,-2.490723196660177,-0.9281665247729798,-1.9528589248657227,-1.1617008608630677,1.1475738286972046,0.5366476774215698
1778147023545848369,1778147023.5458484,-2.490739170704977,-0.9281950753978272,-1.9528553485870361,-1.1616522532752533,1.1475368738174438,0.53660649061203
1778147023565826806,1778147023.565827,-2.4907031694995325,-0.9281706970981141,-1.952810525894165,-1.1616481405547638,1.1475495100021362,0.53667151927948
1778147023585895276,1778147023.5858953,-2.4907191435443323,-0.9281303447536011,-1.9528266191482544,-1.1616120499423523,1.1475377082824707,0.5366792678833008
1778147023610701440,1778147023.6107013,-2.490727249776022,-0.9281950753978272,-1.9528348445892334,-1.1616161328605195,1.1475207805633545,0.5366876125335693
1778147023626070512,1778147023.6260707,-2.4907313028918665,-0.9281421464732666,-1.9528753757476807,-1.1615919333747406,1.147562026977539,0.5366631746292114
1778147023645892284,1778147023.6458924,-2.4907150904284876,-0.9281706970981141,-1.9528671503067017,-1.1616161328605195,1.1475410461425781,0.5366107225418091
1778147023665837217,1778147023.6658375,-2.490694824849264,-0.9281665247729798,-1.952883243560791,-1.1616399449161072,1.1475857496261597,0.5366673469543457
1778147023685773082,1778147023.6857731,-2.490706745778219,-0.9282074135592957,-1.9528225660324097,-1.1616522532752533,1.1475167274475098,0.5366512537002563
1778147023705886448,1778147023.7058866,-2.4907191435443323,-0.9281059068492432,-1.952863097190857,-1.1616037052920838,1.1475292444229126,0.5366470813751221
1778147023726315271,1778147023.7263153,-2.4907031694995325,-0.9281420868686219,-1.9528589248657227,-1.161623941068985,1.1475207805633545,0.5366309285163879
1778147023749030846,1778147023.749031,-2.490699116383688,-0.9281831544688721,-1.9528511762619019,-1.161688671713211,1.1475334167480469,0.5366917848587036
1778147023765878090,1778147023.7658782,-2.490723435078756,-0.9281831544688721,-1.9528511762619019,-1.1616079074195405,1.1475410461425781,0.53667151927948
1778147023785979711,1778147023.7859797,-2.490678612385885,-0.9281950753978272,-1.952871322631836,-1.1616280239871521,1.1475334167480469,0.5366673469543457
1778147023805863547,1778147023.8058636,-2.490723435078756,-0.9281706374934693,-1.9528511762619019,-1.161623941068985,1.1475661993026733,0.5366673469543457
1778147023825792482,1778147023.8257926,-2.4907191435443323,-0.9281706374934693,-1.9528753757476807,-1.1616079074195405,1.147545337677002,0.5366393327713013
1778147023845848345,1778147023.8458483,-2.4907475153552454,-0.9281624120524903,-1.952871322631836,-1.1616440576365967,1.1475661993026733,0.5366595983505249
1778147023866072955,1778147023.866073,-2.4907355944262903,-0.9281831544688721,-1.9528748989105225,-1.1616522830775757,1.1475661993026733,0.5366792678833008
1778147023888991484,1778147023.8889916,-2.4907315413104456,-0.928174690609314,-1.9528106451034546,-1.1615959864905854,1.1475410461425781,0.5366756916046143
1778147023905799320,1778147023.9057996,-2.4907193819629114,-0.9281260532191773,-1.9528511762619019,-1.1615959864905854,1.147545337677002,0.5366673469543457
1778147023925822456,1778147023.9258225,-2.4907315413104456,-0.9281379741481324,-1.9528470039367676,-1.1616808337024231,1.1475249528884888,0.5366023182868958
1778147023945999484,1778147023.9459994,-2.4907107988940638,-0.9281421464732666,-1.9528470039367676,-1.1616079074195405,1.1475696563720703,0.5366673469543457
1778147023965988595,1778147023.9659886,-2.4907150904284876,-0.9281546038440247,-1.9528470039367676,-1.1616403323462983,1.147562026977539,0.5366512537002563
1778147023988439280,1778147023.9884393,-2.4907315413104456,-0.9281463187984009,-1.9528790712356567,-1.1616481703570862,1.147553563117981,0.5366792678833008
1778147024006130991,1778147024.0061312,-2.4907313028918665,-0.9281303447536011,-1.9528871774673462,-1.1616440576365967,1.1475738286972046,0.5366435050964355
1778147024025873160,1778147024.0258732,-2.49068266550173,-0.928166465168335,-1.9528188705444336,-1.16161202014003,1.1475982666015625,0.5366512537002563
1778147024045807323,1778147024.0458074,-2.490756098424093,-0.9281665247729798,-1.9528188705444336,-1.1616522532752533,1.1475661993026733,0.5366595983505249
1778147024065787252,1778147024.0657873,-2.49068266550173,-0.9281707567027588,-1.9528470039367676,-1.1616399449161072,1.1475661993026733,0.5366315841674805
1778147024085784449,1778147024.0857847,-2.490756098424093,-0.9281790417483826,-1.9528671503067017,-1.1616362494281312,1.1475292444229126,0.5366470813751221
1778147024105882270,1778147024.1058824,-2.490727249776022,-0.9281624716571351,-1.9528266191482544,-1.1615959864905854,1.1475495100021362,0.5366148948669434
